%
(Threads)
(Metric 6mm and 8mm)

(Used tools:)
(T7 D=4 CR=0 - ZMIN=-9 - Gewindefraser)
(T14 D=10.4 CR=0 TAPER=90deg - ZMIN=-2 - Konische Senkung)
(T15 D=3 CR=0 - ZMIN=-9 - Schaftfraser)


(Initial section)
#100=#900 (x-absolute machine coordinates)
#101=0   (y-absolute machine coordinates)
#102=0   (z-absolute machine coordinates, safety height)
PRINT "x-offset = ";#100;"mm"
ASKBOOL "Continue with x-offset" I=2
IF #0=0 THEN
  ASKFLT "Enter x-offset" I=0.0 J=720.0
  #100=#0
  PRINT "x-offset = ";#100;"mm"
ENDIF

(Absolute coordinates and feedrate in mm/min)
N10 G90 G94
(Units in mm)
N15 G21
N20 G53 G0 Z0

(Hole milling)
N25 M9
M98 P1234 (call subroutine 1234)
N30 T15 M6
M98 P1234 (call subroutine 1234)
N35 S5000 M3
N40 G54
N45 M9
N50 G17
N55 G0 X10.65 Y12.2
N60 G0 G43 Z18 H15
N65 G0 Z2
N70 G1 Z0.3 F1000
N75 G18 G2 X10.95 Z0 I0.3 K0
N80 G1 X11.1
N85 G17 G3 X11.4 Y12.5 I0 J0.3
N90 G3 X8.6 Z-0.5 I-1.4 J0
N95 G3 X11.4 Z-1 I1.4 J0
N100 G3 X8.6 Z-1.5 I-1.4 J0
N105 G3 X11.4 Z-2 I1.4 J0
N110 G3 X8.6 Z-2.5 I-1.4 J0
N115 G3 X11.4 Z-3 I1.4 J0
N120 G3 X8.6 Z-3.5 I-1.4 J0
N125 G3 X11.4 Z-4 I1.4 J0
N130 G3 X8.6 Z-4.5 I-1.4 J0
N135 G3 X11.4 Z-5 I1.4 J0
N140 G3 X8.6 Z-5.5 I-1.4 J0
N145 G3 X11.4 Z-6 I1.4 J0
N150 G3 X8.6 Z-6.5 I-1.4 J0
N155 G3 X11.4 Z-7 I1.4 J0
N160 G3 X8.6 Z-7.5 I-1.4 J0
N165 G3 X11.4 Z-8 I1.4 J0
N170 G3 X8.6 Z-8.5 I-1.4 J0
N175 G3 X11.4 Z-9 I1.4 J0
N180 G3 X8.6 I-1.4 J0
N185 G3 X11.4 I1.4 J0
N190 G3 X11.1 Y12.8 I-0.3 J0
N195 G1 X10.95
N200 G18 G3 X10.65 Z-8.7 I0 K0.3
N205 G0 Z8
N210 G0 X10.75 Y12.2
N215 G0 Z-7
N220 G1 Z-8.7 F1000
N225 G2 X11.05 Z-9 I0.3 K0
N230 G1 X11.2
N235 G17 G3 X11.5 Y12.5 I0 J0.3
N240 G3 X8.5 I-1.5 J0
N245 G3 X11.5 I1.5 J0
N250 G3 X11.2 Y12.8 I-0.3 J0
N255 G1 X11.05
N260 G18 G3 X10.75 Z-8.7 I0 K0.3
N265 G0 Z8
N270 G0 Y12.2
N275 G0 Z-7
N280 G1 Z-8.7 F1000
N285 G2 X11.05 Z-9 I0.3 K0
N290 G1 X11.2
N295 G17 G3 X11.5 Y12.5 I0 J0.3
N300 G3 X8.5 I-1.5 J0
N305 G3 X11.5 I1.5 J0
N310 G3 X11.2 Y12.8 I-0.3 J0
N315 G1 X11.05
N320 G18 G3 X10.75 Z-8.7 I0 K0.3
N325 G0 Z8
N330 G0 X31.65 Y12.2
N335 G0 Z2
N340 G1 Z0.3 F1000
N345 G2 X31.95 Z0 I0.3 K0
N350 G1 X32.1
N355 G17 G3 X32.4 Y12.5 I0 J0.3
N360 G3 X27.6 Z-0.5 I-2.4 J0
N365 G3 X32.4 Z-1 I2.4 J0
N370 G3 X27.6 Z-1.5 I-2.4 J0
N375 G3 X32.4 Z-2 I2.4 J0
N380 G3 X27.6 Z-2.5 I-2.4 J0
N385 G3 X32.4 Z-3 I2.4 J0
N390 G3 X27.6 Z-3.5 I-2.4 J0
N395 G3 X32.4 Z-4 I2.4 J0
N400 G3 X27.6 Z-4.5 I-2.4 J0
N405 G3 X32.4 Z-5 I2.4 J0
N410 G3 X27.6 Z-5.5 I-2.4 J0
N415 G3 X32.4 Z-6 I2.4 J0
N420 G3 X27.6 Z-6.5 I-2.4 J0
N425 G3 X32.4 Z-7 I2.4 J0
N430 G3 X27.6 Z-7.5 I-2.4 J0
N435 G3 X32.4 Z-8 I2.4 J0
N440 G3 X27.6 Z-8.5 I-2.4 J0
N445 G3 X32.4 Z-9 I2.4 J0
N450 G3 X27.6 I-2.4 J0
N455 G3 X32.4 I2.4 J0
N460 G3 X32.1 Y12.8 I-0.3 J0
N465 G1 X31.95
N470 G18 G3 X31.65 Z-8.7 I0 K0.3
N475 G0 Z8
N480 G0 X31.75 Y12.2
N485 G0 Z-7
N490 G1 Z-8.7 F1000
N495 G2 X32.05 Z-9 I0.3 K0
N500 G1 X32.2
N505 G17 G3 X32.5 Y12.5 I0 J0.3
N510 G3 X27.5 I-2.5 J0
N515 G3 X32.5 I2.5 J0
N520 G3 X32.2 Y12.8 I-0.3 J0
N525 G1 X32.05
N530 G18 G3 X31.75 Z-8.7 I0 K0.3
N535 G0 Z8
N540 G0 Y12.2
N545 G0 Z-7
N550 G1 Z-8.7 F1000
N555 G2 X32.05 Z-9 I0.3 K0
N560 G1 X32.2
N565 G17 G3 X32.5 Y12.5 I0 J0.3
N570 G3 X27.5 I-2.5 J0
N575 G3 X32.5 I2.5 J0
N580 G3 X32.2 Y12.8 I-0.3 J0
N585 G1 X32.05
N590 G18 G3 X31.75 Z-8.7 I0 K0.3
N595 G0 Z18
N600 G17
N605 M5
N610 G53 G0 Z0

(Chamfer)
N615 M9
M98 P1234 (call subroutine 1234)
N620 T14 M6
M98 P1234 (call subroutine 1234)
N625 S5000 M3
N630 G54
N635 M9
N645 G0 X30.71 Y12.5
N650 G0 G43 Z15 H14
N655 G0 Z5
N660 G1 Z2 F333.3
N665 G1 Z-2
N670 G1 X31.75 F1000
N675 G3 X28.25 I-1.75 J0
N680 G3 X31.75 I1.75 J0
N685 G1 X30.71
N690 G0 Z5
N695 G0 X9.71
N700 G1 Z2 F333.3
N705 G1 Z-2
N710 G1 X10.75 F1000
N715 G3 X9.25 I-0.75 J0
N720 G3 X10.75 I0.75 J0
N725 G1 X9.71
N730 G0 Z15
N740 M5
N745 G53 G0 Z0

(Thread 6mm)
N750 M9
M98 P1234 (call subroutine 1234)
N755 T7 M6
M98 P1234 (call subroutine 1234)
(Gewindewirbler M5 - M10)
N760 S14000 M3
N765 G54
N770 M9
N780 G0 X10 Y12.1
N785 G0 G43 Z15 H7
N790 G0 Z-7
N795 G1 Z-8.6 F120
N800 G18 G2 X10.4 Z-9 I0.4 K0
N805 G1 X10.6
N810 G17 G3 X11 Y12.5 I0 J0.4
N815 G3 X9 Z-8.5 I-1 J0 F250
N820 G3 X11 Z-8 I1 J0
N825 G3 X9 Z-7.5 I-1 J0
N830 G3 X11 Z-7 I1 J0
N835 G3 X9 Z-6.5 I-1 J0
N840 G3 X11 Z-6 I1 J0
N845 G3 X9 Z-5.5 I-1 J0
N850 G3 X11 Z-5 I1 J0
N855 G3 X9 Z-4.5 I-1 J0
N860 G3 X11 Z-4 I1 J0
N865 G3 X9 Z-3.5 I-1 J0
N870 G3 X11 Z-3 I1 J0
N875 G3 X9 Z-2.5 I-1 J0
N880 G3 X11 Z-2 I1 J0
N885 G3 X9 Z-1.5 I-1 J0
N890 G3 X11 Z-1 I1 J0
N895 G3 X9 Z-0.5 I-1 J0
N900 G3 X11 Z0 I1 J0
N905 G3 X10.6 Y12.9 I-0.4 J0 F120
N910 G1 X10.4
N915 G18 G3 X10 Z0.4 I0 K0.4
N920 G0 Z5
N925 G0 X10.5 Y12.1
N930 G0 Z-7
N935 G1 Z-8.6 F120
N940 G2 X10.9 Z-9 I0.4 K0
N945 G1 X11.1
N950 G17 G3 X11.5 Y12.5 I0 J0.4
N955 G3 X8.5 Z-8.5 I-1.5 J0 F250
N960 G3 X11.5 Z-8 I1.5 J0
N965 G3 X8.5 Z-7.5 I-1.5 J0
N970 G3 X11.5 Z-7 I1.5 J0
N975 G3 X8.5 Z-6.5 I-1.5 J0
N980 G3 X11.5 Z-6 I1.5 J0
N985 G3 X8.5 Z-5.5 I-1.5 J0
N990 G3 X11.5 Z-5 I1.5 J0
N995 G3 X8.5 Z-4.5 I-1.5 J0
N1000 G3 X11.5 Z-4 I1.5 J0
N1005 G3 X8.5 Z-3.5 I-1.5 J0
N1010 G3 X11.5 Z-3 I1.5 J0
N1015 G3 X8.5 Z-2.5 I-1.5 J0
N1020 G3 X11.5 Z-2 I1.5 J0
N1025 G3 X8.5 Z-1.5 I-1.5 J0
N1030 G3 X11.5 Z-1 I1.5 J0
N1035 G3 X8.5 Z-0.5 I-1.5 J0
N1040 G3 X11.5 Z0 I1.5 J0
N1045 G3 X11.1 Y12.9 I-0.4 J0 F120
N1050 G1 X10.9
N1055 G18 G3 X10.5 Z0.4 I0 K0.4
N1060 G0 Z5
N1065 G0 Y12.1
N1070 G0 Z-7
N1075 G1 Z-8.6 F120
N1080 G2 X10.9 Z-9 I0.4 K0
N1085 G1 X11.1
N1090 G17 G3 X11.5 Y12.5 I0 J0.4
N1095 G3 X8.5 Z-8.5 I-1.5 J0 F250
N1100 G3 X11.5 Z-8 I1.5 J0
N1105 G3 X8.5 Z-7.5 I-1.5 J0
N1110 G3 X11.5 Z-7 I1.5 J0
N1115 G3 X8.5 Z-6.5 I-1.5 J0
N1120 G3 X11.5 Z-6 I1.5 J0
N1125 G3 X8.5 Z-5.5 I-1.5 J0
N1130 G3 X11.5 Z-5 I1.5 J0
N1135 G3 X8.5 Z-4.5 I-1.5 J0
N1140 G3 X11.5 Z-4 I1.5 J0
N1145 G3 X8.5 Z-3.5 I-1.5 J0
N1150 G3 X11.5 Z-3 I1.5 J0
N1155 G3 X8.5 Z-2.5 I-1.5 J0
N1160 G3 X11.5 Z-2 I1.5 J0
N1165 G3 X8.5 Z-1.5 I-1.5 J0
N1170 G3 X11.5 Z-1 I1.5 J0
N1175 G3 X8.5 Z-0.5 I-1.5 J0
N1180 G3 X11.5 Z0 I1.5 J0
N1185 G3 X11.1 Y12.9 I-0.4 J0 F120
N1190 G1 X10.9
N1195 G18 G3 X10.5 Z0.4 I0 K0.4
N1200 G0 Z15
N1205 G17

(Thread 8mm)
N1210 M9
N1215 G0 X30.6 Y12.1
N1220 G0 Z15
N1225 G0 Z-7
N1230 G1 Z-8.6 F120
N1235 G18 G2 X31 Z-9 I0.4 K0
N1240 G1 X31.2
N1245 G17 G3 X31.6 Y12.5 I0 J0.4
N1250 G3 X28.4 Z-8.375 I-1.6 J0 F250
N1255 G3 X31.6 Z-7.75 I1.6 J0
N1260 G3 X28.4 Z-7.125 I-1.6 J0
N1265 G3 X31.6 Z-6.5 I1.6 J0
N1270 G3 X28.4 Z-5.875 I-1.6 J0
N1275 G3 X31.6 Z-5.25 I1.6 J0
N1280 G3 X28.4 Z-4.625 I-1.6 J0
N1285 G3 X31.6 Z-4 I1.6 J0
N1290 G3 X28.4 Z-3.375 I-1.6 J0
N1295 G3 X31.6 Z-2.75 I1.6 J0
N1300 G3 X28.4 Z-2.125 I-1.6 J0
N1305 G3 X31.6 Z-1.5 I1.6 J0
N1310 G3 X28.4 Z-0.875 I-1.6 J0
N1315 G3 X31.6 Z-0.25 I1.6 J0
N1320 G3 X30.4944 Y14.0217 Z0 I-1.6 J0
N1325 G3 X29.9904 Y13.7649 I-0.1236 J-0.3804 F120
N1330 G1 X29.9286 Y13.5747
N1335 G1 X29.9045 Y13.5004 Z0.0077
N1340 G1 X29.8813 Y13.4291 Z0.0304
N1345 G1 X29.8599 Y13.3633 Z0.0674
N1350 G1 X29.8412 Y13.3057 Z0.1172
N1355 G1 X29.8258 Y13.2584 Z0.1778
N1360 G1 X29.8144 Y13.2232 Z0.2469
N1365 G1 X29.8074 Y13.2016 Z0.322
N1370 G1 X29.805 Y13.1942 Z0.4
N1375 G0 Z5
N1380 G0 X31.6 Y12.1
N1385 G0 Z-7
N1390 G1 Z-8.6 F120
N1395 G18 G2 X32 Z-9 I0.4 K0
N1400 G1 X32.2
N1405 G17 G3 X32.6 Y12.5 I0 J0.4
N1410 G3 X27.4 Z-8.375 I-2.6 J0 F250
N1415 G3 X32.6 Z-7.75 I2.6 J0
N1420 G3 X27.4 Z-7.125 I-2.6 J0
N1425 G3 X32.6 Z-6.5 I2.6 J0
N1430 G3 X27.4 Z-5.875 I-2.6 J0
N1435 G3 X32.6 Z-5.25 I2.6 J0
N1440 G3 X27.4 Z-4.625 I-2.6 J0
N1445 G3 X32.6 Z-4 I2.6 J0
N1450 G3 X27.4 Z-3.375 I-2.6 J0
N1455 G3 X32.6 Z-2.75 I2.6 J0
N1460 G3 X27.4 Z-2.125 I-2.6 J0
N1465 G3 X32.6 Z-1.5 I2.6 J0
N1470 G3 X27.4 Z-0.875 I-2.6 J0
N1475 G3 X32.6 Z-0.25 I2.6 J0
N1480 G3 X30.8034 Y14.9727 Z0 I-2.6 J0
N1485 G3 X30.2994 Y14.7159 I-0.1236 J-0.3804 F120
N1490 G1 X30.2376 Y14.5257
N1495 G1 X30.2135 Y14.4515 Z0.0077
N1500 G1 X30.1903 Y14.3801 Z0.0304
N1505 G1 X30.1689 Y14.3144 Z0.0674
N1510 G1 X30.1502 Y14.2567 Z0.1172
N1515 G1 X30.1348 Y14.2094 Z0.1778
N1520 G1 X30.1234 Y14.1743 Z0.2469
N1525 G1 X30.1164 Y14.1526 Z0.322
N1530 G1 X30.114 Y14.1453 Z0.4
N1535 G0 Z5
N1540 G0 X31.6 Y12.1
N1545 G0 Z-7
N1550 G1 Z-8.6 F120
N1555 G18 G2 X32 Z-9 I0.4 K0
N1560 G1 X32.2
N1565 G17 G3 X32.6 Y12.5 I0 J0.4
N1570 G3 X27.4 Z-8.375 I-2.6 J0 F250
N1575 G3 X32.6 Z-7.75 I2.6 J0
N1580 G3 X27.4 Z-7.125 I-2.6 J0
N1585 G3 X32.6 Z-6.5 I2.6 J0
N1590 G3 X27.4 Z-5.875 I-2.6 J0
N1595 G3 X32.6 Z-5.25 I2.6 J0
N1600 G3 X27.4 Z-4.625 I-2.6 J0
N1605 G3 X32.6 Z-4 I2.6 J0
N1610 G3 X27.4 Z-3.375 I-2.6 J0
N1615 G3 X32.6 Z-2.75 I2.6 J0
N1620 G3 X27.4 Z-2.125 I-2.6 J0
N1625 G3 X32.6 Z-1.5 I2.6 J0
N1630 G3 X27.4 Z-0.875 I-2.6 J0
N1635 G3 X32.6 Z-0.25 I2.6 J0
N1640 G3 X30.8034 Y14.9727 Z0 I-2.6 J0
N1645 G3 X30.2994 Y14.7159 I-0.1236 J-0.3804 F120
N1650 G1 X30.2376 Y14.5257
N1655 G1 X30.2135 Y14.4515 Z0.0077
N1660 G1 X30.1903 Y14.3801 Z0.0304
N1665 G1 X30.1689 Y14.3144 Z0.0674
N1670 G1 X30.1502 Y14.2567 Z0.1172
N1675 G1 X30.1348 Y14.2094 Z0.1778
N1680 G1 X30.1234 Y14.1743 Z0.2469
N1685 G1 X30.1164 Y14.1526 Z0.322
N1690 G1 X30.114 Y14.1453 Z0.4
N1695 G0 Z15
N1705 M9
N1710 G53 G0 Z0

M98 P1234 (call subroutine 1234)

N1715 G28
N1720 M30


(Subroutine 1234)
O1234:
G53 (machine coordinates)
G0 (go fast)
Z=#102 (safety height)
Y=#101
X=#100
G54 (workpiece coordinates)
M99 (End Subroutine 1234)

