%
(Thread test)
(M6, M8, 1/2-20 UNF)

(Tools)
(T3 D=2 CR=0 TAPER=30deg - ZMIN=-0.8 - NC-Anbohrer)
(T7 D=4 CR=0 - ZMIN=-12 - Gewindefraser)
(T8 D=8 CR=0 - ZMIN=-12 - Gewindefraser)
(T13 D=8 CR=0 TAPER=90deg - ZMIN=-2.6 - Konische Senkung)
(T18 D=10 CR=0 - ZMIN=-0.2 - Schaftfraser)
(T21 D=3 CR=0 - ZMIN=-12 - Schaftfraser)


(Initial section)
G54 (needed here so that offsets are being read)
#100=#900 (use x-offset of G54 for G53)
#101=0   (safe y for G53)
#102=0   (safe z for G53)
PRINT "x-offset = ";#100;"mm"
ASKBOOL "Continue with x-offset" I=2
IF #0=0 THEN
  ASKFLT "Enter x-offset" I=0.0 J=720.0
  #100=#0
  PRINT "x-offset = ";#100;"mm"
ENDIF

(Absolute coordinates and feedrate in mm/min)
N10 G90 G94
N15 G17
(Units in mm)
N20 G21
N25 G53 G0 Z0

(Uncomment to skip until specified label)
(Skip label must exist, than jump label is accepted)
(SKIP L0000)

(L0001:)

(Face)
M98 P1234 (call subroutine 1234)
N30 M9
N35 T18 M6
M98 P1234 (call subroutine 1234)
(Carbide End Mill 10mm)
N40 S5000 M3
N45 G54
(Edit repeat count according to needs)
REPEAT=1
N50 M9
N60 G0 X59.3259 Y-1.708
N65 G0 G43 Z18 H18
N70 G0 Z5
N75 G1 Z0.8 F1000
N80 G18 G3 X58.3259 Z-0.2 I-1 K0
N85 G1 X53
N90 G1 X-3 F800
N95 G17 G2 Y4.514 I0 J3.111
N100 G1 X53
N105 G3 Y10.736 I0 J3.111
N110 G1 X-3
N115 G2 Y16.958 I0 J3.111
N120 G1 X53
N125 G3 Y23.18 I0 J3.111
N130 G1 X-3
N135 G18 G3 X-4 Z0.8 I0 K1 F1000
N140 G0 Z18
N145 G17
NEXT
N150 M5
N155 G53 G0 Z0

(Uncomment to skip until specified label)
(Skip label must exist, than jump label is accepted)
(SKIP L0000)

(L0002:)

(Hole M6)
M98 P1234 (call subroutine 1234)
N160 M9
N165 T21 M6
M98 P1234 (call subroutine 1234)
(3.0mm ALU 2-Flute)
N170 S30000 M3
N175 G54
(Edit repeat count according to needs)
REPEAT=1
N180 M9
N190 G0 X10 Y12.5
N195 G0 G43 Z18 H21
N200 G0 Z2
N205 G1 Z0 F1440
N210 G1 X10.6 Y12.2
N215 G3 X10.9 Y12.5 I0 J0.3
N220 G3 X9.1 Z-0.5 I-0.9 J0
N225 G3 X10.9 Z-1 I0.9 J0
N230 G3 X9.1 Z-1.5 I-0.9 J0
N235 G3 X10.9 Z-2 I0.9 J0
N240 G3 X9.1 Z-2.5 I-0.9 J0
N245 G3 X10.9 Z-3 I0.9 J0
N250 G3 X9.1 Z-3.5 I-0.9 J0
N255 G3 X10.9 Z-4 I0.9 J0
N260 G3 X9.1 Z-4.5 I-0.9 J0
N265 G3 X10.9 Z-5 I0.9 J0
N270 G3 X9.1 Z-5.5 I-0.9 J0
N275 G3 X10.9 Z-6 I0.9 J0
N280 G3 X9.1 Z-6.5 I-0.9 J0
N285 G3 X10.9 Z-7 I0.9 J0
N290 G3 X9.1 Z-7.5 I-0.9 J0
N295 G3 X10.9 Z-8 I0.9 J0
N300 G3 X9.1 Z-8.5 I-0.9 J0
N305 G3 X10.9 Z-9 I0.9 J0
N310 G3 X9.1 Z-9.5 I-0.9 J0
N315 G3 X10.9 Z-10 I0.9 J0
N320 G3 X9.1 Z-10.5 I-0.9 J0
N325 G3 X10.9 Z-11 I0.9 J0
N330 G3 X9.1 Z-11.5 I-0.9 J0
N335 G3 X10.9 Z-12 I0.9 J0
N340 G3 X9.1 I-0.9 J0
N345 G3 X10.9 I0.9 J0
N350 G3 X10.6 Y12.8 I-0.3 J0
N355 G1 X10 Y12.5
N360 G0 Z8
N365 G0 X10.25 Y12.2
N370 G0 Z-10
N375 G1 Z-11.7 F1440
N380 G18 G2 X10.55 Z-12 I0.3 K0
N385 G1 X10.7
N390 G17 G3 X11 Y12.5 I0 J0.3
N395 G3 X9 I-1 J0
N400 G3 X11 I1 J0
N405 G3 X10.7 Y12.8 I-0.3 J0
N410 G1 X10.55
N415 G18 G3 X10.25 Z-11.7 I0 K0.3
N420 G0 Z8
N425 G0 Y12.2
N430 G0 Z-10
N435 G1 Z-11.7 F1440
N440 G2 X10.55 Z-12 I0.3 K0
N445 G1 X10.7
N450 G17 G3 X11 Y12.5 I0 J0.3
N455 G3 X9 I-1 J0
N460 G3 X11 I1 J0
N465 G3 X10.7 Y12.8 I-0.3 J0
N470 G1 X10.55
N475 G18 G3 X10.25 Z-11.7 I0 K0.3
N480 G0 Z18
N485 G17
NEXT

(Uncomment to skip until specified label)
(Skip label must exist, than jump label is accepted)
(SKIP L0000)

(L0003:)

(Hole M8)
(Edit repeat count according to needs)
REPEAT=1
N490 M9
N495 G0 X40 Y12.5
N500 G0 Z18
N505 G0 Z2
N510 G1 Z0 F1440
N515 G1 X40.2 Y12.3
N520 G3 X40.4 Y12.5 I0 J0.2
N525 G3 X39.6 Z-0.5 I-0.4 J0
N530 G3 X40.4 Z-1 I0.4 J0
N535 G3 X39.6 Z-1.5 I-0.4 J0
N540 G3 X40.4 Z-2 I0.4 J0
N545 G3 X39.6 Z-2.5 I-0.4 J0
N550 G3 X40.4 Z-3 I0.4 J0
N555 G3 X39.6 Z-3.5 I-0.4 J0
N560 G3 X40.4 Z-4 I0.4 J0
N565 G3 X39.6 Z-4.5 I-0.4 J0
N570 G3 X40.4 Z-5 I0.4 J0
N575 G3 X39.6 Z-5.5 I-0.4 J0
N580 G3 X40.4 Z-6 I0.4 J0
N585 G3 X39.6 Z-6.5 I-0.4 J0
N590 G3 X40.4 Z-7 I0.4 J0
N595 G3 X39.6 Z-7.5 I-0.4 J0
N600 G3 X40.4 Z-8 I0.4 J0
N605 G3 X39.6 Z-8.5 I-0.4 J0
N610 G3 X40.4 Z-9 I0.4 J0
N615 G3 X39.6 Z-9.5 I-0.4 J0
N620 G3 X40.4 Z-10 I0.4 J0
N625 G3 X39.6 Z-10.5 I-0.4 J0
N630 G3 X40.4 Z-11 I0.4 J0
N635 G3 X39.6 Z-11.5 I-0.4 J0
N640 G3 X40.4 Z-12 I0.4 J0
N645 G3 X39.6 I-0.4 J0
N650 G3 X40.4 I0.4 J0
N655 G3 X40.2 Y12.7 I-0.2 J0
N660 G1 X40 Y12.5
N665 G0 Z8
N670 G0 Z2
N675 G1 Z0 F1440
N680 G1 X41.5 Y12.2
N685 G3 X41.8 Y12.5 I0 J0.3
N690 G3 X38.2 Z-0.5 I-1.8 J0
N695 G3 X41.8 Z-1 I1.8 J0
N700 G3 X38.2 Z-1.5 I-1.8 J0
N705 G3 X41.8 Z-2 I1.8 J0
N710 G3 X38.2 Z-2.5 I-1.8 J0
N715 G3 X41.8 Z-3 I1.8 J0
N720 G3 X38.2 Z-3.5 I-1.8 J0
N725 G3 X41.8 Z-4 I1.8 J0
N730 G3 X38.2 Z-4.5 I-1.8 J0
N735 G3 X41.8 Z-5 I1.8 J0
N740 G3 X38.2 Z-5.5 I-1.8 J0
N745 G3 X41.8 Z-6 I1.8 J0
N750 G3 X38.2 Z-6.5 I-1.8 J0
N755 G3 X41.8 Z-7 I1.8 J0
N760 G3 X38.2 Z-7.5 I-1.8 J0
N765 G3 X41.8 Z-8 I1.8 J0
N770 G3 X38.2 Z-8.5 I-1.8 J0
N775 G3 X41.8 Z-9 I1.8 J0
N780 G3 X38.2 Z-9.5 I-1.8 J0
N785 G3 X41.8 Z-10 I1.8 J0
N790 G3 X38.2 Z-10.5 I-1.8 J0
N795 G3 X41.8 Z-11 I1.8 J0
N800 G3 X38.2 Z-11.5 I-1.8 J0
N805 G3 X41.8 Z-12 I1.8 J0
N810 G3 X38.2 I-1.8 J0
N815 G3 X41.8 I1.8 J0
N820 G3 X41.5 Y12.8 I-0.3 J0
N825 G1 X40 Y12.5
N830 G0 Z8
N835 G0 X41.15 Y12.2
N840 G0 Z-10
N845 G1 Z-11.7 F1440
N850 G18 G2 X41.45 Z-12 I0.3 K0
N855 G1 X41.6
N860 G17 G3 X41.9 Y12.5 I0 J0.3
N865 G3 X38.1 I-1.9 J0
N870 G3 X41.9 I1.9 J0
N875 G3 X41.6 Y12.8 I-0.3 J0
N880 G1 X41.45
N885 G18 G3 X41.15 Z-11.7 I0 K0.3
N890 G0 Z8
N895 G0 Y12.2
N900 G0 Z-10
N905 G1 Z-11.7 F1440
N910 G2 X41.45 Z-12 I0.3 K0
N915 G1 X41.6
N920 G17 G3 X41.9 Y12.5 I0 J0.3
N925 G3 X38.1 I-1.9 J0
N930 G3 X41.9 I1.9 J0
N935 G3 X41.6 Y12.8 I-0.3 J0
N940 G1 X41.45
N945 G18 G3 X41.15 Z-11.7 I0 K0.3
N950 G0 Z18
N955 G17
NEXT

(Uncomment to skip until specified label)
(Skip label must exist, than jump label is accepted)
(SKIP L0000)

(L0004:)

(Hole 1/2-20 UNF)
(Edit repeat count according to needs)
REPEAT=1
N960 M9
N965 G0 X25 Y12.5
N970 G0 Z18
N975 G0 Z2
N980 G1 Z0 F1440
N985 G1 X26.85 Y12.2
N990 G3 X27.15 Y12.5 I0 J0.3
N995 G3 X22.85 Z-0.5 I-2.15 J0
N1000 G3 X27.15 Z-1 I2.15 J0
N1005 G3 X22.85 Z-1.5 I-2.15 J0
N1010 G3 X27.15 Z-2 I2.15 J0
N1015 G3 X22.85 Z-2.5 I-2.15 J0
N1020 G3 X27.15 Z-3 I2.15 J0
N1025 G3 X22.85 Z-3.5 I-2.15 J0
N1030 G3 X27.15 Z-4 I2.15 J0
N1035 G3 X22.85 Z-4.5 I-2.15 J0
N1040 G3 X27.15 Z-5 I2.15 J0
N1045 G3 X22.85 Z-5.5 I-2.15 J0
N1050 G3 X27.15 Z-6 I2.15 J0
N1055 G3 X22.85 Z-6.5 I-2.15 J0
N1060 G3 X27.15 Z-7 I2.15 J0
N1065 G3 X22.85 Z-7.5 I-2.15 J0
N1070 G3 X27.15 Z-8 I2.15 J0
N1075 G3 X22.85 Z-8.5 I-2.15 J0
N1080 G3 X27.15 Z-9 I2.15 J0
N1085 G3 X22.85 Z-9.5 I-2.15 J0
N1090 G3 X27.15 Z-10 I2.15 J0
N1095 G3 X22.85 Z-10.5 I-2.15 J0
N1100 G3 X27.15 Z-11 I2.15 J0
N1105 G3 X22.85 Z-11.5 I-2.15 J0
N1110 G3 X27.15 Z-12 I2.15 J0
N1115 G3 X22.85 I-2.15 J0
N1120 G3 X27.15 I2.15 J0
N1125 G3 X26.85 Y12.8 I-0.3 J0
N1130 G1 X25 Y12.5
N1135 G0 Z8
N1140 G0 Z2
N1145 G1 Z0 F1440
N1150 G1 X27.85 Y12.2
N1155 G3 X28.15 Y12.5 I0 J0.3
N1160 G3 X21.85 Z-0.5 I-3.15 J0
N1165 G3 X28.15 Z-1 I3.15 J0
N1170 G3 X21.85 Z-1.5 I-3.15 J0
N1175 G3 X28.15 Z-2 I3.15 J0
N1180 G3 X21.85 Z-2.5 I-3.15 J0
N1185 G3 X28.15 Z-3 I3.15 J0
N1190 G3 X21.85 Z-3.5 I-3.15 J0
N1195 G3 X28.15 Z-4 I3.15 J0
N1200 G3 X21.85 Z-4.5 I-3.15 J0
N1205 G3 X28.15 Z-5 I3.15 J0
N1210 G3 X21.85 Z-5.5 I-3.15 J0
N1215 G3 X28.15 Z-6 I3.15 J0
N1220 G3 X21.85 Z-6.5 I-3.15 J0
N1225 G3 X28.15 Z-7 I3.15 J0
N1230 G3 X21.85 Z-7.5 I-3.15 J0
N1235 G3 X28.15 Z-8 I3.15 J0
N1240 G3 X21.85 Z-8.5 I-3.15 J0
N1245 G3 X28.15 Z-9 I3.15 J0
N1250 G3 X21.85 Z-9.5 I-3.15 J0
N1255 G3 X28.15 Z-10 I3.15 J0
N1260 G3 X21.85 Z-10.5 I-3.15 J0
N1265 G3 X28.15 Z-11 I3.15 J0
N1270 G3 X21.85 Z-11.5 I-3.15 J0
N1275 G3 X28.15 Z-12 I3.15 J0
N1280 G3 X21.85 I-3.15 J0
N1285 G3 X28.15 I3.15 J0
N1290 G3 X27.85 Y12.8 I-0.3 J0
N1295 G1 X25 Y12.5
N1300 G0 Z8
N1305 G0 Z2
N1310 G1 Z0 F1440
N1315 G1 X28.85 Y12.2
N1320 G3 X29.15 Y12.5 I0 J0.3
N1325 G3 X20.85 Z-0.5 I-4.15 J0
N1330 G3 X29.15 Z-1 I4.15 J0
N1335 G3 X20.85 Z-1.5 I-4.15 J0
N1340 G3 X29.15 Z-2 I4.15 J0
N1345 G3 X20.85 Z-2.5 I-4.15 J0
N1350 G3 X29.15 Z-3 I4.15 J0
N1355 G3 X20.85 Z-3.5 I-4.15 J0
N1360 G3 X29.15 Z-4 I4.15 J0
N1365 G3 X20.85 Z-4.5 I-4.15 J0
N1370 G3 X29.15 Z-5 I4.15 J0
N1375 G3 X20.85 Z-5.5 I-4.15 J0
N1380 G3 X29.15 Z-6 I4.15 J0
N1385 G3 X20.85 Z-6.5 I-4.15 J0
N1390 G3 X29.15 Z-7 I4.15 J0
N1395 G3 X20.85 Z-7.5 I-4.15 J0
N1400 G3 X29.15 Z-8 I4.15 J0
N1405 G3 X20.85 Z-8.5 I-4.15 J0
N1410 G3 X29.15 Z-9 I4.15 J0
N1415 G3 X20.85 Z-9.5 I-4.15 J0
N1420 G3 X29.15 Z-10 I4.15 J0
N1425 G3 X20.85 Z-10.5 I-4.15 J0
N1430 G3 X29.15 Z-11 I4.15 J0
N1435 G3 X20.85 Z-11.5 I-4.15 J0
N1440 G3 X29.15 Z-12 I4.15 J0
N1445 G3 X20.85 I-4.15 J0
N1450 G3 X29.15 I4.15 J0
N1455 G3 X28.85 Y12.8 I-0.3 J0
N1460 G1 X25 Y12.5
N1465 G0 Z8
N1470 G0 X28.5 Y12.2
N1475 G0 Z-10
N1480 G1 Z-11.7 F1440
N1485 G18 G2 X28.8 Z-12 I0.3 K0
N1490 G1 X28.95
N1495 G17 G3 X29.25 Y12.5 I0 J0.3
N1500 G3 X20.75 I-4.25 J0
N1505 G3 X29.25 I4.25 J0
N1510 G3 X28.95 Y12.8 I-0.3 J0
N1515 G1 X28.8
N1520 G18 G3 X28.5 Z-11.7 I0 K0.3
N1525 G0 Z8
N1530 G0 Y12.2
N1535 G0 Z-10
N1540 G1 Z-11.7 F1440
N1545 G2 X28.8 Z-12 I0.3 K0
N1550 G1 X28.95
N1555 G17 G3 X29.25 Y12.5 I0 J0.3
N1560 G3 X20.75 I-4.25 J0
N1565 G3 X29.25 I4.25 J0
N1570 G3 X28.95 Y12.8 I-0.3 J0
N1575 G1 X28.8
N1580 G18 G3 X28.5 Z-11.7 I0 K0.3
N1585 G0 Z18
N1590 G17
NEXT
N1595 M5
N1600 G53 G0 Z0

(Uncomment to skip until specified label)
(Skip label must exist, than jump label is accepted)
(SKIP L0000)

(L0005:)

(Chamfer)
M98 P1234 (call subroutine 1234)
N1605 M9
N1610 T13 M6
M98 P1234 (call subroutine 1234)
N1615 S5000 M3
N1620 G54
(Edit repeat count according to needs)
REPEAT=1
N1625 M9
N1635 G0 X27.95 Y12.5
N1640 G0 G43 Z15 H13
N1645 G0 Z5
N1650 G1 Z-2.5 F333.3
N1655 G1 X28.75 F1000
N1660 G3 X21.25 I-3.75 J0
N1665 G3 X28.75 I3.75 J0
N1670 G3 X27.6126 Y15.1901 I-3.75 J0
N1675 G1 X27.0553 Y14.6162
N1680 G0 Z5
N1685 G0 X40.6 Y12.5
N1690 G1 Z-2.5 F333.3
N1695 G1 X41.4 F1000
N1700 G3 X38.6 I-1.4 J0
N1705 G3 X41.4 I1.4 J0
N1710 G3 X39.2421 Y13.6771 I-1.4 J0
N1715 G1 X39.6752 Y13.0045
N1720 G0 Z15
NEXT

(Uncomment to skip until specified label)
(Skip label must exist, than jump label is accepted)
(SKIP L0000)

(L0006:)

(Bohren1)
(Edit repeat count according to needs)
REPEAT=1
N1730 M9
N1735 G0 X10 Y12.5
N1740 G0 Z15
N1750 G0 Z5
N1755 G81 Z-2.6 R5 F333.3
N1760 G80
N1765 G0 X10 Y12.5 Z15
NEXT
N1775 M5
N1780 G53 G0 Z0

(Uncomment to skip until specified label)
(Skip label must exist, than jump label is accepted)
(SKIP L0000)

(L0007:)

(Thread 1/2-20 UNF)
M98 P1234 (call subroutine 1234)
N1785 M9
N1790 T8 M6
M98 P1234 (call subroutine 1234)
(Gewindewirbler M10 - M16)
N1795 S10000 M3
N1800 G54
(Edit repeat count according to needs)
REPEAT=1
N1805 M9
N1815 G0 X25 Y12.5
N1820 G0 G43 Z15 H0
N1825 G0 Z-10
N1830 G1 Z-12 F120
N1835 G1 X25.78 Y11.72
N1840 G3 X26.56 Y12.5 I0 J0.78
N1845 G3 X23.44 Z-11.365 I-1.56 J0 F500
N1850 G3 X26.56 Z-10.73 I1.56 J0
N1855 G3 X23.44 Z-10.095 I-1.56 J0
N1860 G3 X26.56 Z-9.46 I1.56 J0
N1865 G3 X23.44 Z-8.825 I-1.56 J0
N1870 G3 X26.56 Z-8.19 I1.56 J0
N1875 G3 X23.44 Z-7.555 I-1.56 J0
N1880 G3 X26.56 Z-6.92 I1.56 J0
N1885 G3 X23.44 Z-6.285 I-1.56 J0
N1890 G3 X26.56 Z-5.65 I1.56 J0
N1895 G3 X23.44 Z-5.015 I-1.56 J0
N1900 G3 X26.56 Z-4.38 I1.56 J0
N1905 G3 X23.44 Z-3.745 I-1.56 J0
N1910 G3 X26.56 Z-3.11 I1.56 J0
N1915 G3 X23.44 Z-2.475 I-1.56 J0
N1920 G3 X26.56 Z-1.84 I1.56 J0
N1925 G3 X23.44 Z-1.205 I-1.56 J0
N1930 G3 X26.56 Z-0.57 I1.56 J0
N1935 G3 X23.52 Y12.9931 Z0 I-1.56 J0
N1940 G3 X24.0135 Y12.0065 I0.74 J-0.2465 F120
N1945 G1 X25 Y12.5
N1950 G0 Z5
N1955 G0 Z-10
N1960 G1 Z-12 F120
N1965 G1 X26.76 Y11.7
N1970 G3 X27.56 Y12.5 I0 J0.8
N1975 G3 X22.44 Z-11.365 I-2.56 J0 F500
N1980 G3 X27.56 Z-10.73 I2.56 J0
N1985 G3 X22.44 Z-10.095 I-2.56 J0
N1990 G3 X27.56 Z-9.46 I2.56 J0
N1995 G3 X22.44 Z-8.825 I-2.56 J0
N2000 G3 X27.56 Z-8.19 I2.56 J0
N2005 G3 X22.44 Z-7.555 I-2.56 J0
N2010 G3 X27.56 Z-6.92 I2.56 J0
N2015 G3 X22.44 Z-6.285 I-2.56 J0
N2020 G3 X27.56 Z-5.65 I2.56 J0
N2025 G3 X22.44 Z-5.015 I-2.56 J0
N2030 G3 X27.56 Z-4.38 I2.56 J0
N2035 G3 X22.44 Z-3.745 I-2.56 J0
N2040 G3 X27.56 Z-3.11 I2.56 J0
N2045 G3 X22.44 Z-2.475 I-2.56 J0
N2050 G3 X27.56 Z-1.84 I2.56 J0
N2055 G3 X22.44 Z-1.205 I-2.56 J0
N2060 G3 X27.56 Z-0.57 I2.56 J0
N2065 G3 X22.5712 Y13.3091 Z0 I-2.56 J0
N2070 G3 X23.0774 Y12.2973 I0.759 J-0.2529 F120
N2075 G1 X25 Y12.5
N2080 G0 Z5
N2085 G0 Z-10
N2090 G1 Z-12 F120
N2095 G1 X26.76 Y11.7
N2100 G3 X27.56 Y12.5 I0 J0.8
N2105 G3 X22.44 Z-11.365 I-2.56 J0 F500
N2110 G3 X27.56 Z-10.73 I2.56 J0
N2115 G3 X22.44 Z-10.095 I-2.56 J0
N2120 G3 X27.56 Z-9.46 I2.56 J0
N2125 G3 X22.44 Z-8.825 I-2.56 J0
N2130 G3 X27.56 Z-8.19 I2.56 J0
N2135 G3 X22.44 Z-7.555 I-2.56 J0
N2140 G3 X27.56 Z-6.92 I2.56 J0
N2145 G3 X22.44 Z-6.285 I-2.56 J0
N2150 G3 X27.56 Z-5.65 I2.56 J0
N2155 G3 X22.44 Z-5.015 I-2.56 J0
N2160 G3 X27.56 Z-4.38 I2.56 J0
N2165 G3 X22.44 Z-3.745 I-2.56 J0
N2170 G3 X27.56 Z-3.11 I2.56 J0
N2175 G3 X22.44 Z-2.475 I-2.56 J0
N2180 G3 X27.56 Z-1.84 I2.56 J0
N2185 G3 X22.44 Z-1.205 I-2.56 J0
N2190 G3 X27.56 Z-0.57 I2.56 J0
N2195 G3 X22.5712 Y13.3091 Z0 I-2.56 J0
N2200 G3 X23.0774 Y12.2973 I0.759 J-0.2529 F120
N2205 G1 X25 Y12.5
N2210 G0 Z15
NEXT
N2220 M5
N2225 G53 G0 Z0

(Uncomment to skip until specified label)
(Skip label must exist, than jump label is accepted)
(SKIP L0000)

(L0008:)

(Thread M8)
M98 P1234 (call subroutine 1234)
N2230 M9
N2235 T7 M6
M98 P1234 (call subroutine 1234)
(Gewindewirbler M5 - M10)
N2240 S14000 M3
N2245 G54
(Edit repeat count according to needs)
REPEAT=1
N2250 M9
N2260 G0 X40 Y12.5
N2265 G0 G43 Z15 H7
N2270 G0 Z-10
N2275 G1 Z-12 F120
N2280 G1 X41.79 Y12.1
N2285 G3 X42.19 Y12.5 I0 J0.4
N2290 G3 X37.81 Z-11.375 I-2.19 J0 F250
N2295 G3 X42.19 Z-10.75 I2.19 J0
N2300 G3 X37.81 Z-10.125 I-2.19 J0
N2305 G3 X42.19 Z-9.5 I2.19 J0
N2310 G3 X37.81 Z-8.875 I-2.19 J0
N2315 G3 X42.19 Z-8.25 I2.19 J0
N2320 G3 X37.81 Z-7.625 I-2.19 J0
N2325 G3 X42.19 Z-7 I2.19 J0
N2330 G3 X37.81 Z-6.375 I-2.19 J0
N2335 G3 X42.19 Z-5.75 I2.19 J0
N2340 G3 X37.81 Z-5.125 I-2.19 J0
N2345 G3 X42.19 Z-4.5 I2.19 J0
N2350 G3 X37.81 Z-3.875 I-2.19 J0
N2355 G3 X42.19 Z-3.25 I2.19 J0
N2360 G3 X37.81 Z-2.625 I-2.19 J0
N2365 G3 X42.19 Z-2 I2.19 J0
N2370 G3 X37.81 Z-1.375 I-2.19 J0
N2375 G3 X42.19 Z-0.75 I2.19 J0
N2380 G3 X37.81 Z-0.125 I-2.19 J0
N2385 G3 X38.2283 Y11.2128 Z0 I2.19 J0
N2390 G3 X38.787 Y11.1243 I0.3236 J0.2351 F120
N2395 G1 X40 Y12.5
N2400 G0 Z5
N2405 G0 Z-10
N2410 G1 Z-12 F120
N2415 G1 X41.79 Y12.1
N2420 G3 X42.19 Y12.5 I0 J0.4
N2425 G3 X37.81 Z-11.375 I-2.19 J0 F250
N2430 G3 X42.19 Z-10.75 I2.19 J0
N2435 G3 X37.81 Z-10.125 I-2.19 J0
N2440 G3 X42.19 Z-9.5 I2.19 J0
N2445 G3 X37.81 Z-8.875 I-2.19 J0
N2450 G3 X42.19 Z-8.25 I2.19 J0
N2455 G3 X37.81 Z-7.625 I-2.19 J0
N2460 G3 X42.19 Z-7 I2.19 J0
N2465 G3 X37.81 Z-6.375 I-2.19 J0
N2470 G3 X42.19 Z-5.75 I2.19 J0
N2475 G3 X37.81 Z-5.125 I-2.19 J0
N2480 G3 X42.19 Z-4.5 I2.19 J0
N2485 G3 X37.81 Z-3.875 I-2.19 J0
N2490 G3 X42.19 Z-3.25 I2.19 J0
N2495 G3 X37.81 Z-2.625 I-2.19 J0
N2500 G3 X42.19 Z-2 I2.19 J0
N2505 G3 X37.81 Z-1.375 I-2.19 J0
N2510 G3 X42.19 Z-0.75 I2.19 J0
N2515 G3 X37.81 Z-0.125 I-2.19 J0
N2520 G3 X38.2283 Y11.2128 Z0 I2.19 J0
N2525 G3 X38.787 Y11.1243 I0.3236 J0.2351 F120
N2530 G1 X40 Y12.5
N2535 G0 Z15
NEXT

(Uncomment to skip until specified label)
(Skip label must exist, than jump label is accepted)
(SKIP L0000)

(L0009:)

(Thread M6)
(Edit repeat count according to needs)
REPEAT=1
N2545 M9
N2550 G0 X10 Y12.5
N2555 G0 Z15
N2560 G0 Z-10
N2565 G1 Z-12 F120
N2570 G1 X10.74 Y12.1
N2575 G3 X11.14 Y12.5 I0 J0.4
N2580 G3 X8.86 Z-11.5 I-1.14 J0 F250
N2585 G3 X11.14 Z-11 I1.14 J0
N2590 G3 X8.86 Z-10.5 I-1.14 J0
N2595 G3 X11.14 Z-10 I1.14 J0
N2600 G3 X8.86 Z-9.5 I-1.14 J0
N2605 G3 X11.14 Z-9 I1.14 J0
N2610 G3 X8.86 Z-8.5 I-1.14 J0
N2615 G3 X11.14 Z-8 I1.14 J0
N2620 G3 X8.86 Z-7.5 I-1.14 J0
N2625 G3 X11.14 Z-7 I1.14 J0
N2630 G3 X8.86 Z-6.5 I-1.14 J0
N2635 G3 X11.14 Z-6 I1.14 J0
N2640 G3 X8.86 Z-5.5 I-1.14 J0
N2645 G3 X11.14 Z-5 I1.14 J0
N2650 G3 X8.86 Z-4.5 I-1.14 J0
N2655 G3 X11.14 Z-4 I1.14 J0
N2660 G3 X8.86 Z-3.5 I-1.14 J0
N2665 G3 X11.14 Z-3 I1.14 J0
N2670 G3 X8.86 Z-2.5 I-1.14 J0
N2675 G3 X11.14 Z-2 I1.14 J0
N2680 G3 X8.86 Z-1.5 I-1.14 J0
N2685 G3 X11.14 Z-1 I1.14 J0
N2690 G3 X8.86 Z-0.5 I-1.14 J0
N2695 G3 X11.14 Z0 I1.14 J0
N2700 G3 X10.74 Y12.9 I-0.4 J0 F120
N2705 G1 X10 Y12.5
N2710 G0 Z5
N2715 G0 Z-10
N2720 G1 Z-12 F120
N2725 G1 X10.74 Y12.1
N2730 G3 X11.14 Y12.5 I0 J0.4
N2735 G3 X8.86 Z-11.5 I-1.14 J0 F250
N2740 G3 X11.14 Z-11 I1.14 J0
N2745 G3 X8.86 Z-10.5 I-1.14 J0
N2750 G3 X11.14 Z-10 I1.14 J0
N2755 G3 X8.86 Z-9.5 I-1.14 J0
N2760 G3 X11.14 Z-9 I1.14 J0
N2765 G3 X8.86 Z-8.5 I-1.14 J0
N2770 G3 X11.14 Z-8 I1.14 J0
N2775 G3 X8.86 Z-7.5 I-1.14 J0
N2780 G3 X11.14 Z-7 I1.14 J0
N2785 G3 X8.86 Z-6.5 I-1.14 J0
N2790 G3 X11.14 Z-6 I1.14 J0
N2795 G3 X8.86 Z-5.5 I-1.14 J0
N2800 G3 X11.14 Z-5 I1.14 J0
N2805 G3 X8.86 Z-4.5 I-1.14 J0
N2810 G3 X11.14 Z-4 I1.14 J0
N2815 G3 X8.86 Z-3.5 I-1.14 J0
N2820 G3 X11.14 Z-3 I1.14 J0
N2825 G3 X8.86 Z-2.5 I-1.14 J0
N2830 G3 X11.14 Z-2 I1.14 J0
N2835 G3 X8.86 Z-1.5 I-1.14 J0
N2840 G3 X11.14 Z-1 I1.14 J0
N2845 G3 X8.86 Z-0.5 I-1.14 J0
N2850 G3 X11.14 Z0 I1.14 J0
N2855 G3 X10.74 Y12.9 I-0.4 J0 F120
N2860 G1 X10 Y12.5
N2865 G0 Z15
NEXT
N2875 M5
N2880 G53 G0 Z0

(Uncomment to skip until specified label)
(Skip label must exist, than jump label is accepted)
(SKIP L0000)

(L0010:)

(Engrave Text)
M98 P1234 (call subroutine 1234)
N2885 M9
N2890 T3 M6
M98 P1234 (call subroutine 1234)
(Gravierstichel 30?)
N2895 S15000 M3
N2900 G54
(Edit repeat count according to needs)
REPEAT=1
N2905 M9
N2915 G0 X5.6558 Y2.0691
N2920 G0 G43 Z15 H3
N2925 G0 Z5
N2930 G1 Z-0.0012 F952.5
N2935 G1 X5.8381 Y2.2514 Z-0.6815 F1000
N2940 G1 X6.0204 Y2.0691 Z-0.0012
N2945 G1 X5.8381 Y2.2514 Z-0.6815
N2950 G1 Y4.5063
N2955 G1 X5.8416 Y4.5571 Z-0.6947
N2960 G1 X5.8522 Y4.6078 Z-0.7342
N2965 G1 X5.8698 Y4.6586 Z-0.8
N2970 G2 X5.9853 Y4.7178 I0.1509 J-0.1523
N2975 G1 X5.8698
N2980 G1 Y4.6586
N2985 G1 Y4.7178
N2990 G1 X5.6558 Y4.9318 Z-0.0012
N2995 G1 X5.8698 Y4.7178 Z-0.8
N3000 G1 X5.9853
N3005 G1 X6.0207 Y4.7192 Z-0.7945
N3010 G1 X6.0561 Y4.7178 Z-0.8
N3015 G2 X6.0726 Y4.7143 I-0.0354 J-0.2114
N3020 G1 X6.0714 Y4.7178
N3025 G1 X6.0561
N3030 G1 X6.0714
N3035 G1 X6.2256 Y4.9318 Z-0.0012
N3040 G1 X6.0714 Y4.7178 Z-0.8
N3045 G1 X6.0726 Y4.7143
N3050 G1 X6.1073 Y4.6785 Z-0.7193
N3055 G1 X6.1363 Y4.6407 Z-0.6615
N3060 G1 X6.1594 Y4.601 Z-0.6267
N3065 G1 X6.1767 Y4.5593 Z-0.6148
N3070 G1 X6.8273 Y2.6268 Z-0.5937
N3075 G1 X6.8917 Y2.4305 Z-0.5856
N3080 G1 X6.9091 Y2.389 Z-0.5975
N3085 G1 X6.9327 Y2.3496 Z-0.6334
N3090 G1 X6.9623 Y2.3123 Z-0.6933
N3095 G1 X6.998 Y2.2771 Z-0.7771
N3100 G1 X6.849 Y2.0691 Z-0.0012
N3105 G1 X6.998 Y2.2771 Z-0.7771
N3110 G1 X7.0402 Y2.2749 Z-0.769
N3115 G1 X7.044 Z-0.7691
N3120 G1 X7.1904 Y2.0691 Z-0.0012
N3125 G1 X7.044 Y2.2749 Z-0.7691
N3130 G1 X7.0797 Y2.3035 Z-0.6784
N3135 G1 X7.1102 Y2.3338 Z-0.608
N3140 G1 X7.1356 Y2.3659 Z-0.5576
N3145 G1 X7.1559 Y2.3998 Z-0.5274
N3150 G1 X7.1712 Y2.4355 Z-0.5173
N3155 G1 X7.1786 Y2.4576 Z-0.5183
N3160 G1 X7.2488 Y2.6664 Z-0.5262
N3165 G1 X7.8864 Y4.5126 Z-0.5385
N3170 G1 X7.9021 Y4.5497 Z-0.5491
N3175 G1 X7.9231 Y4.5849 Z-0.5805
N3180 G1 X7.9495 Y4.6183 Z-0.6329
N3185 G1 X7.9811 Y4.6499 Z-0.706
N3190 G1 X8.0179 Y4.6796 Z-0.8
N3195 G2 X8.1735 Y4.6176 I0.0047 J-0.2143
N3200 G1 Y4.7178
N3205 G1 X8.0311
N3210 G1 X8.0179 Y4.6796
N3215 G1 X8.0311 Y4.7178
N3220 G1 X7.8783 Y4.9318 Z-0.0012
N3225 G1 X8.0311 Y4.7178 Z-0.8
N3230 G1 X8.1735
N3235 G1 X8.3876 Y4.9318 Z-0.0012
N3240 G1 X8.1735 Y4.7178 Z-0.8
N3245 G1 Y4.6176
N3250 G1 X8.1912 Y4.5668 Z-0.7342
N3255 G1 X8.2017 Y4.5161 Z-0.6947
N3260 G1 X8.2053 Y4.4653 Z-0.6815
N3265 G1 Y2.2515
N3270 G1 X8.023 Y2.0691 Z-0.0012
N3275 G1 X8.2053 Y2.2515 Z-0.6815
N3280 G1 X8.3876 Y2.0691 Z-0.0012
N3285 G0 Z5
N3290 G0 X24.4922 Y3.137
N3295 G1 Z-0.6622 F952.5
N3300 G1 X24.501 Y3.0444 Z-0.6596 F1000
N3305 G1 X24.5141 Y2.9551 Z-0.6564
N3310 G1 X24.532 Y2.8695 Z-0.6519
N3315 G1 X24.5554 Y2.7862 Z-0.6451
N3320 G1 X24.585 Y2.7018 Z-0.6352
N3325 G1 X24.6297 Y2.5933 Z-0.6192
N3330 G1 X24.6636 Y2.5182 Z-0.6066
N3335 G1 X24.6876 Y2.4676 Z-0.5983
N3340 G1 X24.7052 Y2.4381 Z-0.6051
N3345 G1 X24.7195 Y2.4167 Z-0.6148
N3350 G1 X24.7851 Y2.3481 Z-0.5989
N3355 G1 X24.8321 Y2.3046 Z-0.5909
N3360 G1 X24.88 Y2.2671 Z-0.5855
N3365 G1 X24.9038 Y2.2513 Z-0.5829
N3370 G1 X24.9463 Y2.2282 Z-0.5768
N3375 G1 X24.9814 Y2.2135 Z-0.5707
N3380 G1 X25.0324 Y2.1974 Z-0.5613
N3385 G1 X25.1018 Y2.1822 Z-0.5508
N3390 G1 X25.1733 Y2.1716 Z-0.5423
N3395 G1 X25.2242 Y2.1656 Z-0.5374
N3400 G1 X25.2515 Y2.1655 Z-0.5388
N3405 G1 X25.3243 Y2.1736 Z-0.5498
N3410 G1 X25.3981 Y2.1857 Z-0.5611
N3415 G1 X25.4502 Y2.1988 Z-0.568
N3420 G1 X25.4999 Y2.2171 Z-0.5716
N3425 G1 X25.5518 Y2.2432 Z-0.5748
N3430 G1 X25.5989 Y2.2729 Z-0.5823
N3435 G1 X25.6421 Y2.3045 Z-0.5954
N3440 G1 X25.6578 Y2.3172 Z-0.6007
N3445 G1 X25.6795 Y2.3389 Z-0.6008
N3450 G1 X25.7422 Y2.4073 Z-0.6069
N3455 G1 X25.7761 Y2.4483 Z-0.6085
N3460 G1 X25.7869 Y2.4638 Z-0.6115
N3465 G1 X25.8155 Y2.517 Z-0.6307
N3470 G1 X25.8333 Y2.5547 Z-0.6392
N3475 G1 X25.8541 Y2.6027 Z-0.6456
N3480 G1 X25.8993 Y2.7204 Z-0.6539
N3485 G1 X25.9215 Y2.8 Z-0.6457
N3490 G1 X25.9426 Y2.8875 Z-0.6438
N3495 G1 X25.9598 Y2.9754 Z-0.6481
N3500 G1 X25.9724 Y3.0625 Z-0.654
N3505 G1 X25.981 Y3.1531 Z-0.6596
N3510 G1 X25.9873 Y3.2817 Z-0.6656
N3515 G1 X25.9895 Y3.4816 Z-0.6741
N3520 G1 X25.9876 Y3.6878 Z-0.6665
N3525 G1 X25.9835 Y3.7797 Z-0.6624
N3530 G1 X25.9746 Y3.8829 Z-0.6556
N3535 G1 X25.9643 Y3.9617 Z-0.6503
N3540 G1 X25.9507 Y4.0424 Z-0.6482
N3545 G1 X25.9327 Y4.1281 Z-0.6513
N3550 G1 X25.9087 Y4.211 Z-0.6496
N3555 G1 X25.8906 Y4.2656 Z-0.6497
N3560 G1 X25.866 Y4.3304 Z-0.6457
N3565 G1 X25.8415 Y4.3871 Z-0.6369
N3570 G1 X25.8031 Y4.4682 Z-0.6179
N3575 G1 X25.7863 Y4.5003 Z-0.61
N3580 G1 X25.7689 Y4.5246 Z-0.6081
N3585 G1 X25.7314 Y4.5709 Z-0.6122
N3590 G1 X25.6961 Y4.6101 Z-0.6112
N3595 G1 X25.6641 Y4.6403 Z-0.6047
N3600 G1 X25.6221 Y4.6743 Z-0.5934
N3605 G1 X25.5907 Y4.6968 Z-0.5871
N3610 G1 X25.5622 Y4.7148 Z-0.5833
N3615 G1 X25.523 Y4.7344 Z-0.5738
N3620 G1 X25.4883 Y4.7494 Z-0.5701
N3625 G1 X25.4361 Y4.7676 Z-0.5683
N3630 G1 X25.3855 Y4.78 Z-0.5645
N3635 G1 X25.3202 Y4.7902 Z-0.5553
N3640 G1 X25.2375 Y4.7982 Z-0.5429
N3645 G1 X25.2158 Y4.7971 Z-0.5421
N3650 G1 X25.1085 Y4.7852 Z-0.5526
N3655 G1 X25.0434 Y4.7723 Z-0.5592
N3660 G1 X25.0075 Y4.7619 Z-0.5623
N3665 G1 X24.9608 Y4.7433 Z-0.564
N3670 G1 X24.9136 Y4.7184 Z-0.5671
N3675 G1 X24.8702 Y4.6904 Z-0.5748
N3680 G1 X24.8236 Y4.6558 Z-0.5905
N3685 G1 X24.8129 Y4.6465 Z-0.5926
N3690 G1 X24.7644 Y4.5966 Z-0.5952
N3695 G1 X24.7217 Y4.549 Z-0.5983
N3700 G1 X24.7092 Y4.5331 Z-0.6014
N3705 G1 X24.6886 Y4.5002 Z-0.6167
N3710 G1 X24.6711 Y4.4684 Z-0.6304
N3715 G1 X24.6544 Y4.4354 Z-0.6399
N3720 G1 X24.6295 Y4.3812 Z-0.6488
N3725 G1 X24.5967 Y4.3006 Z-0.6545
N3730 G1 X24.5728 Y4.2345 Z-0.6567
N3735 G1 X24.559 Y4.1858 Z-0.6515
N3740 G1 X24.536 Y4.0953 Z-0.648
N3745 G1 X24.516 Y3.9967 Z-0.6518
N3750 G1 X24.5021 Y3.9039 Z-0.6578
N3755 G1 X24.4929 Y3.8104 Z-0.6627
N3760 G1 X24.4863 Y3.681 Z-0.6677
N3765 G1 X24.4838 Y3.5129 Z-0.6732
N3770 G1 X24.4836 Y3.4809 Z-0.6743
N3775 G1 X24.4856 Y3.2743 Z-0.6663
N3780 G1 X24.4922 Y3.137 Z-0.6622
N3785 G0 Z5
N3790 G0 X15.4556 Y3.8857
N3795 G1 Z-0.0012 F952.5
N3800 G1 X15.4783 Y3.9196 Z-0.0859 F1000
N3805 G1 X15.5558 Y4.0372 Z-0.3751
N3810 G1 X15.6128 Y4.1288 Z-0.5878
N3815 G1 X15.4557 Y4.2248 Z-0.0015
N3820 G1 X15.6128 Y4.1288 Z-0.5878
N3825 G1 X15.7143 Y4.1842 Z-0.5859
N3830 G1 X15.8098 Y4.2417 Z-0.5867
N3835 G1 X15.8938 Y4.2983 Z-0.5913
N3840 G1 X15.9471 Y4.3383 Z-0.5918
N3845 G1 X16.0502 Y4.423 Z-0.5858
N3850 G1 X16.0707 Y4.4396 Z-0.5867
N3855 G1 X16.0959 Y4.4575 Z-0.6009
N3860 G1 X16.1143 Y4.4685 Z-0.6175
N3865 G1 X16.1342 Y4.4789 Z-0.6403
N3870 G1 X16.1547 Y4.4881 Z-0.6682
N3875 G1 X16.1776 Y4.4968 Z-0.7043
N3880 G1 X16.2013 Y4.5043 Z-0.7462
N3885 G1 X16.2288 Y4.5115 Z-0.8
N3890 G1 X16.2296 Y4.5123
N3895 G1 X16.244 Y4.5272
N3900 G1 X16.246 Y4.5292
N3905 G1 X16.2602 Y4.5442
N3910 G1 X16.2627 Y4.547
N3915 G1 X16.2766 Y4.5622
N3920 G1 X16.2793 Y4.5652
N3925 G1 X16.2929 Y4.5806
N3930 G1 X16.295 Y4.5831
N3935 G1 X16.2956 Y4.5838
N3940 G1 X16.3219 Y4.658 Z-0.7021
N3945 G1 X16.3446 Y4.7294 Z-0.6171
N3950 G1 X16.365 Y4.7989 Z-0.5411
N3955 G1 X16.5097 Y4.9435 Z-0.0012
N3960 G1 X16.365 Y4.7989 Z-0.5411
N3965 G1 X16.3446 Y4.7294 Z-0.6171
N3970 G1 X16.3219 Y4.658 Z-0.7021
N3975 G1 X16.2956 Y4.5838 Z-0.8
N3980 G1 Y4.4737
N3985 G3 X16.2288 Y4.5115 I-0.1372 J-0.1647
N3990 G2 X16.2956 Y4.4737 I-0.0704 J-0.2025
N3995 G1 X16.3125 Y4.4326 Z-0.737
N4000 G1 X16.3246 Y4.3914 Z-0.6921
N4005 G1 X16.3318 Y4.3502 Z-0.6651
N4010 G1 X16.3342 Y4.3091 Z-0.6561
N4015 G1 Y2.2446
N4020 G1 X16.1587 Y2.0691 Z-0.0012
N4025 G1 X16.3342 Y2.2446 Z-0.6561
N4030 G1 X16.5097 Y2.0691 Z-0.0012
N4035 G0 Z5
N4040 G0 X17.2447 Y2.0203
N4045 G1 Z-0.0011 F952.5
N4050 G1 X17.4241 Y2.1563 Z-0.5087 F1000
N4055 G1 X17.5273 Y2.0203 Z-0.0012
N4060 G1 X17.4241 Y2.1563 Z-0.5087
N4065 G1 X18.1771 Y4.8455 Z-0.5056
N4070 G1 X18.0746 Y4.9806 Z-0.0012
N4075 G1 X18.1771 Y4.8455 Z-0.5056
N4080 G1 X18.3553 Y4.9806 Z-0.0011
N4085 G0 Z5
N4090 G0 X18.4771 Y2.0692
N4095 G1 Z-0.0012 F952.5
N4100 G1 X18.4975 Y2.0892 Z-0.076 F1000
N4105 G1 X18.5653 Y2.1537 Z-0.3166
N4110 G1 X18.6052 Y2.1879 Z-0.4443
N4115 G1 X18.6746 Y2.2405 Z-0.6405
N4120 G1 X18.7391 Y2.2832 Z-0.8
N4125 G1 X18.743 Y2.2919
N4130 G1 X18.7501 Y2.3071
N4135 G1 X18.7572 Y2.3221
N4140 G1 X18.7632 Y2.3344
N4145 G3 X18.7898 Y2.2832 I0.2018 J0.0724
N4150 G1 X18.7391
N4155 G1 X18.7898
N4160 G2 X18.7632 Y2.3344 I0.1752 J0.1235
N4165 G1 X18.7648 Y2.3539 Z-0.7725
N4170 G1 X18.7697 Y2.3857 Z-0.733
N4175 G1 X18.7772 Y2.4152 Z-0.7016
N4180 G1 X18.7877 Y2.4442 Z-0.6762
N4185 G1 X18.8017 Y2.4731 Z-0.6578
N4190 G1 X18.8191 Y2.5012 Z-0.6485
N4195 G1 X18.8646 Y2.564 Z-0.6387
N4200 G1 X18.8855 Y2.5909 Z-0.6343
N4205 G1 X18.9241 Y2.6359 Z-0.6253
N4210 G1 X18.977 Y2.694 Z-0.6199
N4215 G1 X19.0643 Y2.7805 Z-0.6223
N4220 G1 X19.1324 Y2.8435 Z-0.6213
N4225 G1 X19.4554 Y3.1181 Z-0.6123
N4230 G1 X19.553 Y3.2018 Z-0.6128
N4235 G1 X19.6429 Y3.2821 Z-0.616
N4240 G1 X19.7291 Y3.3637 Z-0.622
N4245 G1 X19.8126 Y3.4484 Z-0.6301
N4250 G1 X19.9338 Y3.578 Z-0.6458
N4255 G1 X19.9703 Y3.6206 Z-0.6443
N4260 G1 X19.9943 Y3.6516 Z-0.6486
N4265 G1 X20.0383 Y3.7136 Z-0.6577
N4270 G1 X20.076 Y3.7748 Z-0.6612
N4275 G1 X20.1018 Y3.8231 Z-0.6634
N4280 G1 X20.1236 Y3.8691 Z-0.6691
N4285 G1 X20.1397 Y3.911 Z-0.6731
N4290 G1 X20.1584 Y3.9724 Z-0.68
N4295 G1 X20.167 Y4.0087 Z-0.6833
N4300 G1 X20.1765 Y4.0672 Z-0.6823
N4305 G1 X20.1843 Y4.1443 Z-0.674
N4310 G1 X20.1829 Y4.1728 Z-0.67
N4315 G1 X20.1737 Y4.2564 Z-0.669
N4320 G1 X20.1625 Y4.3198 Z-0.668
N4325 G1 X20.1491 Y4.3689 Z-0.6657
N4330 G1 X20.1358 Y4.4039 Z-0.6617
N4335 G1 X20.1106 Y4.4532 Z-0.6519
N4340 G1 X20.0882 Y4.4886 Z-0.6448
N4345 G1 X20.0537 Y4.5356 Z-0.6374
N4350 G1 X20.0093 Y4.5896 Z-0.6338
N4355 G1 X19.9931 Y4.6047 Z-0.624
N4360 G1 X19.9587 Y4.6347 Z-0.608
N4365 G1 X19.8934 Y4.6808 Z-0.6001
N4370 G1 X19.8372 Y4.7155 Z-0.5912
N4375 G1 X19.7972 Y4.7361 Z-0.5837
N4380 G1 X19.7531 Y4.7542 Z-0.574
N4385 G1 X19.6995 Y4.7703 Z-0.5623
N4390 G1 X19.6371 Y4.7828 Z-0.5523
N4395 G1 X19.5904 Y4.789 Z-0.5475
N4400 G1 X19.4946 Y4.7968 Z-0.5434
N4405 G1 X19.4577 Y4.7978 Z-0.5416
N4410 G1 X19.3769 Y4.7924 Z-0.5438
N4415 G1 X19.313 Y4.7856 Z-0.5478
N4420 G1 X19.245 Y4.7736 Z-0.5553
N4425 G1 X19.1977 Y4.7612 Z-0.5627
N4430 G1 X19.1526 Y4.745 Z-0.5708
N4435 G1 X19.1121 Y4.7263 Z-0.5777
N4440 G1 X19.0493 Y4.6903 Z-0.5883
N4445 G1 X18.9748 Y4.6396 Z-0.6022
N4450 G1 X18.9385 Y4.6121 Z-0.6126
N4455 G1 X18.9324 Y4.6068 Z-0.6164
N4460 G1 X18.8894 Y4.5536 Z-0.6243
N4465 G1 X18.847 Y4.497 Z-0.6335
N4470 G1 X18.8102 Y4.4393 Z-0.6429
N4475 G1 X18.7945 Y4.4097 Z-0.6468
N4480 G1 X18.7763 Y4.3681 Z-0.6507
N4485 G1 X18.7609 Y4.3217 Z-0.6536
N4490 G1 X18.7485 Y4.2714 Z-0.6565
N4495 G1 X18.7963 Y4.2092 Z-0.4435
N4500 G1 X18.8693 Y4.1202 Z-0.141
N4505 G1 X18.9042 Y4.0789 Z-0.0011
N4510 G1 X18.8693 Y4.1202 Z-0.141
N4515 G1 X18.7963 Y4.2092 Z-0.4435
N4520 G1 X18.7485 Y4.2714 Z-0.6565
N4525 G1 X18.6691 Y4.2129 Z-0.4087
N4530 G1 X18.5435 Y4.1159 Z-0.001
N4535 G0 Z5
N4540 G0 X18.7903 Y2.283
N4545 G1 Z-0.7991 F952.5
N4550 G1 X18.8336 Y2.2633 Z-0.7258 F1000
N4555 G1 X18.8774 Y2.2491 Z-0.6729
N4560 G1 X18.9212 Y2.2406 Z-0.6411
N4565 G1 X18.965 Y2.2378 Z-0.6305
N4570 G1 X20.2004
N4575 G1 X20.369 Y2.0691 Z-0.0012
N4580 G1 X20.2004 Y2.2378 Z-0.6305
N4585 G1 X20.369 Y2.4064 Z-0.0012
N4590 G0 Z5
N4595 G0 X20.7075 Y2.9285
N4600 G1 Z-0.0012 F952.5
N4605 G1 X20.884 Y3.105 Z-0.6597 F1000
N4610 G1 X20.7075 Y3.2814 Z-0.0012
N4615 G1 X20.884 Y3.105 Z-0.6597
N4620 G1 X21.6105
N4625 G1 X21.787 Y3.2814 Z-0.0012
N4630 G1 X21.6105 Y3.105 Z-0.6597
N4635 G1 X21.787 Y2.9285 Z-0.0012
N4640 G0 Z5
N4645 G0 X22.0336 Y2.0691
N4650 G1 Z-0.0008 F952.5
N4655 G1 X22.0438 Y2.0791 Z-0.0382 F1000
N4660 G1 X22.1128 Y2.1453 Z-0.2855
N4665 G1 X22.1624 Y2.1883 Z-0.446
N4670 G1 X22.2313 Y2.2405 Z-0.6405
N4675 G1 X22.2958 Y2.2832 Z-0.8
N4680 G1 X22.3465
N4685 G2 X22.3199 Y2.3345 I0.1752 J0.1235
N4690 G1 X22.3138 Y2.3221
N4695 G1 X22.3069 Y2.3075
N4700 G1 X22.2999 Y2.2924
N4705 G1 X22.2958 Y2.2832
N4710 G1 X22.2999 Y2.2924
N4715 G1 X22.3069 Y2.3075
N4720 G1 X22.3138 Y2.3221
N4725 G1 X22.3199 Y2.3345
N4730 G1 X22.3236 Y2.3702 Z-0.7517
N4735 G1 X22.3297 Y2.4003 Z-0.7169
N4740 G1 X22.3388 Y2.4298 Z-0.6881
N4745 G1 X22.351 Y2.4588 Z-0.6661
N4750 G1 X22.3667 Y2.4873 Z-0.6521
N4755 G1 X22.3888 Y2.5195 Z-0.6458
N4760 G1 X22.4482 Y2.5981 Z-0.6324
N4765 G1 X22.4819 Y2.6373 Z-0.6251
N4770 G1 X22.5339 Y2.6943 Z-0.6198
N4775 G1 X22.5557 Y2.7172 Z-0.6188
N4780 G1 X22.6223 Y2.7818 Z-0.6224
N4785 G1 X22.7141 Y2.866 Z-0.6205
N4790 G1 X22.831 Y2.9669 Z-0.6161
N4795 G1 X23.0986 Y3.1921 Z-0.6126
N4800 G1 X23.2123 Y3.2938 Z-0.6167
N4805 G1 X23.3066 Y3.3844 Z-0.6238
N4810 G1 X23.39 Y3.4702 Z-0.6325
N4815 G1 X23.5032 Y3.5928 Z-0.6452
N4820 G1 X23.5412 Y3.6385 Z-0.646
N4825 G1 X23.5867 Y3.7016 Z-0.6562
N4830 G1 X23.6254 Y3.7621 Z-0.6607
N4835 G1 X23.6584 Y3.8231 Z-0.6633
N4840 G1 X23.6832 Y3.8758 Z-0.6706
N4845 G1 X23.6898 Y3.8923 Z-0.6721
N4850 G1 X23.7087 Y3.9495 Z-0.6771
N4855 G1 X23.7248 Y4.014 Z-0.6837
N4860 G1 X23.7316 Y4.0554 Z-0.6831
N4865 G1 X23.7398 Y4.1305 Z-0.6755
N4870 G1 X23.7405 Y4.159 Z-0.6712
N4875 G1 X23.736 Y4.2094 Z-0.6696
N4880 G1 X23.7233 Y4.2996 Z-0.6683
N4885 G1 X23.7105 Y4.3535 Z-0.6667
N4890 G1 X23.7034 Y4.3757 Z-0.6652
N4895 G1 X23.6883 Y4.4132 Z-0.6598
N4900 G1 X23.6673 Y4.4532 Z-0.6519
N4905 G1 X23.6449 Y4.4886 Z-0.6449
N4910 G1 X23.6109 Y4.535 Z-0.6376
N4915 G1 X23.5615 Y4.5938 Z-0.631
N4920 G1 X23.5366 Y4.6168 Z-0.6162
N4925 G1 X23.5095 Y4.639 Z-0.6071
N4930 G1 X23.4451 Y4.6841 Z-0.5993
N4935 G1 X23.3884 Y4.7186 Z-0.5905
N4940 G1 X23.3325 Y4.7455 Z-0.5791
N4945 G1 X23.3029 Y4.7566 Z-0.5723
N4950 G1 X23.2562 Y4.7703 Z-0.5623
N4955 G1 X23.1906 Y4.7833 Z-0.552
N4960 G1 X23.1264 Y4.7911 Z-0.5461
N4965 G1 X23.0291 Y4.7981 Z-0.543
N4970 G1 X22.9928 Y4.7965 Z-0.5421
N4975 G1 X22.8879 Y4.7878 Z-0.5463
N4980 G1 X22.8193 Y4.7774 Z-0.5531
N4985 G1 X22.7715 Y4.7662 Z-0.5599
N4990 G1 X22.723 Y4.7504 Z-0.5682
N4995 G1 X22.678 Y4.7308 Z-0.5758
N5000 G1 X22.6365 Y4.7087 Z-0.5828
N5005 G1 X22.5808 Y4.6739 Z-0.5928
N5010 G1 X22.5157 Y4.6283 Z-0.6051
N5015 G1 X22.4838 Y4.6005 Z-0.617
N5020 G1 X22.4173 Y4.516 Z-0.6304
N5025 G1 X22.3768 Y4.4562 Z-0.6403
N5030 G1 X22.3466 Y4.4003 Z-0.6482
N5035 G1 X22.3299 Y4.3597 Z-0.6513
N5040 G1 X22.3116 Y4.2996 Z-0.6548
N5045 G1 X22.3051 Y4.2714 Z-0.6565
N5050 G1 X22.3506 Y4.2121 Z-0.4535
N5055 G1 X22.4608 Y4.0789 Z-0.0012
N5060 G1 X22.3506 Y4.2121 Z-0.4535
N5065 G1 X22.3051 Y4.2714 Z-0.6565
N5070 G1 X22.2259 Y4.213 Z-0.4093
N5075 G1 X22.1001 Y4.116 Z-0.0011
N5080 G0 Z5
N5085 G0 X22.347 Y2.283
N5090 G1 Z-0.7991 F952.5
N5095 G1 X22.3903 Y2.2633 Z-0.7258 F1000
N5100 G1 X22.4341 Y2.2491 Z-0.6729
N5105 G1 X22.4779 Y2.2406 Z-0.6411
N5110 G1 X22.5217 Y2.2378 Z-0.6305
N5115 G1 X23.7571
N5120 G1 X23.9257 Y2.0691 Z-0.0012
N5125 G1 X23.7571 Y2.2378 Z-0.6305
N5130 G1 X23.9257 Y2.4064 Z-0.0012
N5135 G0 Z5
N5140 G0 X27.7876 Y4.9318
N5145 G1 Z-0.0012 F952.5
N5150 G1 X27.9767 Y4.7427 Z-0.707 F1000
N5155 G1 X28.1659 Y4.9318 Z-0.0012
N5160 G1 X27.9767 Y4.7427 Z-0.707
N5165 G1 X27.9785 Y3.1585 Z-0.7051
N5170 G1 X27.9847 Y3.0333 Z-0.7043
N5175 G1 X27.9933 Y2.9516 Z-0.7048
N5180 G1 X28.0061 Y2.8752
N5185 G1 X28.0236 Y2.797 Z-0.7029
N5190 G1 X28.0494 Y2.7011 Z-0.6989
N5195 G1 X28.0575 Y2.6729 Z-0.6976
N5200 G1 X28.0754 Y2.6268 Z-0.7066
N5205 G1 X28.1156 Y2.5516 Z-0.7051
N5210 G1 X28.1489 Y2.4987 Z-0.7055
N5215 G1 X28.1761 Y2.4628 Z-0.705
N5220 G1 X28.2042 Y2.4322 Z-0.7016
N5225 G1 X28.2423 Y2.3979 Z-0.6954
N5230 G1 X28.2887 Y2.3621 Z-0.689
N5235 G1 X28.3478 Y2.3214 Z-0.6841
N5240 G1 X28.383 Y2.3027 Z-0.6699
N5245 G1 X28.4172 Y2.2874 Z-0.6654
N5250 G1 X28.5096 Y2.2505 Z-0.6567
N5255 G1 X28.5718 Y2.23 Z-0.6508
N5260 G1 X28.639 Y2.2137 Z-0.6444
N5265 G1 X28.7109 Y2.2026 Z-0.6395
N5270 G1 X28.7841 Y2.1961 Z-0.6368
N5275 G1 X28.8908 Y2.1914 Z-0.6361
N5280 G1 X28.9198 Y2.1913 Z-0.639
N5285 G1 X29.0359 Y2.1961 Z-0.6391
N5290 G1 X29.1329 Y2.205 Z-0.6428
N5295 G1 X29.205 Y2.2171 Z-0.6468
N5300 G1 X29.2587 Y2.2304 Z-0.6491
N5305 G1 X29.3167 Y2.2498 Z-0.6518
N5310 G1 X29.3632 Y2.269 Z-0.6559
N5315 G1 X29.4146 Y2.2934 Z-0.6631
N5320 G1 X29.4843 Y2.3308 Z-0.6794
N5325 G1 X29.5011 Y2.3411 Z-0.6821
N5330 G1 X29.5883 Y2.4043 Z-0.6755
N5335 G1 X29.6019 Y2.4153 Z-0.6749
N5340 G1 X29.6277 Y2.4405 Z-0.6812
N5345 G1 X29.6484 Y2.4663 Z-0.6946
N5350 G1 X29.6662 Y2.4917 Z-0.7059
N5355 G1 X29.6833 Y2.5181 Z-0.7132
N5360 G1 X29.7103 Y2.5646 Z-0.7189
N5365 G1 X29.7496 Y2.6408 Z-0.7226
N5370 G1 X29.7598 Y2.6624 Z-0.7243
N5375 G1 X29.7772 Y2.7119 Z-0.7125
N5380 G1 X29.8001 Y2.7867 Z-0.7025
N5385 G1 X29.8184 Y2.8613 Z-0.7001
N5390 G1 X29.8317 Y2.9352 Z-0.7006
N5395 G1 X29.8404 Y3.0076 Z-0.7015
N5400 G1 X29.847 Y3.1134 Z-0.7028
N5405 G1 X29.8498 Y3.2801 Z-0.7072
N5410 G1 Y4.7426
N5415 G1 X29.6606 Y4.9318 Z-0.0012
N5420 G1 X29.8498 Y4.7426 Z-0.7072
N5425 G1 X30.039 Y4.9318 Z-0.0012
N5430 G0 Z5
N5435 G0 X30.6665 Y2.0691
N5440 G1 Z-0.0012 F952.5
N5445 G1 X30.8479 Y2.2505 Z-0.6779 F1000
N5450 G1 X31.0292 Y2.0691 Z-0.0012
N5455 G1 X30.8479 Y2.2505 Z-0.6779
N5460 G1 Y4.3188
N5465 G1 X30.8515 Y4.3702 Z-0.6915
N5470 G1 X30.8624 Y4.4216 Z-0.7322
N5475 G1 X30.8806 Y4.473 Z-0.8
N5480 G2 X31.066 Y4.5301 I0.1489 J-0.1542
N5485 G1 X30.9404 Y4.7178
N5490 G1 X30.8806
N5495 G1 Y4.473
N5500 G1 Y4.7178
N5505 G1 X30.6665 Y4.9318 Z-0.0012
N5510 G0 Z5
N5515 G0 X31.0665 Y4.5297
N5520 G1 Z-0.7992 F952.5
N5525 G1 X31.1101 Y4.4973 Z-0.731 F1000
N5530 G1 X31.1481 Y4.4605 Z-0.6895
N5535 G1 X31.18 Y4.4195 Z-0.6757
N5540 G1 X32.4079 Y2.5831 Z-0.6774
N5545 G1 X32.4396 Y2.5424 Z-0.691
N5550 G1 X32.4773 Y2.5057 Z-0.7319
N5555 G1 X32.5211 Y2.4731 Z-0.8
N5560 G1 X32.648 Y2.2832
N5565 G1 X32.7077
N5570 G1 X32.9218 Y2.0691 Z-0.0012
N5575 G1 X32.7077 Y2.2832 Z-0.8
N5580 G1 Y2.5299
N5585 G2 X32.5211 Y2.4731 I-0.1489 J0.1542
N5590 G3 X32.7077 Y2.5299 I0.0377 J0.211
N5595 G1 X32.7259 Y2.5813 Z-0.7322
N5600 G1 X32.7368 Y2.6327 Z-0.6915
N5605 G1 X32.7405 Y2.6841 Z-0.6779
N5610 G1 Y4.7505
N5615 G1 X32.5591 Y4.9318 Z-0.0012
N5620 G1 X32.7405 Y4.7505 Z-0.6779
N5625 G1 X32.9218 Y4.9318 Z-0.0012
N5630 G0 Z5
N5635 G0 X33.5786 Y2.0691
N5640 G1 Z-0.0012 F952.5
N5645 G1 X33.7677 Y2.2583 Z-0.707 F1000
N5650 G1 X33.9569 Y2.0691 Z-0.0012
N5655 G1 X33.7677 Y2.2583 Z-0.707
N5660 G1 Y3.3696
N5665 G1 X33.7705 Y3.4154 Z-0.7174
N5670 G1 X33.7788 Y3.4612 Z-0.7484
N5675 G1 X33.7927 Y3.507 Z-0.8
N5680 G2 X33.8253 Y3.5386 I0.1645 J-0.1374
N5685 G1 X33.8517 Z-0.7434
N5690 G1 X33.8737 Z-0.7033
N5695 G1 X33.8923 Z-0.6754
N5700 G1 X33.9082 Z-0.6565
N5705 G1 X33.9221 Z-0.6439
N5710 G1 X33.9346 Z-0.6361
N5715 G1 X33.9461 Z-0.6319
N5720 G1 X35.1321 Z-0.6305
N5725 G1 X35.3007 Y3.3699 Z-0.0012
N5730 G1 X35.1321 Y3.5386 Z-0.6305
N5735 G1 X35.3007 Y3.7072 Z-0.0012
N5740 G1 X35.1321 Y3.5386 Z-0.6305
N5745 G1 X33.9461 Z-0.6319
N5750 G1 X33.9346 Z-0.6361
N5755 G1 X33.9221 Z-0.6439
N5760 G1 X33.9082 Z-0.6565
N5765 G1 X33.8923 Z-0.6754
N5770 G1 X33.8737 Z-0.7033
N5775 G1 X33.8517 Z-0.7434
N5780 G1 X33.8253 Z-0.8
N5785 G2 X33.7927 Y3.5701 I0.1319 J0.1689
N5790 G1 Y3.507
N5795 G1 Y3.5701
N5800 G1 X33.7788 Y3.6159 Z-0.7484
N5805 G1 X33.7705 Y3.6617 Z-0.7174
N5810 G1 X33.7677 Y3.7075 Z-0.707
N5815 G1 Y4.5942
N5820 G1 X33.7701 Y4.6366 Z-0.7159
N5825 G1 X33.7772 Y4.679 Z-0.7424
N5830 G1 X33.7891 Y4.7213 Z-0.7866
N5835 G1 X33.5786 Y4.9318 Z-0.0012
N5840 G1 X33.7891 Y4.7213 Z-0.7866
N5845 G1 X33.8311 Y4.7396 Z-0.7183
N5850 G1 X33.8731 Y4.7527 Z-0.6695
N5855 G1 X33.9152 Y4.7606 Z-0.6403
N5860 G1 X33.9572 Y4.7632 Z-0.6305
N5865 G1 X35.3411
N5870 G1 X35.5097 Y4.5945 Z-0.0012
N5875 G1 X35.3411 Y4.7632 Z-0.6305
N5880 G1 X35.5097 Y4.9318 Z-0.0012
N5885 G0 Z5
N5890 G0 X39.9327 Y2.0691
N5895 G1 Z-0.0012 F952.5
N5900 G1 X40.115 Y2.2514 Z-0.6815 F1000
N5905 G1 X40.2973 Y2.0691 Z-0.0012
N5910 G1 X40.115 Y2.2514 Z-0.6815
N5915 G1 Y4.5063
N5920 G1 X40.1185 Y4.5571 Z-0.6946
N5925 G1 X40.1291 Y4.6079 Z-0.7342
N5930 G1 X40.1465 Y4.6579 Z-0.799
N5935 G0 Z5
N5940 G0 X39.9327 Y4.9318
N5945 G1 Z-0.0012 F952.5
N5950 G1 X40.1468 Y4.7178 Z-0.8 F1000
N5955 G1 X40.2622
N5960 G3 X40.1468 Y4.6586 I0.0354 J-0.2114
N5965 G1 Y4.7178
N5970 G1 Y4.6586
N5975 G2 X40.2622 Y4.7178 I0.1508 J-0.1523
N5980 G1 X40.2976 Y4.7192 Z-0.7945
N5985 G1 X40.333 Y4.7178 Z-0.8
N5990 G1 X40.3483
N5995 G1 X40.5025 Y4.9318 Z-0.0012
N6000 G1 X40.3483 Y4.7178 Z-0.8
N6005 G1 X40.3495 Y4.7143
N6010 G3 X40.333 Y4.7178 I-0.0519 J-0.208
N6015 G2 X40.3495 Y4.7143 I-0.0354 J-0.2114
N6020 G1 X40.3843 Y4.6785 Z-0.7193
N6025 G1 X40.4132 Y4.6407 Z-0.6616
N6030 G1 X40.4363 Y4.601 Z-0.6268
N6035 G1 X40.4536 Y4.5593 Z-0.6149
N6040 G1 X41.1042 Y2.6267 Z-0.5937
N6045 G1 X41.1685 Y2.4305 Z-0.5855
N6050 G1 X41.186 Y2.389 Z-0.5975
N6055 G1 X41.2096 Y2.3496 Z-0.6334
N6060 G1 X41.2392 Y2.3123 Z-0.6933
N6065 G1 X41.2749 Y2.277 Z-0.7771
N6070 G1 X41.1259 Y2.0691 Z-0.0012
N6075 G1 X41.2749 Y2.277 Z-0.7771
N6080 G1 X41.3171 Y2.2749 Z-0.769
N6085 G1 X41.3209 Z-0.7691
N6090 G1 X41.4673 Y2.0691 Z-0.0012
N6095 G1 X41.3209 Y2.2749 Z-0.7691
N6100 G1 X41.3565 Y2.3035 Z-0.6785
N6105 G1 X41.3871 Y2.3338 Z-0.608
N6110 G1 X41.4125 Y2.3659 Z-0.5576
N6115 G1 X41.4328 Y2.3998 Z-0.5274
N6120 G1 X41.4481 Y2.4355 Z-0.5174
N6125 G1 X41.5194 Y2.6477 Z-0.5257
N6130 G1 X42.1633 Y4.5126 Z-0.5386
N6135 G1 X42.179 Y4.5497 Z-0.5492
N6140 G1 X42.2001 Y4.5849 Z-0.5806
N6145 G1 X42.2264 Y4.6183 Z-0.6329
N6150 G1 X42.2579 Y4.6499 Z-0.7061
N6155 G1 X42.2948 Y4.6796 Z-0.8
N6160 G2 X42.4504 Y4.6176 I0.0048 J-0.2143
N6165 G1 Y4.7178
N6170 G1 X42.3079
N6175 G1 X42.2948 Y4.6796
N6180 G1 X42.3079 Y4.7178
N6185 G1 X42.1552 Y4.9318 Z-0.0012
N6190 G1 X42.3079 Y4.7178 Z-0.8
N6195 G1 X42.4504
N6200 G1 X42.6645 Y4.9318 Z-0.0012
N6205 G1 X42.4504 Y4.7178 Z-0.8
N6210 G1 Y4.6176
N6215 G1 X42.4681 Y4.5668 Z-0.7342
N6220 G1 X42.4787 Y4.5161 Z-0.6946
N6225 G1 X42.4822 Y4.4653 Z-0.6815
N6230 G1 Y2.2514
N6235 G1 X42.6645 Y2.0691 Z-0.0012
N6240 G1 X42.4822 Y2.2514 Z-0.6815
N6245 G1 X42.2999 Y2.0691 Z-0.0012
N6250 G0 Z5
N6255 G0 X43.652 Y3.7785
N6260 G1 Z-0.5049 F952.5
N6265 G1 X43.629 Y3.7943 Z-0.5214 F1000
N6270 G1 X43.5869 Y3.8302 Z-0.5602
N6275 G1 X43.5631 Y3.8535 Z-0.5782
N6280 G1 X43.5323 Y3.889 Z-0.5981
N6285 G1 X43.5007 Y3.9314 Z-0.6208
N6290 G1 X43.4884 Y3.9497 Z-0.6322
N6295 G1 X43.4758 Y3.9751 Z-0.6383
N6300 G1 X43.4559 Y4.0223 Z-0.6542
N6305 G1 X43.4431 Y4.0619 Z-0.6663
N6310 G1 X43.4374 Y4.0875 Z-0.6704
N6315 G1 X43.4306 Y4.1354 Z-0.6723
N6320 G1 X43.4252 Y4.2046 Z-0.6702
N6325 G1 X43.4254 Y4.2136 Z-0.6679
N6330 G1 X43.4283 Y4.2501 Z-0.6654
N6335 G1 X43.4395 Y4.3336 Z-0.6642
N6340 G1 X43.4491 Y4.3784 Z-0.6632
N6345 G1 X43.4633 Y4.423 Z-0.6595
N6350 G1 X43.4829 Y4.4657 Z-0.651
N6355 G1 X43.5013 Y4.4974 Z-0.6436
N6360 G1 X43.5354 Y4.5462 Z-0.6342
N6365 G1 X43.5805 Y4.6019 Z-0.6286
N6370 G1 X43.5845 Y4.6066 Z-0.6284
N6375 G1 X43.613 Y4.633 Z-0.6117
N6380 G1 X43.6371 Y4.6529 Z-0.6034
N6385 G1 X43.6931 Y4.693 Z-0.5948
N6390 G1 X43.7443 Y4.7249 Z-0.5858
N6395 G1 X43.7983 Y4.7513 Z-0.5737
N6400 G1 X43.8404 Y4.7663 Z-0.5633
N6405 G1 X43.8983 Y4.7807 Z-0.5517
N6410 G1 X43.9454 Y4.7883 Z-0.5454
N6415 G1 X43.9956 Y4.7938 Z-0.5414
N6420 G1 X44.08 Y4.7986 Z-0.5379
N6425 G1 X44.1658 Y4.7913 Z-0.5415
N6430 G1 X44.2215 Y4.7836 Z-0.5469
N6435 G1 X44.2675 Y4.7741 Z-0.5541
N6440 G1 X44.3241 Y4.7569 Z-0.5665
N6445 G1 X44.3697 Y4.737 Z-0.5766
N6450 G1 X44.4044 Y4.7178 Z-0.5834
N6455 G1 X44.4509 Y4.6878 Z-0.592
N6460 G1 X44.5097 Y4.6446 Z-0.6012
N6465 G1 X44.5417 Y4.616 Z-0.6169
N6470 G1 X44.5605 Y4.597 Z-0.6264
N6475 G1 X44.5976 Y4.5513 Z-0.6319
N6480 G1 X44.6327 Y4.5023 Z-0.6417
N6485 G1 X44.659 Y4.4582 Z-0.6525
N6490 G1 X44.6789 Y4.415 Z-0.6616
N6495 G1 X44.692 Y4.3745 Z-0.6655
N6500 G1 X44.7013 Y4.3341 Z-0.6674
N6505 G1 X44.7121 Y4.2611 Z-0.6693
N6510 G1 X44.7178 Y4.1861 Z-0.6732
N6515 G1 X44.7109 Y4.113 Z-0.6745
N6520 G1 X44.7043 Y4.0738 Z-0.6717
N6525 G1 X44.695 Y4.0394 Z-0.6628
N6530 G1 X44.6796 Y3.9982 Z-0.6481
N6535 G1 X44.6615 Y3.9587 Z-0.6354
N6540 G1 X44.6564 Y3.9487 Z-0.6331
N6545 G1 X44.6381 Y3.9216 Z-0.6167
N6550 G1 X44.6013 Y3.874 Z-0.5924
N6555 G1 X44.5733 Y3.8436 Z-0.5746
N6560 G1 X44.5486 Y3.8207 Z-0.5555
N6565 G1 X44.5073 Y3.7871 Z-0.5185
N6570 G1 X44.4782 Y3.7685 Z-0.5015
N6575 G1 X44.4183 Y3.7334 Z-0.4718
N6580 G1 X44.403 Y3.7234 Z-0.4703
N6585 G1 X44.3877 Y3.7119 Z-0.4749
N6590 G1 X44.3729 Y3.6994 Z-0.4861
N6595 G1 X44.3575 Y3.6847 Z-0.5056
N6600 G1 X44.3422 Y3.6685 Z-0.5337
N6605 G1 X44.3262 Y3.6495 Z-0.5735
N6610 G1 X44.3102 Y3.6285 Z-0.6243
N6615 G1 X44.2999 Y3.614 Z-0.6629
N6620 G1 X44.2685 Y3.6132 Z-0.6317
N6625 G1 X44.2275 Y3.6126 Z-0.5992
N6630 G1 X44.1814 Y3.6123 Z-0.5726
N6635 G1 X44.134 Y3.6122 Z-0.5534
N6640 G1 X44.0766 Y3.6126 Z-0.5366
N6645 G1 X44.065 Y3.6129 Z-0.5364
N6650 G1 X44.0316 Y3.613 Z-0.5451
N6655 G1 X43.977 Y3.6131 Z-0.5642
N6660 G1 X43.9379 Y3.6134 Z-0.5835
N6665 G1 X43.9011 Y3.6141 Z-0.6075
N6670 G1 X43.8724 Y3.6148 Z-0.6312
N6675 G1 X43.8496 Y3.6155 Z-0.6534
N6680 G1 X43.8324 Y3.6389 Z-0.5926
N6685 G1 X43.8166 Y3.6584 Z-0.5475
N6690 G1 X43.8013 Y3.6755 Z-0.5138
N6695 G1 X43.7858 Y3.6909 Z-0.4891
N6700 G1 X43.7712 Y3.704 Z-0.4738
N6705 G1 X43.7555 Y3.7163 Z-0.465
N6710 G1 X43.7409 Y3.7265 Z-0.4631
N6715 G1 X43.7226 Y3.7374 Z-0.4681
N6720 G1 X43.652 Y3.7785 Z-0.5049
N6725 G0 Z5
N6730 G0 X43.8496 Y3.6155
N6735 G1 Z-0.6534 F952.5
N6740 G1 X43.8301 Y3.5926 Z-0.5902 F1000
N6745 G1 X43.81 Y3.5717 Z-0.5386
N6750 G1 X43.79 Y3.5533 Z-0.5005
N6755 G1 X43.77 Y3.5372 Z-0.4751
N6760 G1 X43.7503 Y3.5237 Z-0.4619
N6765 G1 X43.7298 Y3.5116 Z-0.459
N6770 G1 X43.7093 Y3.5016 Z-0.4659
N6775 G1 X43.6493 Y3.4719 Z-0.4999
N6780 G1 X43.594 Y3.4409 Z-0.5346
N6785 G1 X43.5427 Y3.4072 Z-0.5638
N6790 G1 X43.5118 Y3.3793 Z-0.5872
N6795 G1 X43.4762 Y3.3424 Z-0.6072
N6800 G1 X43.4311 Y3.2889 Z-0.6294
N6805 G1 X43.4056 Y3.254 Z-0.6428
N6810 G1 X43.3887 Y3.2238 Z-0.6458
N6815 G1 X43.3648 Y3.1755 Z-0.655
N6820 G1 X43.3423 Y3.1173 Z-0.669
N6825 G1 X43.3316 Y3.0784 Z-0.6748
N6830 G1 X43.3234 Y3.0348 Z-0.6768
N6835 G1 X43.3153 Y2.9659 Z-0.6756
N6840 G1 X43.3106 Y2.8997 Z-0.6736
N6845 G1 X43.3136 Y2.855 Z-0.6701
N6850 G1 X43.3227 Y2.7702 Z-0.6675
N6855 G1 X43.3319 Y2.7173 Z-0.6683
N6860 G1 X43.3461 Y2.6621 Z-0.6705
N6865 G1 X43.3653 Y2.6098 Z-0.6682
N6870 G1 X43.3747 Y2.589 Z-0.6649
N6875 G1 X43.3976 Y2.5441 Z-0.6525
N6880 G1 X43.4146 Y2.5149 Z-0.6436
N6885 G1 X43.4384 Y2.4798 Z-0.6363
N6890 G1 X43.4832 Y2.4191 Z-0.624
N6895 G1 X43.5091 Y2.3886 Z-0.6197
N6900 G1 X43.5371 Y2.3632 Z-0.6067
N6905 G1 X43.5747 Y2.3321 Z-0.5963
N6910 G1 X43.6179 Y2.3004 Z-0.5907
N6915 G1 X43.6724 Y2.2651 Z-0.5857
N6920 G1 X43.708 Y2.2451 Z-0.5816
N6925 G1 X43.7366 Y2.2319 Z-0.5811
N6930 G1 X43.7886 Y2.2115 Z-0.5724
N6935 G1 X43.8359 Y2.1968 Z-0.5612
N6940 G1 X43.8994 Y2.1824 Z-0.5478
N6945 G1 X43.9526 Y2.1745 Z-0.5413
N6950 G1 X44.0275 Y2.1676 Z-0.5385
N6955 G1 X44.0879 Y2.1654 Z-0.5378
N6960 G1 X44.1928 Y2.1743 Z-0.541
N6965 G1 X44.2616 Y2.1841 Z-0.5465
N6970 G1 X44.3205 Y2.197 Z-0.5546
N6975 G1 X44.3591 Y2.2087 Z-0.561
N6980 G1 X44.4005 Y2.2247 Z-0.5686
N6985 G1 X44.4457 Y2.2469 Z-0.5761
N6990 G1 X44.4904 Y2.2735 Z-0.5825
N6995 G1 X44.5268 Y2.298 Z-0.5875
N7000 G1 X44.5923 Y2.3463 Z-0.5955
N7005 G1 X44.6181 Y2.3685 Z-0.6044
N7010 G1 X44.6466 Y2.397 Z-0.6198
N7015 G1 X44.6885 Y2.4491 Z-0.625
N7020 G1 X44.7307 Y2.5074 Z-0.6345
N7025 G1 X44.7651 Y2.5646 Z-0.6463
N7030 G1 X44.7828 Y2.6013 Z-0.6533
N7035 G1 X44.8003 Y2.6495 Z-0.659
N7040 G1 X44.8077 Y2.676 Z-0.6609
N7045 G1 X44.8214 Y2.7442 Z-0.6632
N7050 G1 X44.8317 Y2.8299 Z-0.6657
N7055 G1 X44.8359 Y2.8978 Z-0.6698
N7060 G1 X44.828 Y2.9882 Z-0.6721
N7065 G1 X44.8187 Y3.0497 Z-0.6703
N7070 G1 X44.8068 Y3.097 Z-0.6634
N7075 G1 X44.7959 Y3.1293 Z-0.6556
N7080 G1 X44.7691 Y3.1907 Z-0.6406
N7085 G1 X44.7505 Y3.2263 Z-0.6352
N7090 G1 X44.7369 Y3.249 Z-0.6316
N7095 G1 X44.7028 Y3.294 Z-0.6137
N7100 G1 X44.6576 Y3.3467 Z-0.594
N7105 G1 X44.6254 Y3.3794 Z-0.5765
N7110 G1 X44.5917 Y3.409 Z-0.5528
N7115 G1 X44.5443 Y3.4402 Z-0.5307
N7120 G1 X44.4855 Y3.4743 Z-0.5006
N7125 G1 X44.4312 Y3.5026 Z-0.4764
N7130 G1 X44.4255 Y3.5054 Z-0.4746
N7135 G1 X44.4047 Y3.5173 Z-0.4742
N7140 G1 X44.3839 Y3.5313 Z-0.4847
N7145 G1 X44.3634 Y3.5475 Z-0.507
N7150 G1 X44.343 Y3.566 Z-0.5423
N7155 G1 X44.3228 Y3.587 Z-0.5909
N7160 G1 X44.2999 Y3.614 Z-0.6629
N7165 G0 Z5
N7170 G0 X10.3314 Y4.2039
N7175 G1 Z-0.001 F952.5
N7180 G1 X10.4085 Y4.3117 Z-0.3796 F1000
N7185 G1 X10.4618 Y4.3908 Z-0.6586
N7190 G1 X10.5261 Y4.3466 Z-0.4754
N7195 G1 X10.6272 Y4.2718 Z-0.1676
N7200 G1 X10.6807 Y4.2311 Z-0.0006
N7205 G1 X10.6272 Y4.2718 Z-0.1676
N7210 G1 X10.5261 Y4.3466 Z-0.4754
N7215 G1 X10.4618 Y4.3908 Z-0.6586
N7220 G1 X10.4552 Y4.4087 Z-0.6588
N7225 G1 X10.4367 Y4.451 Z-0.6565
N7230 G1 X10.4111 Y4.4964 Z-0.6495
N7235 G1 X10.3809 Y4.5411 Z-0.6398
N7240 G1 X10.3314 Y4.6055 Z-0.6236
N7245 G1 X10.3151 Y4.6238 Z-0.6231
N7250 G1 X10.2871 Y4.6465 Z-0.6177
N7255 G1 X10.2198 Y4.6957 Z-0.6011
N7260 G1 X10.166 Y4.7288 Z-0.59
N7265 G1 X10.1181 Y4.7519 Z-0.5799
N7270 G1 X10.0733 Y4.7676 Z-0.5693
N7275 G1 X10.0141 Y4.7816 Z-0.5571
N7280 G1 X9.9562 Y4.7903 Z-0.5488
N7285 G1 X9.8846 Y4.7972 Z-0.5425
N7290 G1 X9.8465 Y4.798 Z-0.5347
N7295 G1 X9.8103 Y4.7952 Z-0.5325
N7300 G1 X9.7356 Y4.7872 Z-0.5312
N7305 G1 X9.686 Y4.7789 Z-0.5348
N7310 G1 X9.6562 Y4.7723 Z-0.5392
N7315 G1 X9.6103 Y4.759 Z-0.5488
N7320 G1 X9.5535 Y4.7367 Z-0.5638
N7325 G1 X9.5097 Y4.7146 Z-0.5719
N7330 G1 X9.4716 Y4.6919 Z-0.5732
N7335 G1 X9.4224 Y4.6545 Z-0.5816
N7340 G1 X9.3597 Y4.5991 Z-0.5892
N7345 G1 X9.313 Y4.5531 Z-0.5965
N7350 G1 X9.2782 Y4.5158 Z-0.6068
N7355 G1 X9.2624 Y4.4913 Z-0.5997
N7360 G1 X9.2317 Y4.4404 Z-0.5908
N7365 G1 X9.2 Y4.3827 Z-0.5882
N7370 G1 X9.1641 Y4.3114 Z-0.5905
N7375 G1 X9.1431 Y4.2669 Z-0.592
N7380 G1 X9.1278 Y4.2268 Z-0.6014
N7385 G1 X9.0953 Y4.1328 Z-0.6201
N7390 G1 X9.0731 Y4.0567 Z-0.6283
N7395 G1 X9.0529 Y3.969 Z-0.633
N7400 G1 X9.0377 Y3.8756 Z-0.6365
N7405 G1 X9.028 Y3.7838 Z-0.6401
N7410 G1 X9.0208 Y3.667 Z-0.6447
N7415 G1 X9.0172 Y3.5488 Z-0.6474
N7420 G1 X9.0183 Y3.5121 Z-0.655
N7425 G1 X9.0269 Y3.4591 Z-0.6907
N7430 G1 X9.0426 Y3.4085 Z-0.7524
N7435 G1 X9.0558 Y3.3787 Z-0.8
N7440 G3 X9.0984 Y3.3519 I0.1348 J0.1667
N7445 G1 X9.1238 Y3.3618 Z-0.729
N7450 G1 X9.1557 Y3.3758 Z-0.6463
N7455 G1 X9.1834 Y3.3898 Z-0.5813
N7460 G1 X9.2073 Y3.4039 Z-0.5318
N7465 G1 X9.2285 Y3.4185 Z-0.4943
N7470 G1 X9.2473 Y3.4336 Z-0.4676
N7475 G1 X9.264 Y3.4495 Z-0.4507
N7480 G1 X9.2787 Y3.466 Z-0.4426
N7485 G1 X9.2967 Y3.4898 Z-0.442
N7490 G1 X9.3283 Y3.5306 Z-0.4456
N7495 G1 X9.376 Y3.5794 Z-0.469
N7500 G1 X9.4076 Y3.6084 Z-0.4803
N7505 G1 X9.4393 Y3.634 Z-0.4874
N7510 G1 X9.4851 Y3.6655 Z-0.4945
N7515 G1 X9.5271 Y3.6901 Z-0.5033
N7520 G1 X9.5724 Y3.7125 Z-0.5173
N7525 G1 X9.6173 Y3.7289 Z-0.5277
N7530 G1 X9.6795 Y3.7472 Z-0.5472
N7535 G1 X9.7235 Y3.7569 Z-0.5595
N7540 G1 X9.7627 Y3.7629 Z-0.5658
N7545 G1 X9.8294 Y3.7686 Z-0.5729
N7550 G1 X9.883 Y3.7679 Z-0.5893
N7555 G1 X9.9337 Y3.7622 Z-0.5912
N7560 G1 X10.003 Y3.7514 Z-0.5988
N7565 G1 X10.052 Y3.7404 Z-0.6077
N7570 G1 X10.1108 Y3.7215 Z-0.6214
N7575 G1 X10.1509 Y3.7037 Z-0.6296
N7580 G1 X10.1887 Y3.6824 Z-0.635
N7585 G1 X10.2325 Y3.6527 Z-0.6392
N7590 G1 X10.2989 Y3.5997 Z-0.6434
N7595 G1 X10.329 Y3.5738 Z-0.6447
N7600 G1 X10.3572 Y3.5456 Z-0.6534
N7605 G1 X10.4291 Y3.4433 Z-0.6617
N7610 G1 X10.4685 Y3.3774 Z-0.6683
N7615 G1 X10.4905 Y3.3326 Z-0.6716
N7620 G1 X10.5091 Y3.2844 Z-0.6733
N7625 G1 X10.5188 Y3.2516 Z-0.6729
N7630 G1 X10.5332 Y3.1842 Z-0.6711
N7635 G1 X10.5416 Y3.1234 Z-0.6696
N7640 G1 X10.5494 Y3.0299 Z-0.6705
N7645 G1 X10.5514 Y2.9862 Z-0.6693
N7650 G1 X10.5496 Y2.9449 Z-0.667
N7655 G1 X10.542 Y2.8485 Z-0.6627
N7660 G1 X10.5319 Y2.7805 Z-0.6561
N7665 G1 X10.5167 Y2.7169 Z-0.6451
N7670 G1 X10.4984 Y2.66 Z-0.6364
N7675 G1 X10.4783 Y2.6084 Z-0.6331
N7680 G1 X10.4578 Y2.5639 Z-0.6336
N7685 G1 X10.43 Y2.515 Z-0.6301
N7690 G1 X10.389 Y2.4507 Z-0.6267
N7695 G1 X10.3663 Y2.4192 Z-0.6219
N7700 G1 X10.339 Y2.3854 Z-0.6108
N7705 G1 X10.3101 Y2.3577 Z-0.6066
N7710 G1 X10.2789 Y2.3305 Z-0.6013
N7715 G1 X10.2197 Y2.2834 Z-0.5915
N7720 G1 X10.2071 Y2.2747 Z-0.5883
N7725 G1 X10.1694 Y2.2521 Z-0.5755
N7730 G1 X10.1251 Y2.2287 Z-0.5664
N7735 G1 X10.0781 Y2.2083 Z-0.5615
N7740 G1 X10.0317 Y2.193 Z-0.5584
N7745 G1 X9.9868 Y2.1826 Z-0.5541
N7750 G1 X9.9229 Y2.1729 Z-0.5474
N7755 G1 X9.8378 Y2.1648 Z-0.5391
N7760 G1 X9.805 Y2.167 Z-0.5356
N7765 G1 X9.7323 Y2.1745 Z-0.5346
N7770 G1 X9.6718 Y2.184 Z-0.5388
N7775 G1 X9.6264 Y2.1942 Z-0.5467
N7780 G1 X9.584 Y2.2068 Z-0.5567
N7785 G1 X9.5395 Y2.2235 Z-0.5679
N7790 G1 X9.4995 Y2.2416 Z-0.5755
N7795 G1 X9.4574 Y2.2641 Z-0.5773
N7800 G1 X9.4082 Y2.2984 Z-0.5834
N7805 G1 X9.3472 Y2.3476 Z-0.5875
N7810 G1 X9.3185 Y2.3738 Z-0.591
N7815 G1 X9.2874 Y2.4049 Z-0.5991
N7820 G1 X9.2525 Y2.4434 Z-0.6153
N7825 G1 X9.2495 Y2.4469 Z-0.6171
N7830 G1 X9.224 Y2.4887 Z-0.6123
N7835 G1 X9.1778 Y2.5716 Z-0.6122
N7840 G1 X9.144 Y2.6444 Z-0.6256
N7845 G1 X9.1116 Y2.7244 Z-0.6421
N7850 G1 X9.0924 Y2.7827 Z-0.6565
N7855 G1 X9.0752 Y2.8524 Z-0.676
N7860 G1 X9.062 Y2.9315 Z-0.6972
N7865 G1 X9.0557 Y2.9862 Z-0.7089
N7870 G1 X9.0534 Y3.0301 Z-0.723
N7875 G1 X9.0527 Y3.1207 Z-0.7539
N7880 G1 X9.056 Y3.1963 Z-0.7827
N7885 G1 X9.0591 Y3.2336 Z-0.8
N7890 G1 X9.0632 Y3.2504
N7895 G1 X9.0653 Y3.2587
N7900 G1 X9.0708 Y3.2779
N7905 G1 X9.0737 Y3.287
N7910 G1 X9.08 Y3.3059
N7915 G2 X9.0835 Y3.3156 I0.2033 J-0.0681
N7920 G1 X9.0907 Y3.3342
N7925 G2 X9.0947 Y3.3437 I0.1997 J-0.0778
N7930 G1 X9.0984 Y3.3519
N7935 G1 X9.0947 Y3.3437
N7940 G3 X9.0907 Y3.3342 I0.1958 J-0.0873
N7945 G1 X9.0835 Y3.3156
N7950 G3 X9.08 Y3.3059 I0.1997 J-0.0778
N7955 G1 X9.0737 Y3.287
N7960 G1 X9.0708 Y3.2779
N7965 G1 X9.0653 Y3.2587
N7970 G1 X9.0632 Y3.2504
N7975 G1 X9.0591 Y3.2336
N7980 G1 X9.0578 Y3.2721
N7985 G1 X9.0568 Y3.3179
N7990 G1 X9.056 Y3.3644
N7995 G1 X9.0558 Y3.3787
N8000 G0 Z15
NEXT
N8010 M5
N8015 G53 G0 Z0

(Uncomment to skip until specified label)
(Skip label must exist, than jump label is accepted)
(SKIP L0000)

(L0011:)

(Contour)
M98 P1234 (call subroutine 1234)
N8020 M9
N8025 T21 M6
M98 P1234 (call subroutine 1234)
(3.0mm ALU 2-Flute)
N8030 S30000 M3
N8035 G54
(Edit repeat count according to needs)
REPEAT=1
N8040 M9
N8050 G0 X-0.3 Y27.4
N8055 G0 G43 Z15 H21
N8060 G0 Z5
N8065 G1 Z-0.2 F480
N8070 G19 G2 Y27.1 Z-0.5 J-0.3 K0
N8075 G1 Y26.8 F1440
N8080 G17 G3 X0 Y26.5 I0.3 J0
N8085 G1 X50
N8090 G2 X51.5 Y25 I0 J-1.5
N8095 G1 Y0
N8100 G2 X50 Y-1.5 I-1.5 J0
N8105 G1 X0
N8110 G2 X-1.5 Y0 I0 J1.5
N8115 G1 Y25
N8120 G2 X0 Y26.5 I1.5 J0
N8125 G1 X5
N8130 G3 X5.3 Y26.8 I0 J0.3
N8135 G1 Y27.1
N8140 G19 G3 Y27.4 Z-0.2 J0 K0.3
N8145 G0 Z5
N8150 G0 X-0.3
N8155 G1 Z-0.7 F480
N8160 G2 Y27.1 Z-1 J-0.3 K0
N8165 G1 Y26.8 F1440
N8170 G17 G3 X0 Y26.5 I0.3 J0
N8175 G1 X50
N8180 G2 X51.5 Y25 I0 J-1.5
N8185 G1 Y0
N8190 G2 X50 Y-1.5 I-1.5 J0
N8195 G1 X0
N8200 G2 X-1.5 Y0 I0 J1.5
N8205 G1 Y25
N8210 G2 X0 Y26.5 I1.5 J0
N8215 G1 X5
N8220 G3 X5.3 Y26.8 I0 J0.3
N8225 G1 Y27.1
N8230 G19 G3 Y27.4 Z-0.7 J0 K0.3
N8235 G0 Z5
N8240 G0 X-0.3
N8245 G1 Z-1.2 F480
N8250 G2 Y27.1 Z-1.5 J-0.3 K0
N8255 G1 Y26.8 F1440
N8260 G17 G3 X0 Y26.5 I0.3 J0
N8265 G1 X50
N8270 G2 X51.5 Y25 I0 J-1.5
N8275 G1 Y0
N8280 G2 X50 Y-1.5 I-1.5 J0
N8285 G1 X0
N8290 G2 X-1.5 Y0 I0 J1.5
N8295 G1 Y25
N8300 G2 X0 Y26.5 I1.5 J0
N8305 G1 X5
N8310 G3 X5.3 Y26.8 I0 J0.3
N8315 G1 Y27.1
N8320 G19 G3 Y27.4 Z-1.2 J0 K0.3
N8325 G0 Z5
N8330 G0 X-0.3
N8335 G1 Z-1.7 F480
N8340 G2 Y27.1 Z-2 J-0.3 K0
N8345 G1 Y26.8 F1440
N8350 G17 G3 X0 Y26.5 I0.3 J0
N8355 G1 X50
N8360 G2 X51.5 Y25 I0 J-1.5
N8365 G1 Y0
N8370 G2 X50 Y-1.5 I-1.5 J0
N8375 G1 X0
N8380 G2 X-1.5 Y0 I0 J1.5
N8385 G1 Y25
N8390 G2 X0 Y26.5 I1.5 J0
N8395 G1 X5
N8400 G3 X5.3 Y26.8 I0 J0.3
N8405 G1 Y27.1
N8410 G19 G3 Y27.4 Z-1.7 J0 K0.3
N8415 G0 Z5
N8420 G0 X-0.3
N8425 G1 Z-2.2 F480
N8430 G2 Y27.1 Z-2.5 J-0.3 K0
N8435 G1 Y26.8 F1440
N8440 G17 G3 X0 Y26.5 I0.3 J0
N8445 G1 X50
N8450 G2 X51.5 Y25 I0 J-1.5
N8455 G1 Y0
N8460 G2 X50 Y-1.5 I-1.5 J0
N8465 G1 X0
N8470 G2 X-1.5 Y0 I0 J1.5
N8475 G1 Y25
N8480 G2 X0 Y26.5 I1.5 J0
N8485 G1 X5
N8490 G3 X5.3 Y26.8 I0 J0.3
N8495 G1 Y27.1
N8500 G19 G3 Y27.4 Z-2.2 J0 K0.3
N8505 G0 Z5
N8510 G0 X-0.3
N8515 G1 Z-2.7 F480
N8520 G2 Y27.1 Z-3 J-0.3 K0
N8525 G1 Y26.8 F1440
N8530 G17 G3 X0 Y26.5 I0.3 J0
N8535 G1 X50
N8540 G2 X51.5 Y25 I0 J-1.5
N8545 G1 Y0
N8550 G2 X50 Y-1.5 I-1.5 J0
N8555 G1 X0
N8560 G2 X-1.5 Y0 I0 J1.5
N8565 G1 Y25
N8570 G2 X0 Y26.5 I1.5 J0
N8575 G1 X5
N8580 G3 X5.3 Y26.8 I0 J0.3
N8585 G1 Y27.1
N8590 G19 G3 Y27.4 Z-2.7 J0 K0.3
N8595 G0 Z5
N8600 G0 X-0.3
N8605 G1 Z-3.2 F480
N8610 G2 Y27.1 Z-3.5 J-0.3 K0
N8615 G1 Y26.8 F1440
N8620 G17 G3 X0 Y26.5 I0.3 J0
N8625 G1 X50
N8630 G2 X51.5 Y25 I0 J-1.5
N8635 G1 Y0
N8640 G2 X50 Y-1.5 I-1.5 J0
N8645 G1 X0
N8650 G2 X-1.5 Y0 I0 J1.5
N8655 G1 Y25
N8660 G2 X0 Y26.5 I1.5 J0
N8665 G1 X5
N8670 G3 X5.3 Y26.8 I0 J0.3
N8675 G1 Y27.1
N8680 G19 G3 Y27.4 Z-3.2 J0 K0.3
N8685 G0 Z5
N8690 G0 X-0.3
N8695 G1 Z-3.7 F480
N8700 G2 Y27.1 Z-4 J-0.3 K0
N8705 G1 Y26.8 F1440
N8710 G17 G3 X0 Y26.5 I0.3 J0
N8715 G1 X50
N8720 G2 X51.5 Y25 I0 J-1.5
N8725 G1 Y0
N8730 G2 X50 Y-1.5 I-1.5 J0
N8735 G1 X0
N8740 G2 X-1.5 Y0 I0 J1.5
N8745 G1 Y25
N8750 G2 X0 Y26.5 I1.5 J0
N8755 G1 X5
N8760 G3 X5.3 Y26.8 I0 J0.3
N8765 G1 Y27.1
N8770 G19 G3 Y27.4 Z-3.7 J0 K0.3
N8775 G0 Z5
N8780 G0 X-0.3
N8785 G1 Z-4.2 F480
N8790 G2 Y27.1 Z-4.5 J-0.3 K0
N8795 G1 Y26.8 F1440
N8800 G17 G3 X0 Y26.5 I0.3 J0
N8805 G1 X50
N8810 G2 X51.5 Y25 I0 J-1.5
N8815 G1 Y0
N8820 G2 X50 Y-1.5 I-1.5 J0
N8825 G1 X0
N8830 G2 X-1.5 Y0 I0 J1.5
N8835 G1 Y25
N8840 G2 X0 Y26.5 I1.5 J0
N8845 G1 X5
N8850 G3 X5.3 Y26.8 I0 J0.3
N8855 G1 Y27.1
N8860 G19 G3 Y27.4 Z-4.2 J0 K0.3
N8865 G0 Z5
N8870 G0 X-0.3
N8875 G1 Z-4.7 F480
N8880 G2 Y27.1 Z-5 J-0.3 K0
N8885 G1 Y26.8 F1440
N8890 G17 G3 X0 Y26.5 I0.3 J0
N8895 G1 X50
N8900 G2 X51.5 Y25 I0 J-1.5
N8905 G1 Y0
N8910 G2 X50 Y-1.5 I-1.5 J0
N8915 G1 X0
N8920 G2 X-1.5 Y0 I0 J1.5
N8925 G1 Y25
N8930 G2 X0 Y26.5 I1.5 J0
N8935 G1 X5
N8940 G3 X5.3 Y26.8 I0 J0.3
N8945 G1 Y27.1
N8950 G19 G3 Y27.4 Z-4.7 J0 K0.3
N8955 G0 Z5
N8960 G0 X-0.3
N8965 G1 Z-5.2 F480
N8970 G2 Y27.1 Z-5.5 J-0.3 K0
N8975 G1 Y26.8 F1440
N8980 G17 G3 X0 Y26.5 I0.3 J0
N8985 G1 X50
N8990 G2 X51.5 Y25 I0 J-1.5
N8995 G1 Y0
N9000 G2 X50 Y-1.5 I-1.5 J0
N9005 G1 X0
N9010 G2 X-1.5 Y0 I0 J1.5
N9015 G1 Y25
N9020 G2 X0 Y26.5 I1.5 J0
N9025 G1 X5
N9030 G3 X5.3 Y26.8 I0 J0.3
N9035 G1 Y27.1
N9040 G19 G3 Y27.4 Z-5.2 J0 K0.3
N9045 G0 Z5
N9050 G0 X-0.3
N9055 G1 Z-5.7 F480
N9060 G2 Y27.1 Z-6 J-0.3 K0
N9065 G1 Y26.8 F1440
N9070 G17 G3 X0 Y26.5 I0.3 J0
N9075 G1 X50
N9080 G2 X51.5 Y25 I0 J-1.5
N9085 G1 Y0
N9090 G2 X50 Y-1.5 I-1.5 J0
N9095 G1 X0
N9100 G2 X-1.5 Y0 I0 J1.5
N9105 G1 Y25
N9110 G2 X0 Y26.5 I1.5 J0
N9115 G1 X5
N9120 G3 X5.3 Y26.8 I0 J0.3
N9125 G1 Y27.1
N9130 G19 G3 Y27.4 Z-5.7 J0 K0.3
N9135 G0 Z5
N9140 G0 X-0.3
N9145 G1 Z-6.2 F480
N9150 G2 Y27.1 Z-6.5 J-0.3 K0
N9155 G1 Y26.8 F1440
N9160 G17 G3 X0 Y26.5 I0.3 J0
N9165 G1 X50
N9170 G2 X51.5 Y25 I0 J-1.5
N9175 G1 Y0
N9180 G2 X50 Y-1.5 I-1.5 J0
N9185 G1 X0
N9190 G2 X-1.5 Y0 I0 J1.5
N9195 G1 Y25
N9200 G2 X0 Y26.5 I1.5 J0
N9205 G1 X5
N9210 G3 X5.3 Y26.8 I0 J0.3
N9215 G1 Y27.1
N9220 G19 G3 Y27.4 Z-6.2 J0 K0.3
N9225 G0 Z5
N9230 G0 X-0.3
N9235 G1 Z-6.7 F480
N9240 G2 Y27.1 Z-7 J-0.3 K0
N9245 G1 Y26.8 F1440
N9250 G17 G3 X0 Y26.5 I0.3 J0
N9255 G1 X50
N9260 G2 X51.5 Y25 I0 J-1.5
N9265 G1 Y0
N9270 G2 X50 Y-1.5 I-1.5 J0
N9275 G1 X0
N9280 G2 X-1.5 Y0 I0 J1.5
N9285 G1 Y25
N9290 G2 X0 Y26.5 I1.5 J0
N9295 G1 X5
N9300 G3 X5.3 Y26.8 I0 J0.3
N9305 G1 Y27.1
N9310 G19 G3 Y27.4 Z-6.7 J0 K0.3
N9315 G0 Z5
N9320 G0 X-0.3
N9325 G1 Z-7.2 F480
N9330 G2 Y27.1 Z-7.5 J-0.3 K0
N9335 G1 Y26.8 F1440
N9340 G17 G3 X0 Y26.5 I0.3 J0
N9345 G1 X50
N9350 G2 X51.5 Y25 I0 J-1.5
N9355 G1 Y0
N9360 G2 X50 Y-1.5 I-1.5 J0
N9365 G1 X0
N9370 G2 X-1.5 Y0 I0 J1.5
N9375 G1 Y25
N9380 G2 X0 Y26.5 I1.5 J0
N9385 G1 X5
N9390 G3 X5.3 Y26.8 I0 J0.3
N9395 G1 Y27.1
N9400 G19 G3 Y27.4 Z-7.2 J0 K0.3
N9405 G0 Z5
N9410 G0 X-0.3
N9415 G1 Z-7.7 F480
N9420 G2 Y27.1 Z-8 J-0.3 K0
N9425 G1 Y26.8 F1440
N9430 G17 G3 X0 Y26.5 I0.3 J0
N9435 G1 X50
N9440 G2 X51.5 Y25 I0 J-1.5
N9445 G1 Y0
N9450 G2 X50 Y-1.5 I-1.5 J0
N9455 G1 X0
N9460 G2 X-1.5 Y0 I0 J1.5
N9465 G1 Y25
N9470 G2 X0 Y26.5 I1.5 J0
N9475 G1 X5
N9480 G3 X5.3 Y26.8 I0 J0.3
N9485 G1 Y27.1
N9490 G19 G3 Y27.4 Z-7.7 J0 K0.3
N9495 G0 Z5
N9500 G0 X-0.3
N9505 G1 Z-8.2 F480
N9510 G2 Y27.1 Z-8.5 J-0.3 K0
N9515 G1 Y26.8 F1440
N9520 G17 G3 X0 Y26.5 I0.3 J0
N9525 G1 X50
N9530 G2 X51.5 Y25 I0 J-1.5
N9535 G1 Y0
N9540 G2 X50 Y-1.5 I-1.5 J0
N9545 G1 X0
N9550 G2 X-1.5 Y0 I0 J1.5
N9555 G1 Y25
N9560 G2 X0 Y26.5 I1.5 J0
N9565 G1 X5
N9570 G3 X5.3 Y26.8 I0 J0.3
N9575 G1 Y27.1
N9580 G19 G3 Y27.4 Z-8.2 J0 K0.3
N9585 G0 Z5
N9590 G0 X-0.3
N9595 G1 Z-8.7 F480
N9600 G2 Y27.1 Z-9 J-0.3 K0
N9605 G1 Y26.8 F1440
N9610 G17 G3 X0 Y26.5 I0.3 J0
N9615 G1 X50
N9620 G2 X51.5 Y25 I0 J-1.5
N9625 G1 Y0
N9630 G2 X50 Y-1.5 I-1.5 J0
N9635 G1 X0
N9640 G2 X-1.5 Y0 I0 J1.5
N9645 G1 Y25
N9650 G2 X0 Y26.5 I1.5 J0
N9655 G1 X5
N9660 G3 X5.3 Y26.8 I0 J0.3
N9665 G1 Y27.1
N9670 G19 G3 Y27.4 Z-8.7 J0 K0.3
N9675 G0 Z5
N9680 G0 X-0.3
N9685 G1 Z-9.2 F480
N9690 G2 Y27.1 Z-9.5 J-0.3 K0
N9695 G1 Y26.8 F1440
N9700 G17 G3 X0 Y26.5 I0.3 J0
N9705 G1 X50
N9710 G2 X51.5 Y25 I0 J-1.5
N9715 G1 Y0
N9720 G2 X50 Y-1.5 I-1.5 J0
N9725 G1 X0
N9730 G2 X-1.5 Y0 I0 J1.5
N9735 G1 Y25
N9740 G2 X0 Y26.5 I1.5 J0
N9745 G1 X5
N9750 G3 X5.3 Y26.8 I0 J0.3
N9755 G1 Y27.1
N9760 G19 G3 Y27.4 Z-9.2 J0 K0.3
N9765 G0 Z5
N9770 G0 X-0.3
N9775 G1 Z-9.7 F480
N9780 G2 Y27.1 Z-10 J-0.3 K0
N9785 G1 Y26.8 F1440
N9790 G17 G3 X0 Y26.5 I0.3 J0
N9795 G1 X9.5
N9800 G1 Z-9.5
N9805 G1 X15.5
N9810 G1 Z-10 F480
N9815 G1 X34.5 F1440
N9820 G1 Z-9.5
N9825 G1 X40.5
N9830 G1 Z-10 F480
N9835 G1 X50 F1440
N9840 G2 X51.5 Y25 I0 J-1.5
N9845 G1 Y15.5
N9850 G1 Z-9.5
N9855 G1 Y9.5
N9860 G1 Z-10 F480
N9865 G1 Y0 F1440
N9870 G2 X50 Y-1.5 I-1.5 J0
N9875 G1 X40.5
N9880 G1 Z-9.5
N9885 G1 X34.5
N9890 G1 Z-10 F480
N9895 G1 X15.5 F1440
N9900 G1 Z-9.5
N9905 G1 X9.5
N9910 G1 Z-10 F480
N9915 G1 X0 F1440
N9920 G2 X-1.5 Y0 I0 J1.5
N9925 G1 Y9.5
N9930 G1 Z-9.5
N9935 G1 Y15.5
N9940 G1 Z-10 F480
N9945 G1 Y25 F1440
N9950 G2 X0 Y26.5 I1.5 J0
N9955 G1 X5
N9960 G3 X5.3 Y26.8 I0 J0.3
N9965 G1 Y27.1
N9970 G19 G3 Y27.4 Z-9.7 J0 K0.3
N9975 G0 Z15
N9980 G17
NEXT
N9985 M9
N9990 G53 G0 Z0

M98 P1234 (call subroutine 1234)

N9995 G28
N10000 M30


(Subroutine 1234)
O1234:
G53 (machine coordinates)
G0 (go fast)
Z=#102 (safety height)
Y=#101
X=#100
G54 (workpiece coordinates)
M99 (End Subroutine 1234)

