%
(Thread test)
(M6, M8 and 1/2-20 UNF)

(Tools)
(T3 D=2 CR=0 TAPER=30deg - ZMIN=-0.7 - NC-Anbohrer)
(T7 D=4 CR=0 - ZMIN=-9 - Gewindefraser)
(T8 D=8 CR=0 - ZMIN=-9 - Gewindefraser)
(T14 D=10.4 CR=0 TAPER=90deg - ZMIN=-2.5 - Konische Senkung)
(T15 D=3 CR=0 - ZMIN=-9 - Schaftfraser)
(T18 D=10 CR=0 - ZMIN=-0.2 - Schaftfraser)


(Initial section)
G54 (needed here so that offsets are being read)
#100=#900 (use x-offset of G54 for G53)
#101=0   (safe y for G53)
#102=0   (safe z for G53)
PRINT "x-offset = ";#100;"mm"
ASKBOOL "Continue with x-offset" I=2
IF #0=0 THEN
  ASKFLT "Enter x-offset" I=0.0 J=720.0
  #100=#0
  PRINT "x-offset = ";#100;"mm"
ENDIF

(Absolute coordinates and feedrate in mm/min)
N10 G90 G94
(Units in mm)
N15 G21
N20 G53 G0 Z0

(Example for jump to label and skip everything inbetween)
(SKIP P0003)

P0001:

(Planen1)
M98 P1234 (call subroutine 1234)
N25 M9
N30 T18 M6
M98 P1234 (call subroutine 1234)
(Carbide End Mill 10mm)
N35 S5000 M3
N40 G54
N45 M9
N50 G17
N55 G0 X70.7041 Y-7.405
N60 G0 G43 Z18 H18
N65 G0 Z5
N70 G1 Z0.8 F1000
N75 G18 G3 X69.7041 Z-0.2 I-1 K0
N80 G1 X-19.7041 F800
N85 G1 X-20
N90 G17 G2 Y0.11 I0 J3.7575
N95 G1 X70
N100 G3 Y7.625 I0 J3.7575
N105 G1 X-20
N110 G2 Y15.14 I0 J3.7575
N115 G1 X70
N120 G3 Y22.655 I0 J3.7575
N125 G1 X-20
N130 G2 Y30.17 I0 J3.7575
N135 G1 X-19.9947
N140 G1 X69.9947
N145 G18 G2 X70.9947 Z0.8 I0 K1 F1000
N150 G0 Z18
N155 G17
N160 M5
N165 G53 G0 Z0

(Example for jump to label and skip everything inbetween)
(SKIP P0003)

P0002:

(Hole M6)
M98 P1234 (call subroutine 1234)
N170 M9
N175 T15 M6
M98 P1234 (call subroutine 1234)
N180 S10610 M3
N185 G54
N190 M9
N200 G0 X10 Y12.5
N205 G0 G43 Z18 H15
N210 G0 Z2
N215 G1 Z0 F1000
N220 G1 X10.6 Y12.2
N225 G3 X10.9 Y12.5 I0 J0.3
N230 G3 X9.1 Z-0.5 I-0.9 J0 F4244.1
N235 G3 X10.9 Z-1 I0.9 J0
N240 G3 X9.1 Z-1.5 I-0.9 J0
N245 G3 X10.9 Z-2 I0.9 J0
N250 G3 X9.1 Z-2.5 I-0.9 J0
N255 G3 X10.9 Z-3 I0.9 J0
N260 G3 X9.1 Z-3.5 I-0.9 J0
N265 G3 X10.9 Z-4 I0.9 J0
N270 G3 X9.1 Z-4.5 I-0.9 J0
N275 G3 X10.9 Z-5 I0.9 J0
N280 G3 X9.1 Z-5.5 I-0.9 J0
N285 G3 X10.9 Z-6 I0.9 J0
N290 G3 X9.1 Z-6.5 I-0.9 J0
N295 G3 X10.9 Z-7 I0.9 J0
N300 G3 X9.1 Z-7.5 I-0.9 J0
N305 G3 X10.9 Z-8 I0.9 J0
N310 G3 X9.1 Z-8.5 I-0.9 J0
N315 G3 X10.9 Z-9 I0.9 J0
N320 G3 X9.1 I-0.9 J0
N325 G3 X10.9 I0.9 J0
N330 G3 X10.6 Y12.8 I-0.3 J0 F1000
N335 G1 X10 Y12.5
N340 G0 Z8
N345 G0 X10.25 Y12.2
N350 G0 Z-7
N355 G1 Z-8.7 F1000
N360 G18 G2 X10.55 Z-9 I0.3 K0
N365 G1 X10.7
N370 G17 G3 X11 Y12.5 I0 J0.3
N375 G3 X9 I-1 J0 F4244.1
N380 G3 X11 I1 J0
N385 G3 X10.7 Y12.8 I-0.3 J0 F1000
N390 G1 X10.55
N395 G18 G3 X10.25 Z-8.7 I0 K0.3
N400 G0 Z8
N405 G0 Y12.2
N410 G0 Z-7
N415 G1 Z-8.7 F1000
N420 G2 X10.55 Z-9 I0.3 K0
N425 G1 X10.7
N430 G17 G3 X11 Y12.5 I0 J0.3
N435 G3 X9 I-1 J0 F4244.1
N440 G3 X11 I1 J0
N445 G3 X10.7 Y12.8 I-0.3 J0 F1000
N450 G1 X10.55
N455 G18 G3 X10.25 Z-8.7 I0 K0.3
N460 G0 Z18
N465 G17

(Example for jump to label and skip everything inbetween)
(SKIP P0003)

P0002:

(Hole M8)
N470 M9
N475 G0 X40 Y12.5
N480 G0 Z18
N485 G0 Z2
N490 G1 Z0 F1000
N495 G1 X40.2 Y12.3
N500 G3 X40.4 Y12.5 I0 J0.2
N505 G3 X39.6 Z-0.5 I-0.4 J0 F4244.1
N510 G3 X40.4 Z-1 I0.4 J0
N515 G3 X39.6 Z-1.5 I-0.4 J0
N520 G3 X40.4 Z-2 I0.4 J0
N525 G3 X39.6 Z-2.5 I-0.4 J0
N530 G3 X40.4 Z-3 I0.4 J0
N535 G3 X39.6 Z-3.5 I-0.4 J0
N540 G3 X40.4 Z-4 I0.4 J0
N545 G3 X39.6 Z-4.5 I-0.4 J0
N550 G3 X40.4 Z-5 I0.4 J0
N555 G3 X39.6 Z-5.5 I-0.4 J0
N560 G3 X40.4 Z-6 I0.4 J0
N565 G3 X39.6 Z-6.5 I-0.4 J0
N570 G3 X40.4 Z-7 I0.4 J0
N575 G3 X39.6 Z-7.5 I-0.4 J0
N580 G3 X40.4 Z-8 I0.4 J0
N585 G3 X39.6 Z-8.5 I-0.4 J0
N590 G3 X40.4 Z-9 I0.4 J0
N595 G3 X39.6 I-0.4 J0
N600 G3 X40.4 I0.4 J0
N605 G3 X40.2 Y12.7 I-0.2 J0 F1000
N610 G1 X40 Y12.5
N615 G0 Z8
N620 G0 Z2
N625 G1 Z0 F1000
N630 G1 X41.5 Y12.2
N635 G3 X41.8 Y12.5 I0 J0.3
N640 G3 X38.2 Z-0.5 I-1.8 J0 F4244.1
N645 G3 X41.8 Z-1 I1.8 J0
N650 G3 X38.2 Z-1.5 I-1.8 J0
N655 G3 X41.8 Z-2 I1.8 J0
N660 G3 X38.2 Z-2.5 I-1.8 J0
N665 G3 X41.8 Z-3 I1.8 J0
N670 G3 X38.2 Z-3.5 I-1.8 J0
N675 G3 X41.8 Z-4 I1.8 J0
N680 G3 X38.2 Z-4.5 I-1.8 J0
N685 G3 X41.8 Z-5 I1.8 J0
N690 G3 X38.2 Z-5.5 I-1.8 J0
N695 G3 X41.8 Z-6 I1.8 J0
N700 G3 X38.2 Z-6.5 I-1.8 J0
N705 G3 X41.8 Z-7 I1.8 J0
N710 G3 X38.2 Z-7.5 I-1.8 J0
N715 G3 X41.8 Z-8 I1.8 J0
N720 G3 X38.2 Z-8.5 I-1.8 J0
N725 G3 X41.8 Z-9 I1.8 J0
N730 G3 X38.2 I-1.8 J0
N735 G3 X41.8 I1.8 J0
N740 G3 X41.5 Y12.8 I-0.3 J0 F1000
N745 G1 X40 Y12.5
N750 G0 Z8
N755 G0 X41.15 Y12.2
N760 G0 Z-7
N765 G1 Z-8.7 F1000
N770 G18 G2 X41.45 Z-9 I0.3 K0
N775 G1 X41.6
N780 G17 G3 X41.9 Y12.5 I0 J0.3
N785 G3 X38.1 I-1.9 J0 F4244.1
N790 G3 X41.9 I1.9 J0
N795 G3 X41.6 Y12.8 I-0.3 J0 F1000
N800 G1 X41.45
N805 G18 G3 X41.15 Z-8.7 I0 K0.3
N810 G0 Z8
N815 G0 Y12.2
N820 G0 Z-7
N825 G1 Z-8.7 F1000
N830 G2 X41.45 Z-9 I0.3 K0
N835 G1 X41.6
N840 G17 G3 X41.9 Y12.5 I0 J0.3
N845 G3 X38.1 I-1.9 J0 F4244.1
N850 G3 X41.9 I1.9 J0
N855 G3 X41.6 Y12.8 I-0.3 J0 F1000
N860 G1 X41.45
N865 G18 G3 X41.15 Z-8.7 I0 K0.3
N870 G0 Z18
N875 G17

(Example for jump to label and skip everything inbetween)
(SKIP P0003)

P0002:

(Hole 1/2-20 UNF)
N880 M9
N885 G0 X25 Y12.5
N890 G0 Z18
N895 G0 Z2
N900 G1 Z0 F1000
N905 G1 X26.85 Y12.2
N910 G3 X27.15 Y12.5 I0 J0.3
N915 G3 X22.85 Z-0.5 I-2.15 J0 F4244.1
N920 G3 X27.15 Z-1 I2.15 J0
N925 G3 X22.85 Z-1.5 I-2.15 J0
N930 G3 X27.15 Z-2 I2.15 J0
N935 G3 X22.85 Z-2.5 I-2.15 J0
N940 G3 X27.15 Z-3 I2.15 J0
N945 G3 X22.85 Z-3.5 I-2.15 J0
N950 G3 X27.15 Z-4 I2.15 J0
N955 G3 X22.85 Z-4.5 I-2.15 J0
N960 G3 X27.15 Z-5 I2.15 J0
N965 G3 X22.85 Z-5.5 I-2.15 J0
N970 G3 X27.15 Z-6 I2.15 J0
N975 G3 X22.85 Z-6.5 I-2.15 J0
N980 G3 X27.15 Z-7 I2.15 J0
N985 G3 X22.85 Z-7.5 I-2.15 J0
N990 G3 X27.15 Z-8 I2.15 J0
N995 G3 X22.85 Z-8.5 I-2.15 J0
N1000 G3 X27.15 Z-9 I2.15 J0
N1005 G3 X22.85 I-2.15 J0
N1010 G3 X27.15 I2.15 J0
N1015 G3 X26.85 Y12.8 I-0.3 J0 F1000
N1020 G1 X25 Y12.5
N1025 G0 Z8
N1030 G0 Z2
N1035 G1 Z0 F1000
N1040 G1 X27.85 Y12.2
N1045 G3 X28.15 Y12.5 I0 J0.3
N1050 G3 X21.85 Z-0.5 I-3.15 J0 F4244.1
N1055 G3 X28.15 Z-1 I3.15 J0
N1060 G3 X21.85 Z-1.5 I-3.15 J0
N1065 G3 X28.15 Z-2 I3.15 J0
N1070 G3 X21.85 Z-2.5 I-3.15 J0
N1075 G3 X28.15 Z-3 I3.15 J0
N1080 G3 X21.85 Z-3.5 I-3.15 J0
N1085 G3 X28.15 Z-4 I3.15 J0
N1090 G3 X21.85 Z-4.5 I-3.15 J0
N1095 G3 X28.15 Z-5 I3.15 J0
N1100 G3 X21.85 Z-5.5 I-3.15 J0
N1105 G3 X28.15 Z-6 I3.15 J0
N1110 G3 X21.85 Z-6.5 I-3.15 J0
N1115 G3 X28.15 Z-7 I3.15 J0
N1120 G3 X21.85 Z-7.5 I-3.15 J0
N1125 G3 X28.15 Z-8 I3.15 J0
N1130 G3 X21.85 Z-8.5 I-3.15 J0
N1135 G3 X28.15 Z-9 I3.15 J0
N1140 G3 X21.85 I-3.15 J0
N1145 G3 X28.15 I3.15 J0
N1150 G3 X27.85 Y12.8 I-0.3 J0 F1000
N1155 G1 X25 Y12.5
N1160 G0 Z8
N1165 G0 Z2
N1170 G1 Z0 F1000
N1175 G1 X28.85 Y12.2
N1180 G3 X29.15 Y12.5 I0 J0.3
N1185 G3 X20.85 Z-0.5 I-4.15 J0 F4244.1
N1190 G3 X29.15 Z-1 I4.15 J0
N1195 G3 X20.85 Z-1.5 I-4.15 J0
N1200 G3 X29.15 Z-2 I4.15 J0
N1205 G3 X20.85 Z-2.5 I-4.15 J0
N1210 G3 X29.15 Z-3 I4.15 J0
N1215 G3 X20.85 Z-3.5 I-4.15 J0
N1220 G3 X29.15 Z-4 I4.15 J0
N1225 G3 X20.85 Z-4.5 I-4.15 J0
N1230 G3 X29.15 Z-5 I4.15 J0
N1235 G3 X20.85 Z-5.5 I-4.15 J0
N1240 G3 X29.15 Z-6 I4.15 J0
N1245 G3 X20.85 Z-6.5 I-4.15 J0
N1250 G3 X29.15 Z-7 I4.15 J0
N1255 G3 X20.85 Z-7.5 I-4.15 J0
N1260 G3 X29.15 Z-8 I4.15 J0
N1265 G3 X20.85 Z-8.5 I-4.15 J0
N1270 G3 X29.15 Z-9 I4.15 J0
N1275 G3 X20.85 I-4.15 J0
N1280 G3 X29.15 I4.15 J0
N1285 G3 X28.85 Y12.8 I-0.3 J0 F1000
N1290 G1 X25 Y12.5
N1295 G0 Z8
N1300 G0 X28.5 Y12.2
N1305 G0 Z-7
N1310 G1 Z-8.7 F1000
N1315 G18 G2 X28.8 Z-9 I0.3 K0
N1320 G1 X28.95
N1325 G17 G3 X29.25 Y12.5 I0 J0.3
N1330 G3 X20.75 I-4.25 J0 F4244.1
N1335 G3 X29.25 I4.25 J0
N1340 G3 X28.95 Y12.8 I-0.3 J0 F1000
N1345 G1 X28.8
N1350 G18 G3 X28.5 Z-8.7 I0 K0.3
N1355 G0 Z8
N1360 G0 Y12.2
N1365 G0 Z-7
N1370 G1 Z-8.7 F1000
N1375 G2 X28.8 Z-9 I0.3 K0
N1380 G1 X28.95
N1385 G17 G3 X29.25 Y12.5 I0 J0.3
N1390 G3 X20.75 I-4.25 J0 F4244.1
N1395 G3 X29.25 I4.25 J0
N1400 G3 X28.95 Y12.8 I-0.3 J0 F1000
N1405 G1 X28.8
N1410 G18 G3 X28.5 Z-8.7 I0 K0.3
N1415 G0 Z18
N1420 G17
N1425 M5
N1430 G53 G0 Z0

(Example for jump to label and skip everything inbetween)
(SKIP P0003)

P0002:

(Chamfer)
M98 P1234 (call subroutine 1234)
N1435 M9
N1440 T14 M6
M98 P1234 (call subroutine 1234)
N1445 S5000 M3
N1450 G54
N1455 M9
N1465 G0 X27.46 Y12.5
N1470 G0 G43 Z15 H14
N1475 G0 Z5
N1480 G1 Z-2.5 F333.3
N1485 G1 X28.5 F1000
N1490 G3 X21.5 I-3.5 J0
N1495 G3 X28.5 I3.5 J0
N1500 G3 X27.2911 Y15.1459 I-3.5 J0
N1505 G1 X26.6103 Y14.3597
N1510 G0 Z5
N1515 G0 X40.11 Y12.5
N1520 G1 Z-2.5 F333.3
N1525 G1 X41.15 F1000
N1530 G3 X38.85 I-1.15 J0
N1535 G3 X41.15 I1.15 J0
N1540 G3 X39.0095 Y13.0842 I-1.15 J0
N1545 G1 X39.9053 Y12.5559
N1550 G0 Z15

(Example for jump to label and skip everything inbetween)
(SKIP P0003)

P0002:

(Bohren1)
N1560 M9
N1565 G0 X10 Y12.5
N1570 G0 Z15
N1580 G0 Z5
N1585 G81 Z-2.5 R5 F333.3
N1590 G80
N1595 G0 X10 Y12.5 Z15
N1605 M5
N1610 G53 G0 Z0

(Example for jump to label and skip everything inbetween)
(SKIP P0003)

P0002:

(Thread 1/2-20 UNF)
M98 P1234 (call subroutine 1234)
N1615 M9
N1620 T8 M6
M98 P1234 (call subroutine 1234)
(Gewindewirbler M10 - M16)
N1625 S10000 M3
N1630 G54
N1635 M9
N1645 G0 X25 Y12.5
N1650 G0 G43 Z15 H0
N1655 G0 Z-7
N1660 G1 Z-9 F120
N1665 G1 X25.78 Y11.72
N1670 G3 X26.56 Y12.5 I0 J0.78
N1675 G3 X23.44 Z-8.365 I-1.56 J0 F500
N1680 G3 X26.56 Z-7.73 I1.56 J0
N1685 G3 X23.44 Z-7.095 I-1.56 J0
N1690 G3 X26.56 Z-6.46 I1.56 J0
N1695 G3 X23.44 Z-5.825 I-1.56 J0
N1700 G3 X26.56 Z-5.19 I1.56 J0
N1705 G3 X23.44 Z-4.555 I-1.56 J0
N1710 G3 X26.56 Z-3.92 I1.56 J0
N1715 G3 X23.44 Z-3.285 I-1.56 J0
N1720 G3 X26.56 Z-2.65 I1.56 J0
N1725 G3 X23.44 Z-2.015 I-1.56 J0
N1730 G3 X26.56 Z-1.38 I1.56 J0
N1735 G3 X23.44 Z-0.745 I-1.56 J0
N1740 G3 X26.56 Z-0.11 I1.56 J0
N1745 G3 X26.3346 Y13.3077 Z0 I-1.56 J0
N1750 G3 X25.2635 Y13.5712 I-0.6673 J-0.4038 F120
N1755 G1 X25 Y12.5
N1760 G0 Z5
N1765 G0 Z-7
N1770 G1 Z-9 F120
N1775 G1 X26.76 Y11.7
N1780 G3 X27.56 Y12.5 I0 J0.8
N1785 G3 X22.44 Z-8.365 I-2.56 J0 F500
N1790 G3 X27.56 Z-7.73 I2.56 J0
N1795 G3 X22.44 Z-7.095 I-2.56 J0
N1800 G3 X27.56 Z-6.46 I2.56 J0
N1805 G3 X22.44 Z-5.825 I-2.56 J0
N1810 G3 X27.56 Z-5.19 I2.56 J0
N1815 G3 X22.44 Z-4.555 I-2.56 J0
N1820 G3 X27.56 Z-3.92 I2.56 J0
N1825 G3 X22.44 Z-3.285 I-2.56 J0
N1830 G3 X27.56 Z-2.65 I2.56 J0
N1835 G3 X22.44 Z-2.015 I-2.56 J0
N1840 G3 X27.56 Z-1.38 I2.56 J0
N1845 G3 X22.44 Z-0.745 I-2.56 J0
N1850 G3 X27.56 Z-0.11 I2.56 J0
N1855 G3 X27.1902 Y13.8254 Z0 I-2.56 J0
N1860 G3 X26.0915 Y14.0957 I-0.6844 J-0.4142 F120
N1865 G1 X25 Y12.5
N1870 G0 Z5
N1875 G0 Z-7
N1880 G1 Z-9 F120
N1885 G1 X26.76 Y11.7
N1890 G3 X27.56 Y12.5 I0 J0.8
N1895 G3 X22.44 Z-8.365 I-2.56 J0 F500
N1900 G3 X27.56 Z-7.73 I2.56 J0
N1905 G3 X22.44 Z-7.095 I-2.56 J0
N1910 G3 X27.56 Z-6.46 I2.56 J0
N1915 G3 X22.44 Z-5.825 I-2.56 J0
N1920 G3 X27.56 Z-5.19 I2.56 J0
N1925 G3 X22.44 Z-4.555 I-2.56 J0
N1930 G3 X27.56 Z-3.92 I2.56 J0
N1935 G3 X22.44 Z-3.285 I-2.56 J0
N1940 G3 X27.56 Z-2.65 I2.56 J0
N1945 G3 X22.44 Z-2.015 I-2.56 J0
N1950 G3 X27.56 Z-1.38 I2.56 J0
N1955 G3 X22.44 Z-0.745 I-2.56 J0
N1960 G3 X27.56 Z-0.11 I2.56 J0
N1965 G3 X27.1902 Y13.8254 Z0 I-2.56 J0
N1970 G3 X26.0915 Y14.0957 I-0.6844 J-0.4142 F120
N1975 G1 X25 Y12.5
N1980 G0 Z15
N1990 M5
N1995 G53 G0 Z0

(Example for jump to label and skip everything inbetween)
(SKIP P0003)

P0002:

(Thread M8)
M98 P1234 (call subroutine 1234)
N2000 M9
N2005 T7 M6
M98 P1234 (call subroutine 1234)
(Gewindewirbler M5 - M10)
N2010 S14000 M3
N2015 G54
N2020 M9
N2030 G0 X40 Y12.5
N2035 G0 G43 Z15 H7
N2040 G0 Z-7
N2045 G1 Z-9 F120
N2050 G1 X41.8 Y12.1
N2055 G3 X42.2 Y12.5 I0 J0.4
N2060 G3 X37.8 Z-8.375 I-2.2 J0 F250
N2065 G3 X42.2 Z-7.75 I2.2 J0
N2070 G3 X37.8 Z-7.125 I-2.2 J0
N2075 G3 X42.2 Z-6.5 I2.2 J0
N2080 G3 X37.8 Z-5.875 I-2.2 J0
N2085 G3 X42.2 Z-5.25 I2.2 J0
N2090 G3 X37.8 Z-4.625 I-2.2 J0
N2095 G3 X42.2 Z-4 I2.2 J0
N2100 G3 X37.8 Z-3.375 I-2.2 J0
N2105 G3 X42.2 Z-2.75 I2.2 J0
N2110 G3 X37.8 Z-2.125 I-2.2 J0
N2115 G3 X42.2 Z-1.5 I2.2 J0
N2120 G3 X37.8 Z-0.875 I-2.2 J0
N2125 G3 X42.2 Z-0.25 I2.2 J0
N2130 G3 X40.6798 Y14.5923 Z0 I-2.2 J0
N2135 G3 X40.1758 Y14.3355 I-0.1236 J-0.3804 F120
N2140 G1 X40 Y12.5
N2145 G0 Z5
N2150 G0 Z-7
N2155 G1 Z-9 F120
N2160 G1 X41.8 Y12.1
N2165 G3 X42.2 Y12.5 I0 J0.4
N2170 G3 X37.8 Z-8.375 I-2.2 J0 F250
N2175 G3 X42.2 Z-7.75 I2.2 J0
N2180 G3 X37.8 Z-7.125 I-2.2 J0
N2185 G3 X42.2 Z-6.5 I2.2 J0
N2190 G3 X37.8 Z-5.875 I-2.2 J0
N2195 G3 X42.2 Z-5.25 I2.2 J0
N2200 G3 X37.8 Z-4.625 I-2.2 J0
N2205 G3 X42.2 Z-4 I2.2 J0
N2210 G3 X37.8 Z-3.375 I-2.2 J0
N2215 G3 X42.2 Z-2.75 I2.2 J0
N2220 G3 X37.8 Z-2.125 I-2.2 J0
N2225 G3 X42.2 Z-1.5 I2.2 J0
N2230 G3 X37.8 Z-0.875 I-2.2 J0
N2235 G3 X42.2 Z-0.25 I2.2 J0
N2240 G3 X40.6798 Y14.5923 Z0 I-2.2 J0
N2245 G3 X40.1758 Y14.3355 I-0.1236 J-0.3804 F120
N2250 G1 X40 Y12.5
N2255 G0 Z15

(Example for jump to label and skip everything inbetween)
(SKIP P0003)

P0002:

(Thread M6)
N2265 M9
N2270 G0 X10 Y12.5
N2275 G0 Z15
N2280 G0 Z-7
N2285 G1 Z-9 F120
N2290 G1 X10.9 Y12.1
N2295 G3 X11.3 Y12.5 I0 J0.4
N2300 G3 X8.7 Z-8.375 I-1.3 J0 F250
N2305 G3 X11.3 Z-7.75 I1.3 J0
N2310 G3 X8.7 Z-7.125 I-1.3 J0
N2315 G3 X11.3 Z-6.5 I1.3 J0
N2320 G3 X8.7 Z-5.875 I-1.3 J0
N2325 G3 X11.3 Z-5.25 I1.3 J0
N2330 G3 X8.7 Z-4.625 I-1.3 J0
N2335 G3 X11.3 Z-4 I1.3 J0
N2340 G3 X8.7 Z-3.375 I-1.3 J0
N2345 G3 X11.3 Z-2.75 I1.3 J0
N2350 G3 X8.7 Z-2.125 I-1.3 J0
N2355 G3 X11.3 Z-1.5 I1.3 J0
N2360 G3 X8.7 Z-0.875 I-1.3 J0
N2365 G3 X11.3 Z-0.25 I1.3 J0
N2370 G3 X10.4017 Y13.7364 Z0 I-1.3 J0
N2375 G3 X9.8977 Y13.4796 I-0.1236 J-0.3804 F120
N2380 G1 X10 Y12.5
N2385 G0 Z5
N2390 G0 Z-7
N2395 G1 Z-9 F120
N2400 G1 X10.9 Y12.1
N2405 G3 X11.3 Y12.5 I0 J0.4
N2410 G3 X8.7 Z-8.375 I-1.3 J0 F250
N2415 G3 X11.3 Z-7.75 I1.3 J0
N2420 G3 X8.7 Z-7.125 I-1.3 J0
N2425 G3 X11.3 Z-6.5 I1.3 J0
N2430 G3 X8.7 Z-5.875 I-1.3 J0
N2435 G3 X11.3 Z-5.25 I1.3 J0
N2440 G3 X8.7 Z-4.625 I-1.3 J0
N2445 G3 X11.3 Z-4 I1.3 J0
N2450 G3 X8.7 Z-3.375 I-1.3 J0
N2455 G3 X11.3 Z-2.75 I1.3 J0
N2460 G3 X8.7 Z-2.125 I-1.3 J0
N2465 G3 X11.3 Z-1.5 I1.3 J0
N2470 G3 X8.7 Z-0.875 I-1.3 J0
N2475 G3 X11.3 Z-0.25 I1.3 J0
N2480 G3 X10.4017 Y13.7364 Z0 I-1.3 J0
N2485 G3 X9.8977 Y13.4796 I-0.1236 J-0.3804 F120
N2490 G1 X10 Y12.5
N2495 G0 Z15
N2505 M5
N2510 G53 G0 Z0

(Example for jump to label and skip everything inbetween)
(SKIP P0003)

P0002:

(Engrave Text)
M98 P1234 (call subroutine 1234)
N2515 M9
N2520 T3 M6
M98 P1234 (call subroutine 1234)
(Gravierstichel 30?)
N2525 S15000 M3
N2530 G54
N2535 M9
N2545 G0 X7.5892 Y1.9945
N2550 G0 G43 Z15 H3
N2555 G0 Z5
N2560 G1 Z-0.0012 F952.5
N2565 G1 X7.7715 Y2.1768 Z-0.6815 F1000
N2570 G1 X7.9538 Y1.9945 Z-0.0012
N2575 G1 X7.7715 Y2.1768 Z-0.6815
N2580 G1 Y4.4317
N2585 G1 X7.7727 Y4.4617 Z-0.6862
N2590 G1 X7.7764 Y4.4918 Z-0.7
N2595 G2 X8.0498 Y4.593 I0.1777 J-0.0601
N2600 G1 X8.0241 Y4.6699
N2605 G1 X8.159 Y4.8572 Z-0.0012
N2610 G1 X8.0241 Y4.6699 Z-0.7
N2615 G1 X7.7764
N2620 G1 X7.5892 Y4.8572 Z-0.0012
N2625 G1 X7.7764 Y4.6699 Z-0.7
N2630 G1 Y4.4918
N2635 G1 Y4.6699
N2640 G1 X8.0241
N2645 G1 X8.0498 Y4.593
N2650 G1 X8.0747 Y4.5585 Z-0.6529
N2655 G1 X8.0947 Y4.5224 Z-0.6246
N2660 G1 X8.1101 Y4.4847 Z-0.6148
N2665 G1 X8.7607 Y2.5522 Z-0.5937
N2670 G1 X8.8251 Y2.3558 Z-0.5856
N2675 G1 X8.8432 Y2.3132 Z-0.5983
N2680 G1 X8.8677 Y2.2727 Z-0.6364
N2685 G1 X8.8986 Y2.2346 Z-0.6997
N2690 G0 Z5
N2695 G0 X24.6292 Y3.2606
N2700 G1 Z-0.4961 F952.5
N2705 G1 X24.6301 Y3.2467 Z-0.4956 F1000
N2710 G1 X24.6417 Y3.1564 Z-0.4923
N2715 G1 X24.6498 Y3.1129 Z-0.4907
N2720 G1 X24.6652 Y3.0498 Z-0.4867
N2725 G1 X24.6851 Y2.9871 Z-0.4804
N2730 G1 X24.7178 Y2.9031 Z-0.469
N2735 G1 X24.7557 Y2.8175 Z-0.4549
N2740 G1 X24.7738 Y2.7794 Z-0.4488
N2745 G1 X24.7868 Y2.7576 Z-0.4538
N2750 G1 X24.7977 Y2.7414 Z-0.4611
N2755 G1 X24.8568 Y2.6804 Z-0.4472
N2760 G1 X24.9012 Y2.6418 Z-0.4409
N2765 G1 X24.9357 Y2.6175 Z-0.4372
N2770 G1 X24.9744 Y2.5971 Z-0.4316
N2775 G1 X24.994 Y2.5891 Z-0.428
N2780 G1 X25.0469 Y2.5733 Z-0.4186
N2785 G1 X25.0871 Y2.5651 Z-0.4127
N2790 G1 X25.1712 Y2.5536 Z-0.4033
N2795 G1 X25.1966 Y2.5531 Z-0.4041
N2800 G1 X25.2624 Y2.5607 Z-0.4141
N2805 G1 X25.3204 Y2.5713 Z-0.4227
N2810 G1 X25.3634 Y2.584 Z-0.4275
N2815 G1 X25.3966 Y2.598 Z-0.4293
N2820 G1 X25.4347 Y2.619 Z-0.4326
N2825 G1 X25.4697 Y2.6425 Z-0.44
N2830 G1 X25.5041 Y2.6696 Z-0.4505
N2835 G1 X25.5422 Y2.7091 Z-0.4527
N2840 G1 X25.5857 Y2.7596 Z-0.456
N2845 G1 X25.5981 Y2.7767 Z-0.4586
N2850 G1 X25.6199 Y2.8171 Z-0.4731
N2855 G1 X25.6363 Y2.8525 Z-0.4808
N2860 G1 X25.6576 Y2.9033 Z-0.4858
N2865 G1 X25.6825 Y2.9694 Z-0.4904
N2870 G1 X25.7007 Y3.0353 Z-0.484
N2875 G1 X25.715 Y3.0948 Z-0.4829
N2880 G1 X25.7307 Y3.178 Z-0.4874
N2885 G1 X25.7408 Y3.2583 Z-0.4926
N2890 G1 X25.7467 Y3.3416 Z-0.4971
N2895 G1 X25.7496 Y3.4489 Z-0.5017
N2900 G1 X25.7501 Y3.5597 Z-0.505
N2905 G1 X25.7476 Y3.727 Z-0.4984
N2910 G1 X25.7408 Y3.8243 Z-0.4927
N2915 G1 X25.7276 Y3.9234 Z-0.4864
N2920 G1 X25.7128 Y4.0018 Z-0.4877
N2925 G1 X25.7074 Y4.0256 Z-0.4884
N2930 G1 X25.684 Y4.1043 Z-0.4873
N2935 G1 X25.6632 Y4.1627 Z-0.4858
N2940 G1 X25.6391 Y4.2192 Z-0.4778
N2945 G1 X25.6004 Y4.2999 Z-0.4588
N2950 G1 X25.5886 Y4.3174 Z-0.4557
N2955 G1 X25.542 Y4.3737 Z-0.4593
N2960 G1 X25.5169 Y4.3995 Z-0.4561
N2965 G1 X25.4832 Y4.4281 Z-0.4473
N2970 G1 X25.4468 Y4.4543 Z-0.4399
N2975 G1 X25.4295 Y4.4651 Z-0.4374
N2980 G1 X25.3963 Y4.4816 Z-0.4297
N2985 G1 X25.3544 Y4.4984 Z-0.4268
N2990 G1 X25.3069 Y4.5119 Z-0.4244
N2995 G1 X25.2544 Y4.5208 Z-0.4175
N3000 G1 X25.1862 Y4.5276 Z-0.4071
N3005 G1 X25.1699 Y4.5268 Z-0.4066
N3010 G1 X25.0788 Y4.5161 Z-0.4157
N3015 G1 X25.0359 Y4.507 Z-0.4198
N3020 G1 X24.9984 Y4.4949 Z-0.4222
N3025 G1 X24.9612 Y4.4778 Z-0.4236
N3030 G1 X24.9263 Y4.4573 Z-0.4277
N3035 G1 X24.8892 Y4.4312 Z-0.4377
N3040 G1 X24.867 Y4.4132 Z-0.4445
N3045 G1 X24.8217 Y4.366 Z-0.4472
N3050 G1 X24.7899 Y4.3287 Z-0.4511
N3055 G1 X24.7745 Y4.3042 Z-0.4626
N3060 G1 X24.7549 Y4.2679 Z-0.4768
N3065 G1 X24.7355 Y4.2271 Z-0.485
N3070 G1 X24.7117 Y4.1704 Z-0.4899
N3075 G1 X24.6866 Y4.1013 Z-0.492
N3080 G1 X24.6684 Y4.0347 Z-0.4865
N3085 G1 X24.6526 Y3.9664 Z-0.4867
N3090 G1 X24.6376 Y3.8798 Z-0.4919
N3095 G1 X24.6286 Y3.7982 Z-0.4963
N3100 G1 X24.6236 Y3.7145 Z-0.4999
N3105 G1 X24.6208 Y3.5707 Z-0.5048
N3110 G1 X24.6207 Y3.5101 Z-0.5044
N3115 G1 X24.6232 Y3.3525 Z-0.4988
N3120 G1 X24.6292 Y3.2606 Z-0.4961
N3125 G0 Z5
N3130 G0 X17.8497 Y4.0976
N3135 G1 Z-0.001 F952.5
N3140 G1 X17.9675 Y4.0255 Z-0.4409 F1000
N3145 G1 X17.9169 Y3.9446 Z-0.2519
N3150 G1 X17.8497 Y3.8433 Z-0.0011
N3155 G1 X17.9169 Y3.9446 Z-0.2519
N3160 G1 X17.9675 Y4.0255 Z-0.4409
N3165 G1 X18.0081 Y4.0473 Z-0.44
N3170 G1 X18.0974 Y4.099 Z-0.4395
N3175 G1 X18.1594 Y4.1394 Z-0.4425
N3180 G1 X18.2017 Y4.1699 Z-0.444
N3185 G1 X18.2898 Y4.2413 Z-0.4399
N3190 G1 X18.3108 Y4.2585 Z-0.44
N3195 G1 X18.33 Y4.2721 Z-0.4507
N3200 G1 X18.3438 Y4.2804 Z-0.4631
N3205 G1 X18.3588 Y4.2882 Z-0.4804
N3210 G1 X18.3911 Y4.3015 Z-0.528
N3215 G1 X18.428 Y4.3122 Z-0.5966
N3220 G1 X18.4613 Y4.3188 Z-0.6689
N3225 G1 X18.4863 Y4.3849 Z-0.5754
N3230 G1 X18.5056 Y4.4413 Z-0.5036
N3235 G1 X18.5266 Y4.5102 Z-0.4249
N3240 G1 X18.5317 Y4.5281 Z-0.4059
N3245 G1 X18.6402 Y4.6365 Z-0.0012
N3250 G1 X18.5317 Y4.5281 Z-0.4059
N3255 G1 X18.5266 Y4.5102 Z-0.4249
N3260 G1 X18.5056 Y4.4413 Z-0.5036
N3265 G1 X18.4863 Y4.3849 Z-0.5754
N3270 G1 X18.4613 Y4.3188 Z-0.6689
N3275 G1 X18.482 Y4.2793 Z-0.5915
N3280 G1 X18.4968 Y4.2398 Z-0.5363
N3285 G1 X18.5057 Y4.2003 Z-0.5031
N3290 G1 X18.5086 Y4.1608 Z-0.4921
N3295 G1 Y2.6124
N3300 G1 X18.6402 Y2.4809 Z-0.0012
N3305 G1 X18.5086 Y2.6124 Z-0.4921
N3310 G1 X18.3771 Y2.4809 Z-0.0012
N3315 G0 Z5
N3320 G0 X19.1916 Y2.4443
N3325 G1 Z-0.0011 F952.5
N3330 G1 X19.326 Y2.5462 Z-0.3815 F1000
N3335 G1 X19.4034 Y2.4443 Z-0.0012
N3340 G1 X19.326 Y2.5462 Z-0.3815
N3345 G1 X19.8908 Y4.5631 Z-0.3791
N3350 G1 X19.814 Y4.6643 Z-0.0012
N3355 G1 X19.8908 Y4.5631 Z-0.3791
N3360 G1 X20.0243 Y4.6644 Z-0.0011
N3365 G0 Z5
N3370 G0 X20.1157 Y2.4807
N3375 G1 Z-0.0003 F952.5
N3380 G1 X20.1542 Y2.5182 Z-0.1404 F1000
N3385 G1 X20.2008 Y2.5607 Z-0.2991
N3390 G1 X20.257 Y2.6042 Z-0.4613
N3395 G1 X20.3301 Y2.6527 Z-0.6424
N3400 G1 X20.368 Y2.6328 Z-0.5682
N3405 G1 X20.4059 Y2.6186 Z-0.5153
N3410 G1 X20.4439 Y2.6101 Z-0.4835
N3415 G1 X20.4818 Y2.6073 Z-0.4729
N3420 G1 X21.4083
N3425 G1 X21.5347 Y2.7337 Z-0.0012
N3430 G1 X21.4083 Y2.6073 Z-0.4729
N3435 G1 X21.5347 Y2.4809 Z-0.0012
N3440 G1 X21.4083 Y2.6073 Z-0.4729
N3445 G1 X20.4818
N3450 G1 X20.4439 Y2.6101 Z-0.4835
N3455 G1 X20.4059 Y2.6186 Z-0.5153
N3460 G1 X20.368 Y2.6328 Z-0.5682
N3465 G1 X20.3301 Y2.6527 Z-0.6424
N3470 G1 X20.3306 Y2.6819 Z-0.597
N3475 G1 X20.3333 Y2.7067 Z-0.5635
N3480 G1 X20.3409 Y2.7401 Z-0.5264
N3485 G1 X20.3489 Y2.7623 Z-0.5071
N3490 G1 X20.3593 Y2.7838 Z-0.4934
N3495 G1 X20.3725 Y2.8049 Z-0.4864
N3500 G1 X20.4233 Y2.8735 Z-0.4752
N3505 G1 X20.4583 Y2.9141 Z-0.4679
N3510 G1 X20.5073 Y2.9669 Z-0.4641
N3515 G1 X20.5707 Y3.0279 Z-0.4669
N3520 G1 X20.6607 Y3.1089 Z-0.464
N3525 G1 X20.8072 Y3.2321 Z-0.4599
N3530 G1 X20.9398 Y3.3452
N3535 G1 X21.0229 Y3.4209 Z-0.464
N3540 G1 X21.1031 Y3.5004 Z-0.4709
N3545 G1 X21.2139 Y3.619 Z-0.4842
N3550 G1 X21.2466 Y3.6581 Z-0.4847
N3555 G1 X21.2867 Y3.7143 Z-0.4932
N3560 G1 X21.3173 Y3.7641 Z-0.496
N3565 G1 X21.3427 Y3.8135 Z-0.4991
N3570 G1 X21.3625 Y3.8613 Z-0.5046
N3575 G1 X21.3746 Y3.9 Z-0.5089
N3580 G1 X21.3863 Y3.9519 Z-0.513
N3585 G1 X21.391 Y3.9844 Z-0.5113
N3590 G1 X21.3963 Y4.038 Z-0.5055
N3595 G1 X21.3951 Y4.0594 Z-0.5024
N3600 G1 X21.3851 Y4.1415 Z-0.5014
N3605 G1 X21.3733 Y4.1943 Z-0.5
N3610 G1 X21.3645 Y4.2207 Z-0.4979
N3615 G1 X21.3479 Y4.2565 Z-0.4915
N3620 G1 X21.3241 Y4.2955 Z-0.4836
N3625 G1 X21.2983 Y4.3307 Z-0.4782
N3630 G1 X21.2621 Y4.3739 Z-0.4735
N3635 G1 X21.2428 Y4.3917 Z-0.462
N3640 G1 X21.2227 Y4.4082 Z-0.4554
N3645 G1 X21.1612 Y4.4505 Z-0.4476
N3650 G1 X21.1169 Y4.4758 Z-0.4401
N3655 G1 X21.072 Y4.4949 Z-0.4303
N3660 G1 X21.0327 Y4.5066 Z-0.4217
N3665 G1 X20.9825 Y4.5166 Z-0.4139
N3670 G1 X20.9223 Y4.5235 Z-0.4089
N3675 G1 X20.8623 Y4.5276 Z-0.4073
N3680 G1 X20.8351 Y4.5263 Z-0.4066
N3685 G1 X20.7565 Y4.5198 Z-0.4097
N3690 G1 X20.705 Y4.512 Z-0.4148
N3695 G1 X20.6535 Y4.499 Z-0.4226
N3700 G1 X20.6074 Y4.4811 Z-0.4307
N3705 G1 X20.5678 Y4.4604 Z-0.4371
N3710 G1 X20.5134 Y4.4258 Z-0.4471
N3715 G1 X20.4617 Y4.388 Z-0.4595
N3720 G1 X20.4536 Y4.3796 Z-0.4628
N3725 G1 X20.3924 Y4.3006 Z-0.4753
N3730 G1 X20.363 Y4.2538 Z-0.4828
N3735 G1 X20.3443 Y4.2153 Z-0.4874
N3740 G1 X20.3277 Y4.1667 Z-0.4903
N3745 G1 X20.3194 Y4.1326 Z-0.4924
N3750 G1 X20.3682 Y4.0696 Z-0.2772
N3755 G1 X20.436 Y3.9884 Z-0.0016
N3760 G1 X20.3682 Y4.0696 Z-0.2772
N3765 G1 X20.3194 Y4.1326 Z-0.4924
N3770 G1 X20.2367 Y4.0711 Z-0.2327
N3775 G1 X20.1657 Y4.016 Z-0.0011
N3780 G0 Z5
N3785 G0 X21.7887 Y3.1254
N3790 G1 Z-0.0012 F952.5
N3795 G1 X21.921 Y3.2577 Z-0.4948 F1000
N3800 G1 X21.7887 Y3.3899 Z-0.0012
N3805 G1 X21.921 Y3.2577 Z-0.4948
N3810 G1 X22.4659
N3815 G1 X22.5982 Y3.1254 Z-0.0012
N3820 G1 X22.4659 Y3.2577 Z-0.4948
N3825 G1 X22.5982 Y3.3899 Z-0.0012
N3830 G0 Z5
N3835 G0 X22.7835 Y2.4811
N3840 G1 Z-0.0019 F952.5
N3845 G1 X22.8358 Y2.5316 Z-0.1903 F1000
N3850 G1 X22.8739 Y2.5654 Z-0.3166
N3855 G1 X22.9237 Y2.6036 Z-0.4593
N3860 G1 X22.9975 Y2.6527 Z-0.6425
N3865 G1 X23.0355 Y2.6329 Z-0.5683
N3870 G1 X23.0734 Y2.6187 Z-0.5153
N3875 G1 X23.1114 Y2.6101 Z-0.4835
N3880 G1 X23.1493 Y2.6073 Z-0.4729
N3885 G1 X24.0758
N3890 G1 X24.2022 Y2.7337 Z-0.0012
N3895 G1 X24.0758 Y2.6073 Z-0.4729
N3900 G1 X24.2022 Y2.4809 Z-0.0012
N3905 G1 X24.0758 Y2.6073 Z-0.4729
N3910 G1 X23.1493
N3915 G1 X23.1114 Y2.6101 Z-0.4835
N3920 G1 X23.0734 Y2.6187 Z-0.5153
N3925 G1 X23.0355 Y2.6329 Z-0.5683
N3930 G1 X22.9975 Y2.6527 Z-0.6425
N3935 G1 X22.998 Y2.6813 Z-0.5979
N3940 G1 X23.0007 Y2.7067 Z-0.5637
N3945 G1 X23.0053 Y2.7292 Z-0.5377
N3950 G1 X23.0121 Y2.7513 Z-0.5161
N3955 G1 X23.0213 Y2.7732 Z-0.4996
N3960 G1 X23.033 Y2.7944 Z-0.4891
N3965 G1 X23.0686 Y2.8447 Z-0.4801
N3970 G1 X23.1124 Y2.8989 Z-0.47
N3975 G1 X23.1582 Y2.9494 Z-0.4649
N3980 G1 X23.1982 Y2.9898 Z-0.4659
N3985 G1 X23.2622 Y3.0502 Z-0.4664
N3990 G1 X23.4958 Y3.2496 Z-0.4596
N3995 G1 X23.6027 Y3.3412 Z-0.4598
N4000 G1 X23.6875 Y3.4182 Z-0.4638
N4005 G1 X23.7695 Y3.4992 Z-0.4708
N4010 G1 X23.8667 Y3.6026 Z-0.4829
N4015 G1 X23.9032 Y3.6444 Z-0.4831
N4020 G1 X23.9213 Y3.6678 Z-0.4865
N4025 G1 X23.9583 Y3.7204 Z-0.4938
N4030 G1 X23.9916 Y3.7766 Z-0.4963
N4035 G1 X24.0153 Y3.8244 Z-0.5007
N4040 G1 X24.0339 Y3.873 Z-0.5059
N4045 G1 X24.0484 Y3.9245 Z-0.5116
N4050 G1 X24.0556 Y3.9629 Z-0.5127
N4055 G1 X24.0629 Y4.027 Z-0.5065
N4060 G1 X24.0634 Y4.0484 Z-0.5032
N4065 G1 X24.0618 Y4.0675 Z-0.5024
N4070 G1 X24.0532 Y4.1381 Z-0.5016
N4075 G1 X24.0452 Y4.178 Z-0.5007
N4080 G1 X24.0321 Y4.2204 Z-0.4979
N4085 G1 X24.0209 Y4.2458 Z-0.4935
N4090 G1 X23.9975 Y4.2866 Z-0.4852
N4095 G1 X23.9716 Y4.3231 Z-0.4792
N4100 G1 X23.936 Y4.3671 Z-0.4756
N4105 G1 X23.9203 Y4.3825 Z-0.4679
N4110 G1 X23.8945 Y4.4049 Z-0.456
N4115 G1 X23.8455 Y4.4396 Z-0.45
N4120 G1 X23.8004 Y4.4673 Z-0.443
N4125 G1 X23.7571 Y4.4882 Z-0.4343
N4130 G1 X23.7174 Y4.502 Z-0.4252
N4135 G1 X23.6701 Y4.5132 Z-0.4167
N4140 G1 X23.6206 Y4.5204 Z-0.4108
N4145 G1 X23.5316 Y4.5275 Z-0.4073
N4150 G1 X23.4582 Y4.5232 Z-0.4079
N4155 G1 X23.3935 Y4.5157 Z-0.4124
N4160 G1 X23.3548 Y4.5082 Z-0.4172
N4165 G1 X23.3057 Y4.4938 Z-0.4253
N4170 G1 X23.2661 Y4.4769 Z-0.4319
N4175 G1 X23.2237 Y4.4536 Z-0.4391
N4180 G1 X23.1567 Y4.4087 Z-0.4515
N4185 G1 X23.1292 Y4.388 Z-0.4595
N4190 G1 X23.1118 Y4.3683 Z-0.4645
N4195 G1 X23.0626 Y4.3043 Z-0.4745
N4200 G1 X23.0329 Y4.2581 Z-0.4823
N4205 G1 X23.0129 Y4.2178 Z-0.487
N4210 G1 X22.9992 Y4.1802 Z-0.4896
N4215 G1 X22.9868 Y4.1325 Z-0.4924
N4220 G1 X23.0357 Y4.0696 Z-0.2772
N4225 G1 X23.1034 Y3.9884 Z-0.0016
N4230 G1 X23.0357 Y4.0696 Z-0.2772
N4235 G1 X22.9868 Y4.1325 Z-0.4924
N4240 G1 X22.9708 Y4.121 Z-0.4434
N4245 G1 X22.8332 Y4.016 Z-0.0012
N4250 G0 Z5
N4255 G0 X27.0988 Y4.6277
N4260 G1 Z-0.0012 F952.5
N4265 G1 X27.2406 Y4.4859 Z-0.5303 F1000
N4270 G1 X27.3824 Y4.6277 Z-0.0012
N4275 G1 X27.2406 Y4.4859 Z-0.5303
N4280 G1 Y3.3888
N4285 G1 X27.2431 Y3.2618 Z-0.5284
N4290 G1 X27.2482 Y3.1851 Z-0.5283
N4295 G1 X27.2572 Y3.1146 Z-0.5288
N4300 G1 X27.2709 Y3.0468 Z-0.5278
N4305 G1 X27.2994 Y2.9395 Z-0.5234
N4310 G1 X27.3079 Y2.9148 Z-0.5264
N4315 G1 X27.3121 Y2.9039 Z-0.5297
N4320 G1 X27.3297 Y2.8698 Z-0.5291
N4325 G1 X27.3593 Y2.8185
N4330 G1 X27.3883 Y2.7781 Z-0.5289
N4335 G1 X27.4197 Y2.7449 Z-0.5249
N4340 G1 X27.4584 Y2.7125 Z-0.5187
N4345 G1 X27.5147 Y2.6728 Z-0.5133
N4350 G1 X27.5451 Y2.656 Z-0.5026
N4355 G1 X27.6183 Y2.6251 Z-0.4947
N4360 G1 X27.6835 Y2.6025 Z-0.4883
N4365 G1 X27.7329 Y2.5901 Z-0.4836
N4370 G1 X27.7993 Y2.58 Z-0.4791
N4375 G1 X27.8891 Y2.5738 Z-0.4771
N4380 G1 X27.9261 Y2.5725
N4385 G1 X27.9657 Y2.573 Z-0.479
N4390 G1 X28.0493 Y2.577 Z-0.4798
N4395 G1 X28.1244 Y2.5851 Z-0.4829
N4400 G1 X28.1721 Y2.5941 Z-0.4854
N4405 G1 X28.2205 Y2.6075 Z-0.4875
N4410 G1 X28.2627 Y2.6232 Z-0.4902
N4415 G1 X28.3159 Y2.6475 Z-0.4967
N4420 G1 X28.378 Y2.6809 Z-0.5113
N4425 G1 X28.397 Y2.6939 Z-0.5107
N4430 G1 X28.4483 Y2.7314 Z-0.5067
N4435 G1 X28.4594 Y2.7404 Z-0.5061
N4440 G1 X28.4788 Y2.7593 Z-0.5108
N4445 G1 X28.5011 Y2.7881 Z-0.5255
N4450 G1 X28.5184 Y2.8143 Z-0.534
N4455 G1 X28.5408 Y2.8525 Z-0.5392
N4460 G1 X28.5762 Y2.9224 Z-0.5428
N4465 G1 X28.588 Y2.9543 Z-0.5363
N4470 G1 X28.6064 Y3.013 Z-0.5275
N4475 G1 X28.6166 Y3.0521 Z-0.5255
N4480 G1 X28.6312 Y3.126
N4485 G1 X28.6398 Y3.2028 Z-0.5265
N4490 G1 X28.6444 Y3.3039 Z-0.528
N4495 G1 X28.6453 Y4.486 Z-0.5301
N4500 G1 X28.5036 Y4.6277 Z-0.0012
N4505 G1 X28.6453 Y4.486 Z-0.5301
N4510 G1 X28.7871 Y4.6277 Z-0.0012
N4515 G0 Z5
N4520 G0 X29.258 Y2.4809
N4525 G1 Z-0.0012 F952.5
N4530 G1 X29.3939 Y2.6168 Z-0.5083 F1000
N4535 G1 X29.5298 Y2.4809 Z-0.0012
N4540 G1 X29.3939 Y2.6168 Z-0.5083
N4545 G1 Y4.1681
N4550 G1 X29.3971 Y4.2099 Z-0.5203
N4555 G1 X29.4067 Y4.2517 Z-0.5562
N4560 G1 X29.4228 Y4.2935 Z-0.6161
N4565 G1 X29.4453 Y4.3354 Z-0.7
N4570 G2 X29.5067 Y4.3542 I0.0848 J-0.1673
N4575 G1 X29.449 Y4.4405
N4580 G1 X29.4453
N4585 G1 X29.258 Y4.6277 Z-0.0012
N4590 G1 X29.4453 Y4.4405 Z-0.7
N4595 G1 Y4.3354
N4600 G1 Y4.4405
N4605 G1 X29.449
N4610 G1 X29.5067 Y4.3542
N4615 G1 X29.5489 Y4.3319 Z-0.6155
N4620 G1 X29.5856 Y4.3061 Z-0.5551
N4625 G1 X29.617 Y4.2766 Z-0.5189
N4630 G1 X29.643 Y4.2436 Z-0.5069
N4635 G1 X30.5639 Y2.8663 Z-0.5081
N4640 G1 X30.5899 Y2.8333 Z-0.5201
N4645 G1 X30.6211 Y2.8039 Z-0.5561
N4650 G1 X30.6577 Y2.7781 Z-0.6161
N4655 G1 X30.6996 Y2.7558 Z-0.7
N4660 G3 X30.7619 Y2.7747 I-0.0225 J0.1862
N4665 G1 Y2.6681
N4670 G1 X30.7582
N4675 G1 X30.6996 Y2.7558
N4680 G1 X30.7582 Y2.6681
N4685 G1 X30.7619
N4690 G1 X30.9492 Y2.4809 Z-0.0012
N4695 G1 X30.7619 Y2.6681 Z-0.7
N4700 G1 Y2.7747
N4705 G1 X30.7844 Y2.8165 Z-0.6161
N4710 G1 X30.8005 Y2.8584 Z-0.5562
N4715 G1 X30.8101 Y2.9002 Z-0.5203
N4720 G1 X30.8133 Y2.942 Z-0.5083
N4725 G1 Y4.4918
N4730 G1 X30.9492 Y4.6277 Z-0.0012
N4735 G1 X30.8133 Y4.4918 Z-0.5083
N4740 G1 X30.6774 Y4.6277 Z-0.0012
N4745 G0 Z5
N4750 G0 X31.442 Y2.4809
N4755 G1 Z-0.0012 F952.5
N4760 G1 X31.5838 Y2.6227 Z-0.5303 F1000
N4765 G1 X31.7256 Y2.4809 Z-0.0012
N4770 G1 X31.5838 Y2.6227 Z-0.5303
N4775 G1 Y3.4562
N4780 G1 X31.5869 Y3.4984 Z-0.542
N4785 G1 X31.5964 Y3.5406 Z-0.5772
N4790 G1 X31.612 Y3.5829 Z-0.6357
N4795 G1 X31.6557 Z-0.5406
N4800 G1 X31.6856 Z-0.4963
N4805 G1 X31.7075 Z-0.4778
N4810 G1 X31.7259 Z-0.4729
N4815 G1 X32.607
N4820 G1 X32.7334 Y3.7093 Z-0.0012
N4825 G1 X32.607 Y3.5829 Z-0.4729
N4830 G1 X32.7334 Y3.4565 Z-0.0012
N4835 G1 X32.607 Y3.5829 Z-0.4729
N4840 G1 X31.7259
N4845 G1 X31.7075 Z-0.4778
N4850 G1 X31.6856 Z-0.4963
N4855 G1 X31.6557 Z-0.5406
N4860 G1 X31.612 Z-0.6357
N4865 G1 X31.5964 Y3.6251 Z-0.5772
N4870 G1 X31.5869 Y3.6673 Z-0.542
N4875 G1 X31.5838 Y3.7096 Z-0.5303
N4880 G1 Y4.3746
N4885 G1 X31.5878 Y4.4223 Z-0.5452
N4890 G1 X31.5998 Y4.47 Z-0.59
N4895 G1 X31.442 Y4.6277 Z-0.0012
N4900 G1 X31.5998 Y4.47 Z-0.59
N4905 G1 X31.6418 Y4.4874 Z-0.5249
N4910 G1 X31.6839 Y4.4978 Z-0.4859
N4915 G1 X31.7259 Y4.5013 Z-0.4729
N4920 G1 X32.7638
N4925 G1 X32.8902 Y4.3749 Z-0.0012
N4930 G1 X32.7638 Y4.5013 Z-0.4729
N4935 G1 X32.8902 Y4.6277 Z-0.0012
N4940 G0 Z5
N4945 G0 X37.5892 Y1.9945
N4950 G1 Z-0.0012 F952.5
N4955 G1 X37.7715 Y2.1768 Z-0.6815 F1000
N4960 G1 X37.9538 Y1.9945 Z-0.0012
N4965 G1 X37.7715 Y2.1768 Z-0.6815
N4970 G1 Y4.4317
N4975 G1 X37.7727 Y4.4618 Z-0.6861
N4980 G1 X37.7765 Y4.4919 Z-0.7
N4985 G2 X38.0499 Y4.593 I0.1776 J-0.0602
N4990 G1 X38.0241 Y4.6699
N4995 G1 X38.159 Y4.8572 Z-0.0012
N5000 G1 X38.0241 Y4.6699 Z-0.7
N5005 G1 X37.7765
N5010 G1 X37.5892 Y4.8572 Z-0.0012
N5015 G1 X37.7765 Y4.6699 Z-0.7
N5020 G1 Y4.4919
N5025 G1 Y4.6699
N5030 G1 X38.0241
N5035 G1 X38.0499 Y4.593
N5040 G1 X38.0747 Y4.5585 Z-0.653
N5045 G1 X38.0948 Y4.5224 Z-0.6246
N5050 G1 X38.1101 Y4.4847 Z-0.6149
N5055 G1 X38.7606 Y2.5525 Z-0.5937
N5060 G1 X38.825 Y2.3558 Z-0.5855
N5065 G1 X38.8431 Y2.3131 Z-0.5983
N5070 G1 X38.8677 Y2.2727 Z-0.6364
N5075 G1 X38.8987 Y2.2343 Z-0.7
N5080 G3 X39.0043 Y2.2213 I0.0749 J0.172
N5085 G1 X38.9906 Y2.1818
N5090 G1 X39.1238 Y1.9945 Z-0.0012
N5095 G1 X38.9906 Y2.1818 Z-0.7
N5100 G1 X38.9166
N5105 G1 X38.8987 Y2.2343
N5110 G1 X38.9166 Y2.1818
N5115 G1 X38.9906
N5120 G1 X39.0043 Y2.2213
N5125 G1 X39.038 Y2.2532 Z-0.6201
N5130 G1 X39.066 Y2.287 Z-0.563
N5135 G1 X39.0882 Y2.3229 Z-0.5288
N5140 G1 X39.1046 Y2.3608 Z-0.5174
N5145 G1 X39.1119 Y2.3828 Z-0.5182
N5150 G1 X39.1759 Y2.5731 Z-0.5257
N5155 G1 X39.8198 Y4.438 Z-0.5386
N5160 G1 X39.8352 Y4.4744 Z-0.5488
N5165 G1 X39.8557 Y4.509 Z-0.5791
N5170 G1 X39.8813 Y4.5419 Z-0.6295
N5175 G1 X39.912 Y4.573 Z-0.7
N5180 G1 X39.9453 Y4.6699
N5185 G1 X39.8117 Y4.8572 Z-0.0012
N5190 G1 X39.9453 Y4.6699 Z-0.7
N5195 G1 X40.1337
N5200 G1 X40.321 Y4.8572 Z-0.0012
N5205 G1 X40.1337 Y4.6699 Z-0.7
N5210 G1 Y4.4509
N5215 G3 X39.912 Y4.573 I-0.1776 J-0.0602
N5220 G2 X40.1337 Y4.4509 I0.0441 J-0.1823
N5225 G1 X40.1375 Y4.4208 Z-0.6861
N5230 G1 X40.1387 Y4.3907 Z-0.6815
N5235 G1 Y2.1768
N5240 G1 X39.9564 Y1.9945 Z-0.0012
N5245 G1 X40.1387 Y2.1768 Z-0.6815
N5250 G1 X40.321 Y1.9945 Z-0.0012
N5255 G0 Z5
N5260 G0 X38.7824
N5265 G1 Z-0.0012 F952.5
N5270 G1 X38.9162 Y2.1813 Z-0.6983 F1000
N5275 G0 Z5
N5280 G0 X41.1715 Y3.8369
N5285 G1 Z-0.6099 F952.5
N5290 G1 X41.207 Y3.7927 Z-0.5864 F1000
N5295 G1 X41.232 Y3.7663 Z-0.5692
N5300 G1 X41.2579 Y3.7426 Z-0.5476
N5305 G1 X41.2971 Y3.7112 Z-0.5119
N5310 G1 X41.3369 Y3.6869 Z-0.49
N5315 G1 X41.3836 Y3.6602 Z-0.4661
N5320 G1 X41.3997 Y3.6503 Z-0.463
N5325 G1 X41.4155 Y3.639 Z-0.4663
N5330 G1 X41.4307 Y3.6268 Z-0.4764
N5335 G1 X41.4465 Y3.6123 Z-0.4949
N5340 G1 X41.4621 Y3.5962 Z-0.5224
N5345 G1 X41.4781 Y3.5778 Z-0.5607
N5350 G1 X41.4946 Y3.5568 Z-0.6113
N5355 G1 X41.5061 Y3.5409 Z-0.6534
N5360 G1 X41.5324 Y3.5401 Z-0.628
N5365 G1 X41.562 Y3.5394 Z-0.6043
N5370 G1 X41.6044 Y3.5387 Z-0.578
N5375 G1 X41.6366 Y3.5384 Z-0.5629
N5380 G1 X41.6907 Z-0.5443
N5385 G1 X41.7266 Y3.5381 Z-0.5361
N5390 G1 X41.7419 Y3.5378 Z-0.5386
N5395 G1 X41.81 Y3.5376 Z-0.5605
N5400 G1 X41.8477 Z-0.5776
N5405 G1 X41.8885 Y3.538 Z-0.6024
N5410 G1 X41.9319 Y3.5387 Z-0.638
N5415 G1 X41.9564 Y3.5393 Z-0.6629
N5420 G1 X41.9667 Y3.5539 Z-0.6243
N5425 G1 X41.9828 Y3.575 Z-0.5733
N5430 G1 X41.9987 Y3.5938 Z-0.5338
N5435 G1 X42.014 Y3.6101 Z-0.5056
N5440 G1 X42.0294 Y3.6248 Z-0.4861
N5445 G1 X42.0442 Y3.6373 Z-0.4749
N5450 G1 X42.0595 Y3.6487 Z-0.4703
N5455 G1 X42.0748 Y3.6588 Z-0.4718
N5460 G1 X42.135 Y3.6941 Z-0.5018
N5465 G1 X42.1638 Y3.7125 Z-0.5185
N5470 G1 X42.2049 Y3.7459 Z-0.5554
N5475 G1 X42.2298 Y3.769 Z-0.5746
N5480 G1 X42.2578 Y3.7994 Z-0.5923
N5485 G1 X42.2946 Y3.8469 Z-0.6166
N5490 G1 X42.3129 Y3.874 Z-0.6331
N5495 G1 X42.318 Y3.8841 Z-0.6353
N5500 G1 X42.3359 Y3.923 Z-0.6479
N5505 G1 X42.3515 Y3.9648 Z-0.663
N5510 G1 X42.3607 Y3.9992 Z-0.6715
N5515 G1 X42.3674 Y4.0384 Z-0.6745
N5520 G1 X42.3743 Y4.1115 Z-0.6732
N5525 G1 X42.372 Y4.1529 Z-0.6703
N5530 G1 X42.3612 Y4.2401 Z-0.6678
N5535 G1 X42.3498 Y4.2949 Z-0.666
N5540 G1 X42.3354 Y4.3403 Z-0.6617
N5545 G1 X42.3155 Y4.3836 Z-0.6525
N5550 G1 X42.2892 Y4.4277 Z-0.6417
N5555 G1 X42.2541 Y4.4766 Z-0.6318
N5560 G1 X42.2124 Y4.5278 Z-0.6258
N5565 G1 X42.1982 Y4.5414 Z-0.6168
N5570 G1 X42.166 Y4.5701 Z-0.6013
N5575 G1 X42.1079 Y4.6128 Z-0.592
N5580 G1 X42.0609 Y4.6432 Z-0.5834
N5585 G1 X42.0146 Y4.6679 Z-0.5745
N5590 G1 X41.9783 Y4.6831 Z-0.566
N5595 G1 X41.9236 Y4.6996 Z-0.5541
N5600 G1 X41.878 Y4.709 Z-0.5469
N5605 G1 X41.8223 Y4.7167 Z-0.5415
N5610 G1 X41.7365 Y4.724 Z-0.5379
N5615 G1 X41.6521 Y4.7192 Z-0.5414
N5620 G1 X41.6019 Y4.7137 Z-0.5454
N5625 G1 X41.5548 Y4.706 Z-0.5517
N5630 G1 X41.4971 Y4.6917 Z-0.5632
N5635 G1 X41.4548 Y4.6767 Z-0.5737
N5640 G1 X41.4007 Y4.6502 Z-0.5858
N5645 G1 X41.3496 Y4.6184 Z-0.5948
N5650 G1 X41.2936 Y4.5782 Z-0.6034
N5655 G1 X41.2695 Y4.5583 Z-0.6117
N5660 G1 X41.241 Y4.5319 Z-0.6284
N5665 G1 X41.2257 Y4.5138 Z-0.6292
N5670 G1 X41.1888 Y4.4675 Z-0.6346
N5675 G1 X41.1577 Y4.4226 Z-0.6437
N5680 G1 X41.1394 Y4.3911 Z-0.651
N5685 G1 X41.1198 Y4.3484 Z-0.6595
N5690 G1 X41.1056 Y4.3038 Z-0.6631
N5695 G1 X41.0957 Y4.2578 Z-0.6641
N5700 G1 X41.0848 Y4.1755 Z-0.6654
N5705 G1 X41.0818 Y4.139 Z-0.6677
N5710 G1 X41.0816 Y4.1288 Z-0.6704
N5715 G1 X41.0868 Y4.0632 Z-0.6721
N5720 G1 X41.0939 Y4.0129 Z-0.6706
N5725 G1 X41.0996 Y3.9872 Z-0.6663
N5730 G1 X41.1124 Y3.9476 Z-0.6542
N5735 G1 X41.1323 Y3.9004 Z-0.6383
N5740 G1 X41.1449 Y3.8751 Z-0.6322
N5745 G1 X41.1715 Y3.8369 Z-0.6099
N5750 G0 Z5
N5755 G0 X41.5061 Y3.5409
N5760 G1 Z-0.6534 F952.5
N5765 G1 X41.4866 Y3.518 Z-0.5902 F1000
N5770 G1 X41.4665 Y3.497 Z-0.5386
N5775 G1 X41.4465 Y3.4787 Z-0.5005
N5780 G1 X41.4265 Y3.4626 Z-0.4751
N5785 G1 X41.4068 Y3.449 Z-0.4619
N5790 G1 X41.3863 Y3.437 Z-0.459
N5795 G1 X41.3661 Y3.4271 Z-0.4657
N5800 G1 X41.3155 Y3.4023 Z-0.494
N5805 G1 X41.2505 Y3.3663 Z-0.5346
N5810 G1 X41.1992 Y3.3326 Z-0.5636
N5815 G1 X41.1684 Y3.3049 Z-0.5872
N5820 G1 X41.1321 Y3.2672 Z-0.6073
N5825 G1 X41.0876 Y3.2143 Z-0.6294
N5830 G1 X41.0621 Y3.1793 Z-0.6428
N5835 G1 X41.0452 Y3.1492 Z-0.6458
N5840 G1 X41.0213 Y3.1009 Z-0.655
N5845 G1 X40.9988 Y3.0427 Z-0.6692
N5850 G1 X40.9881 Y3.0038 Z-0.6748
N5855 G1 X40.9799 Y2.9602 Z-0.6769
N5860 G1 X40.9719 Y2.8917 Z-0.6757
N5865 G1 X40.9671 Y2.8251 Z-0.6736
N5870 G1 X40.9701 Y2.7803 Z-0.6701
N5875 G1 X40.9792 Y2.6956 Z-0.6675
N5880 G1 X40.9884 Y2.6427 Z-0.6683
N5885 G1 X41.0026 Y2.5875 Z-0.6707
N5890 G1 X41.0218 Y2.5352 Z-0.6682
N5895 G1 X41.0341 Y2.5082 Z-0.6634
N5900 G1 X41.0534 Y2.4705 Z-0.6529
N5905 G1 X41.0717 Y2.4394 Z-0.6434
N5910 G1 X41.0948 Y2.4052 Z-0.6361
N5915 G1 X41.1397 Y2.3445 Z-0.624
N5920 G1 X41.1656 Y2.314 Z-0.6197
N5925 G1 X41.1936 Y2.2885 Z-0.6067
N5930 G1 X41.2312 Y2.2575 Z-0.5963
N5935 G1 X41.2744 Y2.2258 Z-0.5907
N5940 G1 X41.329 Y2.1904 Z-0.5858
N5945 G1 X41.3645 Y2.1705 Z-0.5817
N5950 G1 X41.3931 Y2.1573 Z-0.5811
N5955 G1 X41.4454 Y2.1368 Z-0.5723
N5960 G1 X41.492 Y2.1223 Z-0.5612
N5965 G1 X41.5429 Y2.1103 Z-0.55
N5970 G1 X41.5932 Y2.1019 Z-0.5427
N5975 G1 X41.6551 Y2.0952 Z-0.5389
N5980 G1 X41.7426 Y2.0906 Z-0.5378
N5985 G1 X41.8493 Y2.0997 Z-0.541
N5990 G1 X41.9181 Y2.1095 Z-0.5465
N5995 G1 X41.977 Y2.1224 Z-0.5546
N6000 G1 X42.0156 Y2.134 Z-0.561
N6005 G1 X42.057 Y2.1501 Z-0.5686
N6010 G1 X42.1022 Y2.1723 Z-0.576
N6015 G1 X42.1469 Y2.1989 Z-0.5825
N6020 G1 X42.1974 Y2.2334 Z-0.5896
N6025 G1 X42.2488 Y2.2717 Z-0.5955
N6030 G1 X42.2751 Y2.2943 Z-0.6047
N6035 G1 X42.3027 Y2.3219 Z-0.6198
N6040 G1 X42.345 Y2.3744 Z-0.625
N6045 G1 X42.3872 Y2.4327 Z-0.6345
N6050 G1 X42.4216 Y2.49 Z-0.6463
N6055 G1 X42.4393 Y2.5267 Z-0.6533
N6060 G1 X42.4568 Y2.5748 Z-0.659
N6065 G1 X42.4642 Y2.6014 Z-0.661
N6070 G1 X42.4778 Y2.6695 Z-0.6632
N6075 G1 X42.4881 Y2.7553 Z-0.6659
N6080 G1 X42.4924 Y2.8232 Z-0.6698
N6085 G1 X42.4845 Y2.914 Z-0.6721
N6090 G1 X42.4751 Y2.975 Z-0.6702
N6095 G1 X42.4657 Y3.0144 Z-0.6652
N6100 G1 X42.4523 Y3.0546 Z-0.6557
N6105 G1 X42.4314 Y3.1041 Z-0.6429
N6110 G1 X42.407 Y3.1516 Z-0.6352
N6115 G1 X42.3934 Y3.1743 Z-0.6316
N6120 G1 X42.3593 Y3.2194 Z-0.6137
N6125 G1 X42.3139 Y3.2722 Z-0.5939
N6130 G1 X42.2819 Y3.3047 Z-0.5765
N6135 G1 X42.2482 Y3.3344 Z-0.5528
N6140 G1 X42.2008 Y3.3655 Z-0.5307
N6145 G1 X42.142 Y3.3996 Z-0.5006
N6150 G1 X42.0877 Y3.4279 Z-0.4764
N6155 G1 X42.082 Y3.4308 Z-0.4746
N6160 G1 X42.0609 Y3.4428 Z-0.4743
N6165 G1 X42.0406 Y3.4566 Z-0.4846
N6170 G1 X42.0199 Y3.4728 Z-0.507
N6175 G1 X41.9995 Y3.4914 Z-0.5423
N6180 G1 X41.9793 Y3.5124 Z-0.5909
N6185 G1 X41.9564 Y3.5393 Z-0.6629
N6190 G0 Z5
N6195 G0 X11.0687 Y3.292
N6200 G1 Z-0.6985 F952.5
N6205 G1 X11.1112 Y3.3122 Z-0.5937 F1000
N6210 G1 X11.1372 Y3.327 Z-0.5387
N6215 G1 X11.159 Y3.3417 Z-0.499
N6220 G1 X11.1787 Y3.3573 Z-0.4702
N6225 G1 X11.196 Y3.3734 Z-0.4519
N6230 G1 X11.2111 Y3.3902 Z-0.4429
N6235 G1 X11.2405 Y3.4291 Z-0.4425
N6240 G1 X11.2617 Y3.456 Z-0.4456
N6245 G1 X11.2842 Y3.4796 Z-0.4574
N6250 G1 X11.3248 Y3.5193 Z-0.475
N6255 G1 X11.3556 Y3.546 Z-0.4841
N6260 G1 X11.4057 Y3.5826 Z-0.4926
N6265 G1 X11.4508 Y3.6101 Z-0.5006
N6270 G1 X11.4912 Y3.6313 Z-0.5131
N6275 G1 X11.5187 Y3.6428 Z-0.5196
N6280 G1 X11.5507 Y3.6542 Z-0.5277
N6285 G1 X11.6093 Y3.6717 Z-0.5461
N6290 G1 X11.6528 Y3.6815 Z-0.5585
N6295 G1 X11.6941 Y3.688 Z-0.5656
N6300 G1 X11.7498 Y3.6937 Z-0.5697
N6305 G1 X11.8123 Y3.6933 Z-0.588
N6310 G1 X11.8219 Y3.6927 Z-0.5893
N6315 G1 X11.8897 Y3.6845 Z-0.593
N6320 G1 X11.9545 Y3.6731 Z-0.6017
N6325 G1 X12.0028 Y3.6609 Z-0.6115
N6330 G1 X12.028 Y3.6529 Z-0.6173
N6335 G1 X12.0793 Y3.6316 Z-0.6289
N6340 G1 X12.1269 Y3.6047 Z-0.6356
N6345 G1 X12.1834 Y3.5649 Z-0.6404
N6350 G1 X12.2615 Y3.4999 Z-0.6446
N6355 G1 X12.2824 Y3.4801 Z-0.6496
N6360 G1 X12.2893 Y3.4728 Z-0.6533
N6365 G1 X12.3142 Y3.4385 Z-0.6558
N6370 G1 X12.3584 Y3.3749 Z-0.6609
N6375 G1 X12.3959 Y3.3137 Z-0.6668
N6380 G1 X12.4205 Y3.2655 Z-0.6712
N6385 G1 X12.4319 Y3.239 Z-0.6727
N6390 G1 X12.4509 Y3.182 Z-0.6731
N6395 G1 X12.464 Y3.1241 Z-0.6713
N6400 G1 X12.4749 Y3.0488 Z-0.6696
N6405 G1 X12.4836 Y2.9424 Z-0.6708
N6410 G1 X12.4843 Y2.8936 Z-0.6674
N6415 G1 X12.4773 Y2.7922 Z-0.664
N6420 G1 X12.4683 Y2.7224 Z-0.6581
N6425 G1 X12.454 Y2.6565 Z-0.6479
N6430 G1 X12.4351 Y2.5948 Z-0.6374
N6435 G1 X12.4174 Y2.5479 Z-0.6335
N6440 G1 X12.4012 Y2.5097 Z-0.6341
N6445 G1 X12.3642 Y2.4417 Z-0.63
N6450 G1 X12.3265 Y2.3821 Z-0.6274
N6455 G1 X12.2997 Y2.3446 Z-0.6219
N6460 G1 X12.2724 Y2.3108 Z-0.6108
N6465 G1 X12.2504 Y2.2893 Z-0.6075
N6470 G1 X12.1986 Y2.2446 Z-0.5986
N6475 G1 X12.1531 Y2.2087 Z-0.5915
N6480 G1 X12.1236 Y2.1897 Z-0.5819
N6485 G1 X12.0808 Y2.1654 Z-0.5702
N6490 G1 X12.0351 Y2.1433 Z-0.5634
N6495 G1 X11.988 Y2.1253 Z-0.56
N6500 G1 X11.9477 Y2.1139 Z-0.5569
N6505 G1 X11.8914 Y2.103 Z-0.5512
N6510 G1 X11.7804 Y2.0909 Z-0.5397
N6515 G1 X11.7516 Y2.0912 Z-0.5361
N6520 G1 X11.6976 Y2.0962 Z-0.5345
N6525 G1 X11.6502 Y2.1019 Z-0.5352
N6530 G1 X11.6009 Y2.1102 Z-0.5394
N6535 G1 X11.5493 Y2.1224 Z-0.5488
N6540 G1 X11.4899 Y2.142 Z-0.5638
N6545 G1 X11.4359 Y2.1654 Z-0.5753
N6550 G1 X11.4094 Y2.1791 Z-0.5772
N6555 G1 X11.3789 Y2.1972 Z-0.5785
N6560 G1 X11.3301 Y2.2325 Z-0.5844
N6565 G1 X11.2762 Y2.277 Z-0.5878
N6570 G1 X11.2384 Y2.3123 Z-0.5939
N6575 G1 X11.2076 Y2.3444 Z-0.6043
N6580 G1 X11.1829 Y2.3723 Z-0.6171
N6585 G1 X11.1576 Y2.4137 Z-0.6123
N6590 G1 X11.1113 Y2.4969 Z-0.6122
N6595 G1 X11.0972 Y2.5257 Z-0.6167
N6600 G1 X11.0578 Y2.6165 Z-0.6351
N6605 G1 X11.033 Y2.6848 Z-0.6504
N6610 G1 X11.017 Y2.7406 Z-0.6656
N6615 G1 X11.002 Y2.8136 Z-0.6858
N6620 G1 X10.9938 Y2.8699 Z-0.7
N6625 G1 X10.9932 Y2.8807
N6630 G1 X10.9923 Y2.8957
N6635 G1 X10.9922 Y2.8969
N6640 G1 X10.9914 Y2.9119
N6645 G2 X10.9916 Y2.9345 I0.1873 J0.01
N6650 G1 X10.993 Y2.9553
N6655 G1 X10.9944 Y2.9761
N6660 G1 X10.9945 Y2.9779
N6665 G1 X10.9961 Y2.9986
N6670 G1 X10.9962 Y3.0005
N6675 G1 X10.998 Y3.0211
N6680 G1 X10.9984 Y3.0248
N6685 G1 X11.0006 Y3.0453
N6690 G1 X11.0009 Y3.0482
N6695 G1 X11.0034 Y3.0685
N6700 G1 X11.0039 Y3.0723
N6705 G1 X11.0068 Y3.0925
N6710 G1 X11.0077 Y3.0982
N6715 G1 X11.0112 Y3.1182
N6720 G1 X11.0123 Y3.1239
N6725 G1 X11.0164 Y3.1437
N6730 G1 X11.0178 Y3.1495
N6735 G1 X11.0225 Y3.169
N6740 G1 X11.0245 Y3.1767
N6745 G1 X11.03 Y3.1959
N6750 G1 X11.0326 Y3.2044
N6755 G1 X11.039 Y3.2233
N6760 G1 X11.0418 Y3.231
N6765 G1 X11.049 Y3.2496
N6770 G1 X11.0525 Y3.2579
N6775 G1 X11.0606 Y3.2762
N6780 G1 X11.064 Y3.2834
N6785 G1 X11.0681 Y3.2917
N6790 G2 X10.9626 Y3.3752 I0.0559 J0.1791
N6795 G1 X10.962 Y3.334
N6800 G1 X10.9626 Y3.2895
N6805 G1 X10.9634 Y3.2428
N6810 G1 X10.9645 Y3.1966
N6815 G1 X10.9658 Y3.1513
N6820 G1 X10.9678 Y3.1068
N6825 G1 X10.9704 Y3.0629
N6830 G1 X10.9737 Y3.02
N6835 G1 X10.9778 Y2.9777
N6840 G1 X10.9829 Y2.9364
N6845 G1 X10.9889 Y2.8964
N6850 G1 X10.9938 Y2.8699
N6855 G1 X10.9889 Y2.8964
N6860 G1 X10.9829 Y2.9364
N6865 G1 X10.9778 Y2.9777
N6870 G1 X10.9737 Y3.02
N6875 G1 X10.9704 Y3.0629
N6880 G1 X10.9678 Y3.1068
N6885 G1 X10.9658 Y3.1513
N6890 G1 X10.9645 Y3.1966
N6895 G1 X10.9634 Y3.2428
N6900 G1 X10.9626 Y3.2895
N6905 G1 X10.962 Y3.334
N6910 G1 X10.9626 Y3.3752
N6915 G1 X10.9602 Y3.3846 Z-0.6907
N6920 G1 X10.9517 Y3.4375 Z-0.655
N6925 G1 X10.9505 Y3.4745 Z-0.6475
N6930 G1 X10.9542 Y3.5924 Z-0.6446
N6935 G1 X10.9613 Y3.709 Z-0.6401
N6940 G1 X10.9712 Y3.801 Z-0.6365
N6945 G1 X10.9864 Y3.8946 Z-0.633
N6950 G1 X11.0036 Y3.971 Z-0.6295
N6955 G1 X11.0287 Y4.0581 Z-0.6201
N6960 G1 X11.0612 Y4.1523 Z-0.6012
N6965 G1 X11.0766 Y4.1923 Z-0.5919
N6970 G1 X11.0975 Y4.2368 Z-0.5906
N6975 G1 X11.1333 Y4.3078 Z-0.5882
N6980 G1 X11.165 Y4.3656 Z-0.5907
N6985 G1 X11.1958 Y4.4167 Z-0.5996
N6990 G1 X11.2117 Y4.4413 Z-0.6068
N6995 G1 X11.2464 Y4.4785 Z-0.5965
N7000 G1 X11.2929 Y4.5243 Z-0.5893
N7005 G1 X11.3558 Y4.5799 Z-0.5816
N7010 G1 X11.4054 Y4.6176 Z-0.5732
N7015 G1 X11.4431 Y4.64 Z-0.5718
N7020 G1 X11.4869 Y4.6621 Z-0.5637
N7025 G1 X11.5435 Y4.6843 Z-0.5488
N7030 G1 X11.5896 Y4.6977 Z-0.5392
N7035 G1 X11.6195 Y4.7043 Z-0.5348
N7040 G1 X11.669 Y4.7126 Z-0.5312
N7045 G1 X11.7437 Y4.7206 Z-0.5325
N7050 G1 X11.7799 Y4.7234 Z-0.5347
N7055 G1 X11.818 Y4.7226 Z-0.5425
N7060 G1 X11.8897 Y4.7157 Z-0.5488
N7065 G1 X11.9473 Y4.707 Z-0.5571
N7070 G1 X12.0067 Y4.6929 Z-0.5693
N7075 G1 X12.0514 Y4.6773 Z-0.5798
N7080 G1 X12.0994 Y4.6542 Z-0.59
N7085 G1 X12.1532 Y4.621 Z-0.6011
N7090 G1 X12.2205 Y4.5719 Z-0.6177
N7095 G1 X12.2485 Y4.5491 Z-0.6231
N7100 G1 X12.2648 Y4.5309 Z-0.6236
N7105 G1 X12.3143 Y4.4665 Z-0.6398
N7110 G1 X12.3445 Y4.4218 Z-0.6495
N7115 G1 X12.3701 Y4.3763 Z-0.6565
N7120 G1 X12.3886 Y4.3341 Z-0.6588
N7125 G1 X12.3952 Y4.3162 Z-0.6586
N7130 G1 X12.3419 Y4.237 Z-0.3796
N7135 G1 X12.2648 Y4.1293 Z-0.001
N7140 G1 X12.3419 Y4.237 Z-0.3796
N7145 G1 X12.3952 Y4.3162 Z-0.6586
N7150 G1 X12.4595 Y4.272 Z-0.4754
N7155 G1 X12.5606 Y4.1972 Z-0.1676
N7160 G1 X12.6141 Y4.1565 Z-0.0006
N7165 G0 Z5
N7170 G0 X8.7824 Y1.9945
N7175 G1 Z-0.0012 F952.5
N7180 G1 X8.9166 Y2.1818 Z-0.7 F1000
N7185 G1 X8.9906
N7190 G1 X9.0043 Y2.2213
N7195 G2 X8.8987 Y2.2344 I-0.0307 J0.185
N7200 G1 X8.9166 Y2.1818
N7205 G1 X8.8987 Y2.2344
N7210 G3 X9.0043 Y2.2213 I0.0749 J0.172
N7215 G1 X9.038 Y2.2532 Z-0.6201
N7220 G1 X9.066 Y2.287 Z-0.563
N7225 G1 X9.0882 Y2.3229 Z-0.5287
N7230 G1 X9.1046 Y2.3608 Z-0.5173
N7235 G1 X9.1758 Y2.5729 Z-0.5258
N7240 G1 X9.8198 Y4.438 Z-0.5385
N7245 G1 X9.8352 Y4.4744 Z-0.5487
N7250 G1 X9.8557 Y4.509 Z-0.579
N7255 G1 X9.8813 Y4.5419 Z-0.6295
N7260 G1 X9.912 Y4.573 Z-0.7
N7265 G1 X9.9453 Y4.6699
N7270 G1 X9.8117 Y4.8572 Z-0.0012
N7275 G1 X9.9453 Y4.6699 Z-0.7
N7280 G1 X10.1337
N7285 G1 X10.321 Y4.8572 Z-0.0012
N7290 G1 X10.1337 Y4.6699 Z-0.7
N7295 G1 Y4.4507
N7300 G3 X9.912 Y4.573 I-0.1777 J-0.0601
N7305 G2 X10.1337 Y4.4507 I0.0441 J-0.1823
N7310 G1 X10.1374 Y4.4207 Z-0.6862
N7315 G1 X10.1387 Y4.3907 Z-0.6816
N7320 G1 Y2.1768
N7325 G1 X9.9564 Y1.9945 Z-0.0012
N7330 G1 X10.1387 Y2.1768 Z-0.6816
N7335 G1 X10.321 Y1.9945 Z-0.0012
N7340 G0 Z5
N7345 G0 X8.9909 Y2.1813
N7350 G1 Z-0.6984 F952.5
N7355 G1 X9.1238 Y1.9945 Z-0.0012 F1000
N7360 G0 Z15
N7370 M9
N7375 G53 G0 Z0

M98 P1234 (call subroutine 1234)

N7380 G28
N7385 M30


(Subroutine 1234)
O1234:
G53 (machine coordinates)
G0 (go fast)
Z=#102 (safety height)
Y=#101
X=#100
G54 (workpiece coordinates)
M99 (End Subroutine 1234)

