%
(Thread test)
(M6, M8, 1/2-20 UNF)

(Tools)
(T3 D=2 CR=0 TAPER=30deg - ZMIN=-0.8 - NC-Anbohrer)
(T7 D=4 CR=0 - ZMIN=-12 - Gewindefraser)
(T8 D=8 CR=0 - ZMIN=-12 - Gewindefraser)
(T13 D=8 CR=0 TAPER=90deg - ZMIN=-2.5 - Konische Senkung)
(T18 D=10 CR=0 - ZMIN=-0.2 - Schaftfraser)
(T21 D=3 CR=0 - ZMIN=-12 - Schaftfraser)


(Initial section)
G54 (needed here so that offsets are being read)
#100=#900 (use x-offset of G54 for G53)
#101=0   (safe y for G53)
#102=0   (safe z for G53)
PRINT "x-offset = ";#100;"mm"
ASKBOOL "Continue with x-offset" I=2
IF #0=0 THEN
  ASKFLT "Enter x-offset" I=0.0 J=720.0
  #100=#0
  PRINT "x-offset = ";#100;"mm"
ENDIF

(Absolute coordinates and feedrate in mm/min)
N10 G90 G94
(Units in mm)
N15 G21
N20 G53 G0 Z0

(Uncomment to skip until specified label)
(Skip label must exist, than jump label is accepted)
(SKIP L0000)

(L0001:)

(Planen1)
M98 P1234 (call subroutine 1234)
N25 M9
N30 T18 M6
M98 P1234 (call subroutine 1234)
(Carbide End Mill 10mm)
N35 S5000 M3
N40 G54
N45 M9
N50 G17
N55 G0 X70.7041 Y-7.405
N60 G0 G43 Z18 H18
N65 G0 Z5
N70 G1 Z0.8 F1000
N75 G18 G3 X69.7041 Z-0.2 I-1 K0
N80 G1 X-19.7041 F800
N85 G1 X-20
N90 G17 G2 Y0.11 I0 J3.7575
N95 G1 X70
N100 G3 Y7.625 I0 J3.7575
N105 G1 X-20
N110 G2 Y15.14 I0 J3.7575
N115 G1 X70
N120 G3 Y22.655 I0 J3.7575
N125 G1 X-20
N130 G2 Y30.17 I0 J3.7575
N135 G1 X-19.9947
N140 G1 X69.9947
N145 G18 G2 X70.9947 Z0.8 I0 K1 F1000
N150 G0 Z18
N155 G17
N160 M5
N165 G53 G0 Z0

(Uncomment to skip until specified label)
(Skip label must exist, than jump label is accepted)
(SKIP L0000)

(L0002:)

(Hole M6)
M98 P1234 (call subroutine 1234)
N170 M9
N175 T21 M6
M98 P1234 (call subroutine 1234)
(3.0mm ALU 2-Flute)
N180 S30000 M3
N185 G54
N190 M9
N200 G0 X10 Y12.5
N205 G0 G43 Z18 H21
N210 G0 Z2
N215 G1 Z0 F1440
N220 G1 X10.6 Y12.2
N225 G3 X10.9 Y12.5 I0 J0.3
N230 G3 X9.1 Z-0.5 I-0.9 J0
N235 G3 X10.9 Z-1 I0.9 J0
N240 G3 X9.1 Z-1.5 I-0.9 J0
N245 G3 X10.9 Z-2 I0.9 J0
N250 G3 X9.1 Z-2.5 I-0.9 J0
N255 G3 X10.9 Z-3 I0.9 J0
N260 G3 X9.1 Z-3.5 I-0.9 J0
N265 G3 X10.9 Z-4 I0.9 J0
N270 G3 X9.1 Z-4.5 I-0.9 J0
N275 G3 X10.9 Z-5 I0.9 J0
N280 G3 X9.1 Z-5.5 I-0.9 J0
N285 G3 X10.9 Z-6 I0.9 J0
N290 G3 X9.1 Z-6.5 I-0.9 J0
N295 G3 X10.9 Z-7 I0.9 J0
N300 G3 X9.1 Z-7.5 I-0.9 J0
N305 G3 X10.9 Z-8 I0.9 J0
N310 G3 X9.1 Z-8.5 I-0.9 J0
N315 G3 X10.9 Z-9 I0.9 J0
N320 G3 X9.1 Z-9.5 I-0.9 J0
N325 G3 X10.9 Z-10 I0.9 J0
N330 G3 X9.1 Z-10.5 I-0.9 J0
N335 G3 X10.9 Z-11 I0.9 J0
N340 G3 X9.1 Z-11.5 I-0.9 J0
N345 G3 X10.9 Z-12 I0.9 J0
N350 G3 X9.1 I-0.9 J0
N355 G3 X10.9 I0.9 J0
N360 G3 X10.6 Y12.8 I-0.3 J0
N365 G1 X10 Y12.5
N370 G0 Z8
N375 G0 X10.25 Y12.2
N380 G0 Z-10
N385 G1 Z-11.7 F1440
N390 G18 G2 X10.55 Z-12 I0.3 K0
N395 G1 X10.7
N400 G17 G3 X11 Y12.5 I0 J0.3
N405 G3 X9 I-1 J0
N410 G3 X11 I1 J0
N415 G3 X10.7 Y12.8 I-0.3 J0
N420 G1 X10.55
N425 G18 G3 X10.25 Z-11.7 I0 K0.3
N430 G0 Z8
N435 G0 Y12.2
N440 G0 Z-10
N445 G1 Z-11.7 F1440
N450 G2 X10.55 Z-12 I0.3 K0
N455 G1 X10.7
N460 G17 G3 X11 Y12.5 I0 J0.3
N465 G3 X9 I-1 J0
N470 G3 X11 I1 J0
N475 G3 X10.7 Y12.8 I-0.3 J0
N480 G1 X10.55
N485 G18 G3 X10.25 Z-11.7 I0 K0.3
N490 G0 Z18
N495 G17

(Uncomment to skip until specified label)
(Skip label must exist, than jump label is accepted)
(SKIP L0000)

(L0003:)

(Hole M8)
N500 M9
N505 G0 X40 Y12.5
N510 G0 Z18
N515 G0 Z2
N520 G1 Z0 F1440
N525 G1 X40.2 Y12.3
N530 G3 X40.4 Y12.5 I0 J0.2
N535 G3 X39.6 Z-0.5 I-0.4 J0
N540 G3 X40.4 Z-1 I0.4 J0
N545 G3 X39.6 Z-1.5 I-0.4 J0
N550 G3 X40.4 Z-2 I0.4 J0
N555 G3 X39.6 Z-2.5 I-0.4 J0
N560 G3 X40.4 Z-3 I0.4 J0
N565 G3 X39.6 Z-3.5 I-0.4 J0
N570 G3 X40.4 Z-4 I0.4 J0
N575 G3 X39.6 Z-4.5 I-0.4 J0
N580 G3 X40.4 Z-5 I0.4 J0
N585 G3 X39.6 Z-5.5 I-0.4 J0
N590 G3 X40.4 Z-6 I0.4 J0
N595 G3 X39.6 Z-6.5 I-0.4 J0
N600 G3 X40.4 Z-7 I0.4 J0
N605 G3 X39.6 Z-7.5 I-0.4 J0
N610 G3 X40.4 Z-8 I0.4 J0
N615 G3 X39.6 Z-8.5 I-0.4 J0
N620 G3 X40.4 Z-9 I0.4 J0
N625 G3 X39.6 Z-9.5 I-0.4 J0
N630 G3 X40.4 Z-10 I0.4 J0
N635 G3 X39.6 Z-10.5 I-0.4 J0
N640 G3 X40.4 Z-11 I0.4 J0
N645 G3 X39.6 Z-11.5 I-0.4 J0
N650 G3 X40.4 Z-12 I0.4 J0
N655 G3 X39.6 I-0.4 J0
N660 G3 X40.4 I0.4 J0
N665 G3 X40.2 Y12.7 I-0.2 J0
N670 G1 X40 Y12.5
N675 G0 Z8
N680 G0 Z2
N685 G1 Z0 F1440
N690 G1 X41.5 Y12.2
N695 G3 X41.8 Y12.5 I0 J0.3
N700 G3 X38.2 Z-0.5 I-1.8 J0
N705 G3 X41.8 Z-1 I1.8 J0
N710 G3 X38.2 Z-1.5 I-1.8 J0
N715 G3 X41.8 Z-2 I1.8 J0
N720 G3 X38.2 Z-2.5 I-1.8 J0
N725 G3 X41.8 Z-3 I1.8 J0
N730 G3 X38.2 Z-3.5 I-1.8 J0
N735 G3 X41.8 Z-4 I1.8 J0
N740 G3 X38.2 Z-4.5 I-1.8 J0
N745 G3 X41.8 Z-5 I1.8 J0
N750 G3 X38.2 Z-5.5 I-1.8 J0
N755 G3 X41.8 Z-6 I1.8 J0
N760 G3 X38.2 Z-6.5 I-1.8 J0
N765 G3 X41.8 Z-7 I1.8 J0
N770 G3 X38.2 Z-7.5 I-1.8 J0
N775 G3 X41.8 Z-8 I1.8 J0
N780 G3 X38.2 Z-8.5 I-1.8 J0
N785 G3 X41.8 Z-9 I1.8 J0
N790 G3 X38.2 Z-9.5 I-1.8 J0
N795 G3 X41.8 Z-10 I1.8 J0
N800 G3 X38.2 Z-10.5 I-1.8 J0
N805 G3 X41.8 Z-11 I1.8 J0
N810 G3 X38.2 Z-11.5 I-1.8 J0
N815 G3 X41.8 Z-12 I1.8 J0
N820 G3 X38.2 I-1.8 J0
N825 G3 X41.8 I1.8 J0
N830 G3 X41.5 Y12.8 I-0.3 J0
N835 G1 X40 Y12.5
N840 G0 Z8
N845 G0 X41.15 Y12.2
N850 G0 Z-10
N855 G1 Z-11.7 F1440
N860 G18 G2 X41.45 Z-12 I0.3 K0
N865 G1 X41.6
N870 G17 G3 X41.9 Y12.5 I0 J0.3
N875 G3 X38.1 I-1.9 J0
N880 G3 X41.9 I1.9 J0
N885 G3 X41.6 Y12.8 I-0.3 J0
N890 G1 X41.45
N895 G18 G3 X41.15 Z-11.7 I0 K0.3
N900 G0 Z8
N905 G0 Y12.2
N910 G0 Z-10
N915 G1 Z-11.7 F1440
N920 G2 X41.45 Z-12 I0.3 K0
N925 G1 X41.6
N930 G17 G3 X41.9 Y12.5 I0 J0.3
N935 G3 X38.1 I-1.9 J0
N940 G3 X41.9 I1.9 J0
N945 G3 X41.6 Y12.8 I-0.3 J0
N950 G1 X41.45
N955 G18 G3 X41.15 Z-11.7 I0 K0.3
N960 G0 Z18
N965 G17

(Uncomment to skip until specified label)
(Skip label must exist, than jump label is accepted)
(SKIP L0000)

(L0004:)

(Hole 1/2-20 UNF)
N970 M9
N975 G0 X25 Y12.5
N980 G0 Z18
N985 G0 Z2
N990 G1 Z0 F1440
N995 G1 X26.85 Y12.2
N1000 G3 X27.15 Y12.5 I0 J0.3
N1005 G3 X22.85 Z-0.5 I-2.15 J0
N1010 G3 X27.15 Z-1 I2.15 J0
N1015 G3 X22.85 Z-1.5 I-2.15 J0
N1020 G3 X27.15 Z-2 I2.15 J0
N1025 G3 X22.85 Z-2.5 I-2.15 J0
N1030 G3 X27.15 Z-3 I2.15 J0
N1035 G3 X22.85 Z-3.5 I-2.15 J0
N1040 G3 X27.15 Z-4 I2.15 J0
N1045 G3 X22.85 Z-4.5 I-2.15 J0
N1050 G3 X27.15 Z-5 I2.15 J0
N1055 G3 X22.85 Z-5.5 I-2.15 J0
N1060 G3 X27.15 Z-6 I2.15 J0
N1065 G3 X22.85 Z-6.5 I-2.15 J0
N1070 G3 X27.15 Z-7 I2.15 J0
N1075 G3 X22.85 Z-7.5 I-2.15 J0
N1080 G3 X27.15 Z-8 I2.15 J0
N1085 G3 X22.85 Z-8.5 I-2.15 J0
N1090 G3 X27.15 Z-9 I2.15 J0
N1095 G3 X22.85 Z-9.5 I-2.15 J0
N1100 G3 X27.15 Z-10 I2.15 J0
N1105 G3 X22.85 Z-10.5 I-2.15 J0
N1110 G3 X27.15 Z-11 I2.15 J0
N1115 G3 X22.85 Z-11.5 I-2.15 J0
N1120 G3 X27.15 Z-12 I2.15 J0
N1125 G3 X22.85 I-2.15 J0
N1130 G3 X27.15 I2.15 J0
N1135 G3 X26.85 Y12.8 I-0.3 J0
N1140 G1 X25 Y12.5
N1145 G0 Z8
N1150 G0 Z2
N1155 G1 Z0 F1440
N1160 G1 X27.85 Y12.2
N1165 G3 X28.15 Y12.5 I0 J0.3
N1170 G3 X21.85 Z-0.5 I-3.15 J0
N1175 G3 X28.15 Z-1 I3.15 J0
N1180 G3 X21.85 Z-1.5 I-3.15 J0
N1185 G3 X28.15 Z-2 I3.15 J0
N1190 G3 X21.85 Z-2.5 I-3.15 J0
N1195 G3 X28.15 Z-3 I3.15 J0
N1200 G3 X21.85 Z-3.5 I-3.15 J0
N1205 G3 X28.15 Z-4 I3.15 J0
N1210 G3 X21.85 Z-4.5 I-3.15 J0
N1215 G3 X28.15 Z-5 I3.15 J0
N1220 G3 X21.85 Z-5.5 I-3.15 J0
N1225 G3 X28.15 Z-6 I3.15 J0
N1230 G3 X21.85 Z-6.5 I-3.15 J0
N1235 G3 X28.15 Z-7 I3.15 J0
N1240 G3 X21.85 Z-7.5 I-3.15 J0
N1245 G3 X28.15 Z-8 I3.15 J0
N1250 G3 X21.85 Z-8.5 I-3.15 J0
N1255 G3 X28.15 Z-9 I3.15 J0
N1260 G3 X21.85 Z-9.5 I-3.15 J0
N1265 G3 X28.15 Z-10 I3.15 J0
N1270 G3 X21.85 Z-10.5 I-3.15 J0
N1275 G3 X28.15 Z-11 I3.15 J0
N1280 G3 X21.85 Z-11.5 I-3.15 J0
N1285 G3 X28.15 Z-12 I3.15 J0
N1290 G3 X21.85 I-3.15 J0
N1295 G3 X28.15 I3.15 J0
N1300 G3 X27.85 Y12.8 I-0.3 J0
N1305 G1 X25 Y12.5
N1310 G0 Z8
N1315 G0 Z2
N1320 G1 Z0 F1440
N1325 G1 X28.85 Y12.2
N1330 G3 X29.15 Y12.5 I0 J0.3
N1335 G3 X20.85 Z-0.5 I-4.15 J0
N1340 G3 X29.15 Z-1 I4.15 J0
N1345 G3 X20.85 Z-1.5 I-4.15 J0
N1350 G3 X29.15 Z-2 I4.15 J0
N1355 G3 X20.85 Z-2.5 I-4.15 J0
N1360 G3 X29.15 Z-3 I4.15 J0
N1365 G3 X20.85 Z-3.5 I-4.15 J0
N1370 G3 X29.15 Z-4 I4.15 J0
N1375 G3 X20.85 Z-4.5 I-4.15 J0
N1380 G3 X29.15 Z-5 I4.15 J0
N1385 G3 X20.85 Z-5.5 I-4.15 J0
N1390 G3 X29.15 Z-6 I4.15 J0
N1395 G3 X20.85 Z-6.5 I-4.15 J0
N1400 G3 X29.15 Z-7 I4.15 J0
N1405 G3 X20.85 Z-7.5 I-4.15 J0
N1410 G3 X29.15 Z-8 I4.15 J0
N1415 G3 X20.85 Z-8.5 I-4.15 J0
N1420 G3 X29.15 Z-9 I4.15 J0
N1425 G3 X20.85 Z-9.5 I-4.15 J0
N1430 G3 X29.15 Z-10 I4.15 J0
N1435 G3 X20.85 Z-10.5 I-4.15 J0
N1440 G3 X29.15 Z-11 I4.15 J0
N1445 G3 X20.85 Z-11.5 I-4.15 J0
N1450 G3 X29.15 Z-12 I4.15 J0
N1455 G3 X20.85 I-4.15 J0
N1460 G3 X29.15 I4.15 J0
N1465 G3 X28.85 Y12.8 I-0.3 J0
N1470 G1 X25 Y12.5
N1475 G0 Z8
N1480 G0 X28.5 Y12.2
N1485 G0 Z-10
N1490 G1 Z-11.7 F1440
N1495 G18 G2 X28.8 Z-12 I0.3 K0
N1500 G1 X28.95
N1505 G17 G3 X29.25 Y12.5 I0 J0.3
N1510 G3 X20.75 I-4.25 J0
N1515 G3 X29.25 I4.25 J0
N1520 G3 X28.95 Y12.8 I-0.3 J0
N1525 G1 X28.8
N1530 G18 G3 X28.5 Z-11.7 I0 K0.3
N1535 G0 Z8
N1540 G0 Y12.2
N1545 G0 Z-10
N1550 G1 Z-11.7 F1440
N1555 G2 X28.8 Z-12 I0.3 K0
N1560 G1 X28.95
N1565 G17 G3 X29.25 Y12.5 I0 J0.3
N1570 G3 X20.75 I-4.25 J0
N1575 G3 X29.25 I4.25 J0
N1580 G3 X28.95 Y12.8 I-0.3 J0
N1585 G1 X28.8
N1590 G18 G3 X28.5 Z-11.7 I0 K0.3
N1595 G0 Z18
N1600 G17
N1605 M5
N1610 G53 G0 Z0

(Uncomment to skip until specified label)
(Skip label must exist, than jump label is accepted)
(SKIP L0000)

(L0005:)

(Chamfer)
M98 P1234 (call subroutine 1234)
N1615 M9
N1620 T13 M6
M98 P1234 (call subroutine 1234)
N1625 S5000 M3
N1630 G54
N1635 M9
N1645 G0 X27.95 Y12.5
N1650 G0 G43 Z15 H13
N1655 G0 Z5
N1660 G1 Z-2.5 F333.3
N1665 G1 X28.75 F1000
N1670 G3 X21.25 I-3.75 J0
N1675 G3 X28.75 I3.75 J0
N1680 G3 X27.6126 Y15.1901 I-3.75 J0
N1685 G1 X27.0553 Y14.6162
N1690 G0 Z5
N1695 G0 X40.6 Y12.5
N1700 G1 Z-2.5 F333.3
N1705 G1 X41.4 F1000
N1710 G3 X38.6 I-1.4 J0
N1715 G3 X41.4 I1.4 J0
N1720 G3 X39.2421 Y13.6771 I-1.4 J0
N1725 G1 X39.6752 Y13.0045
N1730 G0 Z15

(Uncomment to skip until specified label)
(Skip label must exist, than jump label is accepted)
(SKIP L0000)

(L0006:)

(Bohren1)
N1740 M9
N1745 G0 X10 Y12.5
N1750 G0 Z15
N1760 G0 Z5
N1765 G81 Z-2.5 R5 F333.3
N1770 G80
N1775 G0 X10 Y12.5 Z15
N1785 M5
N1790 G53 G0 Z0

(Uncomment to skip until specified label)
(Skip label must exist, than jump label is accepted)
(SKIP L0000)

(L0007:)

(Thread 1/2-20 UNF)
M98 P1234 (call subroutine 1234)
N1795 M9
N1800 T8 M6
M98 P1234 (call subroutine 1234)
(Gewindewirbler M10 - M16)
N1805 S10000 M3
N1810 G54
N1815 M9
N1825 G0 X25 Y12.5
N1830 G0 G43 Z15 H0
N1835 G0 Z-10
N1840 G1 Z-12 F120
N1845 G1 X25.78 Y11.72
N1850 G3 X26.56 Y12.5 I0 J0.78
N1855 G3 X23.44 Z-11.365 I-1.56 J0 F500
N1860 G3 X26.56 Z-10.73 I1.56 J0
N1865 G3 X23.44 Z-10.095 I-1.56 J0
N1870 G3 X26.56 Z-9.46 I1.56 J0
N1875 G3 X23.44 Z-8.825 I-1.56 J0
N1880 G3 X26.56 Z-8.19 I1.56 J0
N1885 G3 X23.44 Z-7.555 I-1.56 J0
N1890 G3 X26.56 Z-6.92 I1.56 J0
N1895 G3 X23.44 Z-6.285 I-1.56 J0
N1900 G3 X26.56 Z-5.65 I1.56 J0
N1905 G3 X23.44 Z-5.015 I-1.56 J0
N1910 G3 X26.56 Z-4.38 I1.56 J0
N1915 G3 X23.44 Z-3.745 I-1.56 J0
N1920 G3 X26.56 Z-3.11 I1.56 J0
N1925 G3 X23.44 Z-2.475 I-1.56 J0
N1930 G3 X26.56 Z-1.84 I1.56 J0
N1935 G3 X23.44 Z-1.205 I-1.56 J0
N1940 G3 X26.56 Z-0.57 I1.56 J0
N1945 G3 X23.52 Y12.9931 Z0 I-1.56 J0
N1950 G3 X24.0135 Y12.0065 I0.74 J-0.2465 F120
N1955 G1 X25 Y12.5
N1960 G0 Z5
N1965 G0 Z-10
N1970 G1 Z-12 F120
N1975 G1 X26.76 Y11.7
N1980 G3 X27.56 Y12.5 I0 J0.8
N1985 G3 X22.44 Z-11.365 I-2.56 J0 F500
N1990 G3 X27.56 Z-10.73 I2.56 J0
N1995 G3 X22.44 Z-10.095 I-2.56 J0
N2000 G3 X27.56 Z-9.46 I2.56 J0
N2005 G3 X22.44 Z-8.825 I-2.56 J0
N2010 G3 X27.56 Z-8.19 I2.56 J0
N2015 G3 X22.44 Z-7.555 I-2.56 J0
N2020 G3 X27.56 Z-6.92 I2.56 J0
N2025 G3 X22.44 Z-6.285 I-2.56 J0
N2030 G3 X27.56 Z-5.65 I2.56 J0
N2035 G3 X22.44 Z-5.015 I-2.56 J0
N2040 G3 X27.56 Z-4.38 I2.56 J0
N2045 G3 X22.44 Z-3.745 I-2.56 J0
N2050 G3 X27.56 Z-3.11 I2.56 J0
N2055 G3 X22.44 Z-2.475 I-2.56 J0
N2060 G3 X27.56 Z-1.84 I2.56 J0
N2065 G3 X22.44 Z-1.205 I-2.56 J0
N2070 G3 X27.56 Z-0.57 I2.56 J0
N2075 G3 X22.5712 Y13.3091 Z0 I-2.56 J0
N2080 G3 X23.0774 Y12.2973 I0.759 J-0.2529 F120
N2085 G1 X25 Y12.5
N2090 G0 Z5
N2095 G0 Z-10
N2100 G1 Z-12 F120
N2105 G1 X26.76 Y11.7
N2110 G3 X27.56 Y12.5 I0 J0.8
N2115 G3 X22.44 Z-11.365 I-2.56 J0 F500
N2120 G3 X27.56 Z-10.73 I2.56 J0
N2125 G3 X22.44 Z-10.095 I-2.56 J0
N2130 G3 X27.56 Z-9.46 I2.56 J0
N2135 G3 X22.44 Z-8.825 I-2.56 J0
N2140 G3 X27.56 Z-8.19 I2.56 J0
N2145 G3 X22.44 Z-7.555 I-2.56 J0
N2150 G3 X27.56 Z-6.92 I2.56 J0
N2155 G3 X22.44 Z-6.285 I-2.56 J0
N2160 G3 X27.56 Z-5.65 I2.56 J0
N2165 G3 X22.44 Z-5.015 I-2.56 J0
N2170 G3 X27.56 Z-4.38 I2.56 J0
N2175 G3 X22.44 Z-3.745 I-2.56 J0
N2180 G3 X27.56 Z-3.11 I2.56 J0
N2185 G3 X22.44 Z-2.475 I-2.56 J0
N2190 G3 X27.56 Z-1.84 I2.56 J0
N2195 G3 X22.44 Z-1.205 I-2.56 J0
N2200 G3 X27.56 Z-0.57 I2.56 J0
N2205 G3 X22.5712 Y13.3091 Z0 I-2.56 J0
N2210 G3 X23.0774 Y12.2973 I0.759 J-0.2529 F120
N2215 G1 X25 Y12.5
N2220 G0 Z15
N2230 M5
N2235 G53 G0 Z0

(Uncomment to skip until specified label)
(Skip label must exist, than jump label is accepted)
(SKIP L0000)

(L0008:)

(Thread M8)
M98 P1234 (call subroutine 1234)
N2240 M9
N2245 T7 M6
M98 P1234 (call subroutine 1234)
(Gewindewirbler M5 - M10)
N2250 S14000 M3
N2255 G54
N2260 M9
N2270 G0 X40 Y12.5
N2275 G0 G43 Z15 H7
N2280 G0 Z-10
N2285 G1 Z-12 F120
N2290 G1 X41.79 Y12.1
N2295 G3 X42.19 Y12.5 I0 J0.4
N2300 G3 X37.81 Z-11.375 I-2.19 J0 F250
N2305 G3 X42.19 Z-10.75 I2.19 J0
N2310 G3 X37.81 Z-10.125 I-2.19 J0
N2315 G3 X42.19 Z-9.5 I2.19 J0
N2320 G3 X37.81 Z-8.875 I-2.19 J0
N2325 G3 X42.19 Z-8.25 I2.19 J0
N2330 G3 X37.81 Z-7.625 I-2.19 J0
N2335 G3 X42.19 Z-7 I2.19 J0
N2340 G3 X37.81 Z-6.375 I-2.19 J0
N2345 G3 X42.19 Z-5.75 I2.19 J0
N2350 G3 X37.81 Z-5.125 I-2.19 J0
N2355 G3 X42.19 Z-4.5 I2.19 J0
N2360 G3 X37.81 Z-3.875 I-2.19 J0
N2365 G3 X42.19 Z-3.25 I2.19 J0
N2370 G3 X37.81 Z-2.625 I-2.19 J0
N2375 G3 X42.19 Z-2 I2.19 J0
N2380 G3 X37.81 Z-1.375 I-2.19 J0
N2385 G3 X42.19 Z-0.75 I2.19 J0
N2390 G3 X37.81 Z-0.125 I-2.19 J0
N2395 G3 X38.2283 Y11.2128 Z0 I2.19 J0
N2400 G3 X38.787 Y11.1243 I0.3236 J0.2351 F120
N2405 G1 X40 Y12.5
N2410 G0 Z5
N2415 G0 Z-10
N2420 G1 Z-12 F120
N2425 G1 X41.79 Y12.1
N2430 G3 X42.19 Y12.5 I0 J0.4
N2435 G3 X37.81 Z-11.375 I-2.19 J0 F250
N2440 G3 X42.19 Z-10.75 I2.19 J0
N2445 G3 X37.81 Z-10.125 I-2.19 J0
N2450 G3 X42.19 Z-9.5 I2.19 J0
N2455 G3 X37.81 Z-8.875 I-2.19 J0
N2460 G3 X42.19 Z-8.25 I2.19 J0
N2465 G3 X37.81 Z-7.625 I-2.19 J0
N2470 G3 X42.19 Z-7 I2.19 J0
N2475 G3 X37.81 Z-6.375 I-2.19 J0
N2480 G3 X42.19 Z-5.75 I2.19 J0
N2485 G3 X37.81 Z-5.125 I-2.19 J0
N2490 G3 X42.19 Z-4.5 I2.19 J0
N2495 G3 X37.81 Z-3.875 I-2.19 J0
N2500 G3 X42.19 Z-3.25 I2.19 J0
N2505 G3 X37.81 Z-2.625 I-2.19 J0
N2510 G3 X42.19 Z-2 I2.19 J0
N2515 G3 X37.81 Z-1.375 I-2.19 J0
N2520 G3 X42.19 Z-0.75 I2.19 J0
N2525 G3 X37.81 Z-0.125 I-2.19 J0
N2530 G3 X38.2283 Y11.2128 Z0 I2.19 J0
N2535 G3 X38.787 Y11.1243 I0.3236 J0.2351 F120
N2540 G1 X40 Y12.5
N2545 G0 Z15

(Uncomment to skip until specified label)
(Skip label must exist, than jump label is accepted)
(SKIP L0000)

(L0009:)

(Thread M6)
N2555 M9
N2560 G0 X10 Y12.5
N2565 G0 Z15
N2570 G0 Z-10
N2575 G1 Z-12 F120
N2580 G1 X10.74 Y12.1
N2585 G3 X11.14 Y12.5 I0 J0.4
N2590 G3 X8.86 Z-11.5 I-1.14 J0 F250
N2595 G3 X11.14 Z-11 I1.14 J0
N2600 G3 X8.86 Z-10.5 I-1.14 J0
N2605 G3 X11.14 Z-10 I1.14 J0
N2610 G3 X8.86 Z-9.5 I-1.14 J0
N2615 G3 X11.14 Z-9 I1.14 J0
N2620 G3 X8.86 Z-8.5 I-1.14 J0
N2625 G3 X11.14 Z-8 I1.14 J0
N2630 G3 X8.86 Z-7.5 I-1.14 J0
N2635 G3 X11.14 Z-7 I1.14 J0
N2640 G3 X8.86 Z-6.5 I-1.14 J0
N2645 G3 X11.14 Z-6 I1.14 J0
N2650 G3 X8.86 Z-5.5 I-1.14 J0
N2655 G3 X11.14 Z-5 I1.14 J0
N2660 G3 X8.86 Z-4.5 I-1.14 J0
N2665 G3 X11.14 Z-4 I1.14 J0
N2670 G3 X8.86 Z-3.5 I-1.14 J0
N2675 G3 X11.14 Z-3 I1.14 J0
N2680 G3 X8.86 Z-2.5 I-1.14 J0
N2685 G3 X11.14 Z-2 I1.14 J0
N2690 G3 X8.86 Z-1.5 I-1.14 J0
N2695 G3 X11.14 Z-1 I1.14 J0
N2700 G3 X8.86 Z-0.5 I-1.14 J0
N2705 G3 X11.14 Z0 I1.14 J0
N2710 G3 X10.74 Y12.9 I-0.4 J0 F120
N2715 G1 X10 Y12.5
N2720 G0 Z5
N2725 G0 Z-10
N2730 G1 Z-12 F120
N2735 G1 X10.74 Y12.1
N2740 G3 X11.14 Y12.5 I0 J0.4
N2745 G3 X8.86 Z-11.5 I-1.14 J0 F250
N2750 G3 X11.14 Z-11 I1.14 J0
N2755 G3 X8.86 Z-10.5 I-1.14 J0
N2760 G3 X11.14 Z-10 I1.14 J0
N2765 G3 X8.86 Z-9.5 I-1.14 J0
N2770 G3 X11.14 Z-9 I1.14 J0
N2775 G3 X8.86 Z-8.5 I-1.14 J0
N2780 G3 X11.14 Z-8 I1.14 J0
N2785 G3 X8.86 Z-7.5 I-1.14 J0
N2790 G3 X11.14 Z-7 I1.14 J0
N2795 G3 X8.86 Z-6.5 I-1.14 J0
N2800 G3 X11.14 Z-6 I1.14 J0
N2805 G3 X8.86 Z-5.5 I-1.14 J0
N2810 G3 X11.14 Z-5 I1.14 J0
N2815 G3 X8.86 Z-4.5 I-1.14 J0
N2820 G3 X11.14 Z-4 I1.14 J0
N2825 G3 X8.86 Z-3.5 I-1.14 J0
N2830 G3 X11.14 Z-3 I1.14 J0
N2835 G3 X8.86 Z-2.5 I-1.14 J0
N2840 G3 X11.14 Z-2 I1.14 J0
N2845 G3 X8.86 Z-1.5 I-1.14 J0
N2850 G3 X11.14 Z-1 I1.14 J0
N2855 G3 X8.86 Z-0.5 I-1.14 J0
N2860 G3 X11.14 Z0 I1.14 J0
N2865 G3 X10.74 Y12.9 I-0.4 J0 F120
N2870 G1 X10 Y12.5
N2875 G0 Z15
N2885 M5
N2890 G53 G0 Z0

(Uncomment to skip until specified label)
(Skip label must exist, than jump label is accepted)
(SKIP L0000)

(L0010:)

(Engrave Text)
M98 P1234 (call subroutine 1234)
N2895 M9
N2900 T3 M6
M98 P1234 (call subroutine 1234)
(Gravierstichel 30?)
N2905 S15000 M3
N2910 G54
N2915 M9
N2925 G0 X5.6558 Y2.0691
N2930 G0 G43 Z15 H3
N2935 G0 Z5
N2940 G1 Z-0.0012 F952.5
N2945 G1 X5.8381 Y2.2514 Z-0.6815 F1000
N2950 G1 X6.0204 Y2.0691 Z-0.0012
N2955 G1 X5.8381 Y2.2514 Z-0.6815
N2960 G1 Y4.5063
N2965 G1 X5.8416 Y4.5571 Z-0.6947
N2970 G1 X5.8522 Y4.6078 Z-0.7342
N2975 G1 X5.8698 Y4.6586 Z-0.8
N2980 G1 Y4.7178
N2985 G1 X5.6558 Y4.9318 Z-0.0012
N2990 G1 X5.8698 Y4.7178 Z-0.8
N2995 G1 X5.9853
N3000 G3 X5.8698 Y4.6586 I0.0354 J-0.2114
N3005 G2 X5.9853 Y4.7178 I0.1509 J-0.1523
N3010 G1 X6.0207 Y4.7192 Z-0.7945
N3015 G1 X6.0561 Y4.7178 Z-0.8
N3020 G1 X6.0714
N3025 G1 X6.2256 Y4.9318 Z-0.0012
N3030 G1 X6.0714 Y4.7178 Z-0.8
N3035 G1 X6.0726 Y4.7143
N3040 G3 X6.0561 Y4.7178 I-0.0519 J-0.208
N3045 G2 X6.0726 Y4.7143 I-0.0354 J-0.2114
N3050 G1 X6.1073 Y4.6785 Z-0.7193
N3055 G1 X6.1363 Y4.6407 Z-0.6615
N3060 G1 X6.1594 Y4.601 Z-0.6267
N3065 G1 X6.1767 Y4.5593 Z-0.6148
N3070 G1 X6.8273 Y2.6268 Z-0.5937
N3075 G1 X6.8917 Y2.4305 Z-0.5856
N3080 G1 X6.9091 Y2.389 Z-0.5975
N3085 G1 X6.9327 Y2.3496 Z-0.6334
N3090 G1 X6.9623 Y2.3123 Z-0.6933
N3095 G1 X6.998 Y2.2771 Z-0.7771
N3100 G1 X6.849 Y2.0691 Z-0.0012
N3105 G1 X6.998 Y2.2771 Z-0.7771
N3110 G1 X7.0402 Y2.2749 Z-0.769
N3115 G1 X7.044 Z-0.7691
N3120 G1 X7.1904 Y2.0691 Z-0.0012
N3125 G1 X7.044 Y2.2749 Z-0.7691
N3130 G1 X7.0797 Y2.3035 Z-0.6784
N3135 G1 X7.1102 Y2.3338 Z-0.608
N3140 G1 X7.1356 Y2.3659 Z-0.5576
N3145 G1 X7.1559 Y2.3998 Z-0.5274
N3150 G1 X7.1712 Y2.4355 Z-0.5173
N3155 G1 X7.1786 Y2.4576 Z-0.5183
N3160 G1 X7.2488 Y2.6664 Z-0.5262
N3165 G1 X7.8864 Y4.5126 Z-0.5385
N3170 G1 X7.9021 Y4.5497 Z-0.5491
N3175 G1 X7.9231 Y4.5849 Z-0.5805
N3180 G1 X7.9495 Y4.6183 Z-0.6329
N3185 G1 X7.9811 Y4.6499 Z-0.706
N3190 G1 X8.0179 Y4.6796 Z-0.8
N3195 G1 X8.0311 Y4.7178
N3200 G1 X7.8783 Y4.9318 Z-0.0012
N3205 G1 X8.0311 Y4.7178 Z-0.8
N3210 G1 X8.1735
N3215 G1 X8.3876 Y4.9318 Z-0.0012
N3220 G1 X8.1735 Y4.7178 Z-0.8
N3225 G1 Y4.6176
N3230 G3 X8.0179 Y4.6796 I-0.1509 J-0.1523
N3235 G2 X8.1735 Y4.6176 I0.0047 J-0.2143
N3240 G1 X8.1912 Y4.5668 Z-0.7342
N3245 G1 X8.2017 Y4.5161 Z-0.6947
N3250 G1 X8.2053 Y4.4653 Z-0.6815
N3255 G1 Y2.2515
N3260 G1 X8.3876 Y2.0691 Z-0.0012
N3265 G1 X8.2053 Y2.2515 Z-0.6815
N3270 G1 X8.023 Y2.0691 Z-0.0012
N3275 G0 Z5
N3280 G0 X24.489 Y3.1881
N3285 G1 Z-0.6635 F952.5
N3290 G1 X24.4888 Y3.1911 Z-0.6636 F1000
N3295 G1 X24.4844 Y3.3311 Z-0.6684
N3300 G1 X24.4838 Y3.5229 Z-0.6728
N3305 G1 X24.4875 Y3.7136 Z-0.6665
N3310 G1 X24.4955 Y3.8416 Z-0.6613
N3315 G1 X24.5061 Y3.9346 Z-0.656
N3320 G1 X24.5218 Y4.028 Z-0.6502
N3325 G1 X24.5373 Y4.1008 Z-0.648
N3330 G1 X24.5602 Y4.1904 Z-0.6519
N3335 G1 X24.5804 Y4.2571 Z-0.6573
N3340 G1 X24.6192 Y4.357 Z-0.6508
N3345 G1 X24.6377 Y4.3997 Z-0.6463
N3350 G1 X24.6627 Y4.4522 Z-0.6357
N3355 G1 X24.6795 Y4.4842 Z-0.6243
N3360 G1 X24.7092 Y4.5331 Z-0.6014
N3365 G1 X24.7247 Y4.5526 Z-0.598
N3370 G1 X24.7672 Y4.5995 Z-0.5949
N3375 G1 X24.8236 Y4.6558 Z-0.5905
N3380 G1 X24.8594 Y4.6827 Z-0.5779
N3385 G1 X24.898 Y4.7089 Z-0.5692
N3390 G1 X24.9459 Y4.7362 Z-0.5645
N3395 G1 X24.9952 Y4.7576 Z-0.5627
N3400 G1 X25.0399 Y4.7715 Z-0.5596
N3405 G1 X25.0945 Y4.7829 Z-0.5542
N3410 G1 X25.1748 Y4.7933 Z-0.5461
N3415 G1 X25.2242 Y4.7977 Z-0.5417
N3420 G1 X25.2531 Y4.7971 Z-0.5441
N3425 G1 X25.3439 Y4.787 Z-0.5589
N3430 G1 X25.3986 Y4.7772 Z-0.5659
N3435 G1 X25.4488 Y4.7636 Z-0.5687
N3440 G1 X25.5034 Y4.7431 Z-0.5715
N3445 G1 X25.5408 Y4.7259 Z-0.5773
N3450 G1 X25.5742 Y4.7078 Z-0.5852
N3455 G1 X25.619 Y4.6766 Z-0.5926
N3460 G1 X25.6641 Y4.6403 Z-0.6047
N3465 G1 X25.6978 Y4.6083 Z-0.6115
N3470 G1 X25.7314 Y4.5709 Z-0.6122
N3475 G1 X25.7773 Y4.5135 Z-0.6077
N3480 G1 X25.7958 Y4.483 Z-0.6139
N3485 G1 X25.8415 Y4.3871 Z-0.6369
N3490 G1 X25.8677 Y4.3262 Z-0.6462
N3495 G1 X25.8851 Y4.281 Z-0.6493
N3500 G1 X25.9121 Y4.1997 Z-0.6497
N3505 G1 X25.9355 Y4.1174 Z-0.652
N3510 G1 X25.9523 Y4.0339 Z-0.648
N3515 G1 X25.9669 Y3.9437 Z-0.6511
N3520 G1 X25.9774 Y3.8569 Z-0.6573
N3525 G1 X25.9849 Y3.7536 Z-0.6636
N3530 G1 X25.989 Y3.619 Z-0.6694
N3535 G1 X25.9894 Y3.4417 Z-0.6724
N3540 G1 X25.9862 Y3.2492 Z-0.6643
N3545 G1 X25.9805 Y3.1456 Z-0.659
N3550 G1 X25.9719 Y3.0581 Z-0.6537
N3555 G1 X25.9584 Y2.9676 Z-0.6477
N3560 G1 X25.9393 Y2.8728 Z-0.6439
N3565 G1 X25.9201 Y2.7948 Z-0.646
N3570 G1 X25.8947 Y2.7078 Z-0.6528
N3575 G1 X25.8495 Y2.5916 Z-0.6442
N3580 G1 X25.8296 Y2.5465 Z-0.6379
N3585 G1 X25.8131 Y2.512 Z-0.6293
N3590 G1 X25.7869 Y2.4638 Z-0.6115
N3595 G1 X25.7698 Y2.4402 Z-0.6081
N3600 G1 X25.7376 Y2.4019 Z-0.6066
N3605 G1 X25.6759 Y2.3353 Z-0.6006
N3610 G1 X25.6499 Y2.3106 Z-0.5987
N3615 G1 X25.614 Y2.2835 Z-0.5861
N3620 G1 X25.5687 Y2.2532 Z-0.5767
N3625 G1 X25.5178 Y2.2252 Z-0.5724
N3630 G1 X25.4814 Y2.2095 Z-0.5709
N3635 G1 X25.4336 Y2.1941 Z-0.5661
N3640 G1 X25.372 Y2.1807 Z-0.557
N3645 G1 X25.2965 Y2.1702 Z-0.5456
N3650 G1 X25.2385 Y2.1647 Z-0.5387
N3655 G1 X25.2156 Y2.1665 Z-0.5379
N3660 G1 X25.1006 Y2.1824 Z-0.551
N3665 G1 X25.0324 Y2.1974 Z-0.5613
N3670 G1 X24.9785 Y2.2145 Z-0.5713
N3675 G1 X24.9289 Y2.2369 Z-0.5796
N3680 G1 X24.8963 Y2.2561 Z-0.5837
N3685 G1 X24.8523 Y2.2879 Z-0.5884
N3690 G1 X24.8053 Y2.3287 Z-0.5952
N3695 G1 X24.7635 Y2.3699 Z-0.6034
N3700 G1 X24.7195 Y2.4167 Z-0.6148
N3705 G1 X24.7045 Y2.4392 Z-0.6046
N3710 G1 X24.6876 Y2.4676 Z-0.5983
N3715 G1 X24.6804 Y2.4819 Z-0.5998
N3720 G1 X24.6202 Y2.6152 Z-0.623
N3725 G1 X24.58 Y2.715 Z-0.6365
N3730 G1 X24.5529 Y2.7942 Z-0.6455
N3735 G1 X24.5292 Y2.8812 Z-0.6521
N3740 G1 X24.5141 Y2.9551 Z-0.6564
N3745 G1 X24.5044 Y3.0184 Z-0.6582
N3750 G1 X24.4948 Y3.1053 Z-0.6609
N3755 G1 X24.489 Y3.1881 Z-0.6635
N3760 G0 Z5
N3765 G0 X15.4556 Y4.2249
N3770 G1 Z-0.0012 F952.5
N3775 G1 X15.6128 Y4.1288 Z-0.5878 F1000
N3780 G1 X15.5558 Y4.0372 Z-0.3751
N3785 G1 X15.4783 Y3.9196 Z-0.0859
N3790 G1 X15.4556 Y3.8857 Z-0.0012
N3795 G1 X15.4783 Y3.9196 Z-0.0859
N3800 G1 X15.5558 Y4.0372 Z-0.3751
N3805 G1 X15.6128 Y4.1288 Z-0.5878
N3810 G1 X15.7143 Y4.1842 Z-0.5859
N3815 G1 X15.8098 Y4.2417 Z-0.5867
N3820 G1 X15.8938 Y4.2983 Z-0.5913
N3825 G1 X15.9471 Y4.3383 Z-0.5918
N3830 G1 X16.0502 Y4.423 Z-0.5858
N3835 G1 X16.0707 Y4.4396 Z-0.5867
N3840 G1 X16.0959 Y4.4575 Z-0.6009
N3845 G1 X16.1143 Y4.4685 Z-0.6175
N3850 G1 X16.1342 Y4.4789 Z-0.6403
N3855 G1 X16.1547 Y4.4881 Z-0.6682
N3860 G1 X16.1776 Y4.4968 Z-0.7043
N3865 G1 X16.2013 Y4.5043 Z-0.7462
N3870 G1 X16.2288 Y4.5115 Z-0.8
N3875 G1 X16.2296 Y4.5123
N3880 G1 X16.244 Y4.5272
N3885 G1 X16.246 Y4.5292
N3890 G1 X16.2602 Y4.5442
N3895 G1 X16.2627 Y4.547
N3900 G1 X16.2766 Y4.5622
N3905 G1 X16.2793 Y4.5652
N3910 G1 X16.2929 Y4.5806
N3915 G1 X16.295 Y4.5831
N3920 G1 X16.2956 Y4.5838
N3925 G1 X16.3206 Y4.6543 Z-0.7068
N3930 G1 X16.3438 Y4.7265 Z-0.6204
N3935 G1 X16.365 Y4.7989 Z-0.5411
N3940 G1 X16.5097 Y4.9435 Z-0.0012
N3945 G1 X16.365 Y4.7989 Z-0.5411
N3950 G1 X16.3438 Y4.7265 Z-0.6204
N3955 G1 X16.3206 Y4.6543 Z-0.7068
N3960 G1 X16.2956 Y4.5838 Z-0.8
N3965 G1 Y4.4737
N3970 G3 X16.2288 Y4.5115 I-0.1372 J-0.1647
N3975 G2 X16.2956 Y4.4737 I-0.0704 J-0.2025
N3980 G1 X16.3125 Y4.4326 Z-0.737
N3985 G1 X16.3246 Y4.3914 Z-0.6921
N3990 G1 X16.3318 Y4.3502 Z-0.6651
N3995 G1 X16.3342 Y4.3091 Z-0.6561
N4000 G1 Y2.2446
N4005 G1 X16.1587 Y2.0691 Z-0.0012
N4010 G1 X16.3342 Y2.2446 Z-0.6561
N4015 G1 X16.5097 Y2.0691 Z-0.0012
N4020 G0 Z5
N4025 G0 X17.2447 Y2.0203
N4030 G1 Z-0.0011 F952.5
N4035 G1 X17.4241 Y2.1563 Z-0.5087 F1000
N4040 G1 X17.5273 Y2.0203 Z-0.0012
N4045 G1 X17.4241 Y2.1563 Z-0.5087
N4050 G1 X18.1771 Y4.8455 Z-0.5056
N4055 G1 X18.0746 Y4.9806 Z-0.0012
N4060 G1 X18.1771 Y4.8455 Z-0.5056
N4065 G1 X18.3553 Y4.9806 Z-0.0011
N4070 G0 Z5
N4075 G0 X18.4771 Y2.0692
N4080 G1 Z-0.0012 F952.5
N4085 G1 X18.4975 Y2.0892 Z-0.076 F1000
N4090 G1 X18.5653 Y2.1537 Z-0.3166
N4095 G1 X18.6052 Y2.1879 Z-0.4443
N4100 G1 X18.6746 Y2.2405 Z-0.6405
N4105 G1 X18.7391 Y2.2832 Z-0.8
N4110 G1 X18.743 Y2.2919
N4115 G1 X18.7501 Y2.3071
N4120 G1 X18.7572 Y2.3221
N4125 G1 X18.7632 Y2.3344
N4130 G3 X18.7898 Y2.2832 I0.2018 J0.0724
N4135 G1 X18.7391
N4140 G1 X18.7898
N4145 G2 X18.7632 Y2.3344 I0.1752 J0.1235
N4150 G1 X18.767 Y2.3702 Z-0.7515
N4155 G1 X18.7732 Y2.4008 Z-0.7162
N4160 G1 X18.7821 Y2.4298 Z-0.6879
N4165 G1 X18.7942 Y2.4585 Z-0.6662
N4170 G1 X18.81 Y2.4873 Z-0.6519
N4175 G1 X18.8372 Y2.5266 Z-0.6446
N4180 G1 X18.8913 Y2.5979 Z-0.6325
N4185 G1 X18.9175 Y2.6284 Z-0.6264
N4190 G1 X18.9626 Y2.6785 Z-0.621
N4195 G1 X18.9991 Y2.7172 Z-0.6188
N4200 G1 X19.0657 Y2.7818 Z-0.6224
N4205 G1 X19.1387 Y2.8493 Z-0.6211
N4210 G1 X19.2564 Y2.9517 Z-0.6167
N4215 G1 X19.4605 Y3.1224 Z-0.6123
N4220 G1 X19.5759 Y3.2218 Z-0.6133
N4225 G1 X19.6841 Y3.3203 Z-0.6185
N4230 G1 X19.7711 Y3.4056 Z-0.6258
N4235 G1 X19.875 Y3.5144 Z-0.6376
N4240 G1 X19.9465 Y3.5928 Z-0.6454
N4245 G1 X19.9845 Y3.6385 Z-0.6461
N4250 G1 X20.0316 Y3.7037 Z-0.6566
N4255 G1 X20.0613 Y3.7497 Z-0.6603
N4260 G1 X20.0908 Y3.8018 Z-0.6621
N4265 G1 X20.1196 Y3.8602 Z-0.6677
N4270 G1 X20.136 Y3.9003 Z-0.6726
N4275 G1 X20.1521 Y3.9501 Z-0.6772
N4280 G1 X20.167 Y4.0087 Z-0.6833
N4285 G1 X20.1734 Y4.0444 Z-0.6836
N4290 G1 X20.1819 Y4.1166 Z-0.6772
N4295 G1 X20.1839 Y4.159 Z-0.6712
N4300 G1 X20.1811 Y4.1916 Z-0.6697
N4305 G1 X20.1688 Y4.2876 Z-0.6684
N4310 G1 X20.158 Y4.3386 Z-0.6676
N4315 G1 X20.1413 Y4.3907 Z-0.6634
N4320 G1 X20.1201 Y4.4363 Z-0.6554
N4325 G1 X20.092 Y4.4828 Z-0.6458
N4330 G1 X20.0537 Y4.5356 Z-0.6374
N4335 G1 X20.0054 Y4.5933 Z-0.6315
N4340 G1 X19.98 Y4.6168 Z-0.6161
N4345 G1 X19.9529 Y4.639 Z-0.6071
N4350 G1 X19.8888 Y4.6838 Z-0.5993
N4355 G1 X19.8317 Y4.7186 Z-0.5904
N4360 G1 X19.7754 Y4.7457 Z-0.5791
N4365 G1 X19.7463 Y4.7566 Z-0.5723
N4370 G1 X19.6995 Y4.7703 Z-0.5623
N4375 G1 X19.6339 Y4.7833 Z-0.552
N4380 G1 X19.5698 Y4.7911 Z-0.5461
N4385 G1 X19.4724 Y4.7981 Z-0.543
N4390 G1 X19.4361 Y4.7965 Z-0.5421
N4395 G1 X19.3314 Y4.7879 Z-0.5463
N4400 G1 X19.2626 Y4.7773 Z-0.5531
N4405 G1 X19.2151 Y4.7663 Z-0.5599
N4410 G1 X19.1664 Y4.7504 Z-0.5681
N4415 G1 X19.1209 Y4.7306 Z-0.5759
N4420 G1 X19.0707 Y4.7034 Z-0.5846
N4425 G1 X19.0237 Y4.6736 Z-0.5929
N4430 G1 X18.9591 Y4.6283 Z-0.6051
N4435 G1 X18.9276 Y4.6011 Z-0.617
N4440 G1 X18.8604 Y4.5157 Z-0.6303
N4445 G1 X18.8198 Y4.4556 Z-0.6404
N4450 G1 X18.79 Y4.4003 Z-0.6482
N4455 G1 X18.7732 Y4.3597 Z-0.6512
N4460 G1 X18.755 Y4.2996 Z-0.6548
N4465 G1 X18.7485 Y4.2714 Z-0.6565
N4470 G1 X18.7963 Y4.2092 Z-0.4435
N4475 G1 X18.8693 Y4.1202 Z-0.141
N4480 G1 X18.9042 Y4.0789 Z-0.0011
N4485 G1 X18.8693 Y4.1202 Z-0.141
N4490 G1 X18.7963 Y4.2092 Z-0.4435
N4495 G1 X18.7485 Y4.2714 Z-0.6565
N4500 G1 X18.6691 Y4.2129 Z-0.4087
N4505 G1 X18.5435 Y4.1159 Z-0.001
N4510 G0 Z5
N4515 G0 X18.7903 Y2.283
N4520 G1 Z-0.7991 F952.5
N4525 G1 X18.8336 Y2.2633 Z-0.7258 F1000
N4530 G1 X18.8774 Y2.2491 Z-0.6729
N4535 G1 X18.9212 Y2.2406 Z-0.6411
N4540 G1 X18.965 Y2.2378 Z-0.6305
N4545 G1 X20.2004
N4550 G1 X20.369 Y2.0691 Z-0.0012
N4555 G1 X20.2004 Y2.2378 Z-0.6305
N4560 G1 X20.369 Y2.4064 Z-0.0012
N4565 G0 Z5
N4570 G0 X20.7075 Y2.9285
N4575 G1 Z-0.0012 F952.5
N4580 G1 X20.884 Y3.105 Z-0.6597 F1000
N4585 G1 X20.7075 Y3.2814 Z-0.0012
N4590 G1 X20.884 Y3.105 Z-0.6597
N4595 G1 X21.6105
N4600 G1 X21.787 Y3.2814 Z-0.0012
N4605 G1 X21.6105 Y3.105 Z-0.6597
N4610 G1 X21.787 Y2.9285 Z-0.0012
N4615 G0 Z5
N4620 G0 X22.0337 Y2.0691
N4625 G1 Z-0.0012 F952.5
N4630 G1 X22.122 Y2.1537 Z-0.3166 F1000
N4635 G1 X22.1698 Y2.1942 Z-0.4679
N4640 G1 X22.2313 Y2.2405 Z-0.6405
N4645 G1 X22.2528 Y2.2553 Z-0.6959
N4650 G1 X22.2958 Y2.2832 Z-0.8
N4655 G1 X22.3465
N4660 G2 X22.3199 Y2.3345 I0.1752 J0.1235
N4665 G1 X22.3138 Y2.3221
N4670 G1 X22.3069 Y2.3075
N4675 G1 X22.2999 Y2.2924
N4680 G1 X22.2958 Y2.2832
N4685 G1 X22.2999 Y2.2924
N4690 G1 X22.3069 Y2.3075
N4695 G1 X22.3138 Y2.3221
N4700 G1 X22.3199 Y2.3345
N4705 G1 X22.3236 Y2.3702 Z-0.7517
N4710 G1 X22.3297 Y2.4003 Z-0.7169
N4715 G1 X22.3388 Y2.4298 Z-0.6881
N4720 G1 X22.351 Y2.4588 Z-0.6661
N4725 G1 X22.3667 Y2.4873 Z-0.6521
N4730 G1 X22.3888 Y2.5195 Z-0.6458
N4735 G1 X22.4482 Y2.5981 Z-0.6324
N4740 G1 X22.4819 Y2.6373 Z-0.6251
N4745 G1 X22.5339 Y2.6943 Z-0.6198
N4750 G1 X22.5557 Y2.7172 Z-0.6188
N4755 G1 X22.6223 Y2.7818 Z-0.6224
N4760 G1 X22.7141 Y2.866 Z-0.6205
N4765 G1 X22.831 Y2.9669 Z-0.6161
N4770 G1 X23.0986 Y3.1921 Z-0.6126
N4775 G1 X23.2123 Y3.2938 Z-0.6167
N4780 G1 X23.3066 Y3.3844 Z-0.6238
N4785 G1 X23.39 Y3.4702 Z-0.6325
N4790 G1 X23.5032 Y3.5928 Z-0.6452
N4795 G1 X23.5412 Y3.6385 Z-0.646
N4800 G1 X23.5867 Y3.7016 Z-0.6562
N4805 G1 X23.6254 Y3.7621 Z-0.6607
N4810 G1 X23.6584 Y3.8231 Z-0.6633
N4815 G1 X23.6832 Y3.8758 Z-0.6706
N4820 G1 X23.6898 Y3.8923 Z-0.6721
N4825 G1 X23.7087 Y3.9495 Z-0.6771
N4830 G1 X23.7248 Y4.014 Z-0.6837
N4835 G1 X23.7316 Y4.0554 Z-0.6831
N4840 G1 X23.7398 Y4.1305 Z-0.6755
N4845 G1 X23.7405 Y4.159 Z-0.6712
N4850 G1 X23.736 Y4.2094 Z-0.6696
N4855 G1 X23.7233 Y4.2996 Z-0.6683
N4860 G1 X23.7105 Y4.3535 Z-0.6667
N4865 G1 X23.7034 Y4.3757 Z-0.6652
N4870 G1 X23.6883 Y4.4132 Z-0.6598
N4875 G1 X23.6673 Y4.4532 Z-0.6519
N4880 G1 X23.6449 Y4.4886 Z-0.6449
N4885 G1 X23.6109 Y4.535 Z-0.6376
N4890 G1 X23.5615 Y4.5938 Z-0.631
N4895 G1 X23.5366 Y4.6168 Z-0.6162
N4900 G1 X23.5095 Y4.639 Z-0.6071
N4905 G1 X23.4451 Y4.6841 Z-0.5993
N4910 G1 X23.3884 Y4.7186 Z-0.5905
N4915 G1 X23.3325 Y4.7455 Z-0.5791
N4920 G1 X23.3029 Y4.7566 Z-0.5723
N4925 G1 X23.2562 Y4.7703 Z-0.5623
N4930 G1 X23.1906 Y4.7833 Z-0.552
N4935 G1 X23.1264 Y4.7911 Z-0.5461
N4940 G1 X23.0291 Y4.7981 Z-0.543
N4945 G1 X22.9928 Y4.7965 Z-0.5421
N4950 G1 X22.8879 Y4.7878 Z-0.5463
N4955 G1 X22.8193 Y4.7774 Z-0.5531
N4960 G1 X22.7715 Y4.7662 Z-0.5599
N4965 G1 X22.723 Y4.7504 Z-0.5682
N4970 G1 X22.678 Y4.7308 Z-0.5758
N4975 G1 X22.6365 Y4.7087 Z-0.5828
N4980 G1 X22.5808 Y4.6739 Z-0.5928
N4985 G1 X22.5157 Y4.6283 Z-0.6051
N4990 G1 X22.4838 Y4.6005 Z-0.617
N4995 G1 X22.4173 Y4.516 Z-0.6304
N5000 G1 X22.3768 Y4.4562 Z-0.6403
N5005 G1 X22.3466 Y4.4003 Z-0.6482
N5010 G1 X22.3299 Y4.3597 Z-0.6513
N5015 G1 X22.3116 Y4.2996 Z-0.6548
N5020 G1 X22.3051 Y4.2714 Z-0.6565
N5025 G1 X22.3535 Y4.2085 Z-0.4412
N5030 G1 X22.4435 Y4.0994 Z-0.0706
N5035 G1 X22.4608 Y4.079 Z-0.0013
N5040 G1 X22.4435 Y4.0994 Z-0.0706
N5045 G1 X22.3535 Y4.2085 Z-0.4412
N5050 G1 X22.3051 Y4.2714 Z-0.6565
N5055 G1 X22.2259 Y4.213 Z-0.4093
N5060 G1 X22.1001 Y4.116 Z-0.0011
N5065 G0 Z5
N5070 G0 X22.347 Y2.283
N5075 G1 Z-0.7991 F952.5
N5080 G1 X22.3903 Y2.2633 Z-0.7258 F1000
N5085 G1 X22.4341 Y2.2491 Z-0.6729
N5090 G1 X22.4779 Y2.2406 Z-0.6411
N5095 G1 X22.5217 Y2.2378 Z-0.6305
N5100 G1 X23.7571
N5105 G1 X23.9257 Y2.0691 Z-0.0012
N5110 G1 X23.7571 Y2.2378 Z-0.6305
N5115 G1 X23.9257 Y2.4064 Z-0.0012
N5120 G0 Z5
N5125 G0 X27.7876 Y4.9318
N5130 G1 Z-0.0012 F952.5
N5135 G1 X27.9767 Y4.7427 Z-0.707 F1000
N5140 G1 X28.1659 Y4.9318 Z-0.0012
N5145 G1 X27.9767 Y4.7427 Z-0.707
N5150 G1 X27.9785 Y3.1585 Z-0.7051
N5155 G1 X27.9847 Y3.0333 Z-0.7043
N5160 G1 X27.9933 Y2.9516 Z-0.7048
N5165 G1 X28.0061 Y2.8752
N5170 G1 X28.0236 Y2.797 Z-0.7029
N5175 G1 X28.0494 Y2.7011 Z-0.6989
N5180 G1 X28.0575 Y2.6729 Z-0.6976
N5185 G1 X28.0754 Y2.6268 Z-0.7066
N5190 G1 X28.1156 Y2.5516 Z-0.7051
N5195 G1 X28.1489 Y2.4987 Z-0.7055
N5200 G1 X28.1761 Y2.4628 Z-0.705
N5205 G1 X28.2042 Y2.4322 Z-0.7016
N5210 G1 X28.2423 Y2.3979 Z-0.6954
N5215 G1 X28.2887 Y2.3621 Z-0.689
N5220 G1 X28.3478 Y2.3214 Z-0.6841
N5225 G1 X28.383 Y2.3027 Z-0.6699
N5230 G1 X28.4172 Y2.2874 Z-0.6654
N5235 G1 X28.5096 Y2.2505 Z-0.6567
N5240 G1 X28.5718 Y2.23 Z-0.6508
N5245 G1 X28.639 Y2.2137 Z-0.6444
N5250 G1 X28.7109 Y2.2026 Z-0.6395
N5255 G1 X28.7841 Y2.1961 Z-0.6368
N5260 G1 X28.8908 Y2.1914 Z-0.6361
N5265 G1 X28.9198 Y2.1913 Z-0.639
N5270 G1 X29.0359 Y2.1961 Z-0.6391
N5275 G1 X29.1329 Y2.205 Z-0.6428
N5280 G1 X29.205 Y2.2171 Z-0.6468
N5285 G1 X29.2587 Y2.2304 Z-0.6491
N5290 G1 X29.3167 Y2.2498 Z-0.6518
N5295 G1 X29.3632 Y2.269 Z-0.6559
N5300 G1 X29.4146 Y2.2934 Z-0.6631
N5305 G1 X29.4843 Y2.3308 Z-0.6794
N5310 G1 X29.5011 Y2.3411 Z-0.6821
N5315 G1 X29.5883 Y2.4043 Z-0.6755
N5320 G1 X29.6019 Y2.4153 Z-0.6749
N5325 G1 X29.6277 Y2.4405 Z-0.6812
N5330 G1 X29.6484 Y2.4663 Z-0.6946
N5335 G1 X29.6662 Y2.4917 Z-0.7059
N5340 G1 X29.6833 Y2.5181 Z-0.7132
N5345 G1 X29.7103 Y2.5646 Z-0.7189
N5350 G1 X29.7496 Y2.6408 Z-0.7226
N5355 G1 X29.7598 Y2.6624 Z-0.7243
N5360 G1 X29.7772 Y2.7119 Z-0.7125
N5365 G1 X29.8001 Y2.7867 Z-0.7025
N5370 G1 X29.8184 Y2.8613 Z-0.7001
N5375 G1 X29.8317 Y2.9352 Z-0.7006
N5380 G1 X29.8404 Y3.0076 Z-0.7015
N5385 G1 X29.847 Y3.1134 Z-0.7028
N5390 G1 X29.8498 Y3.2801 Z-0.7072
N5395 G1 Y4.7426
N5400 G1 X29.6606 Y4.9318 Z-0.0012
N5405 G1 X29.8498 Y4.7426 Z-0.7072
N5410 G1 X30.039 Y4.9318 Z-0.0012
N5415 G0 Z5
N5420 G0 X30.6665 Y2.0691
N5425 G1 Z-0.0012 F952.5
N5430 G1 X30.8479 Y2.2505 Z-0.6779 F1000
N5435 G1 X31.0292 Y2.0691 Z-0.0012
N5440 G1 X30.8479 Y2.2505 Z-0.6779
N5445 G1 Y4.3188
N5450 G1 X30.8515 Y4.3702 Z-0.6915
N5455 G1 X30.8624 Y4.4216 Z-0.7322
N5460 G1 X30.8806 Y4.473 Z-0.8
N5465 G1 Y4.7178
N5470 G1 X30.9404
N5475 G1 X31.066 Y4.5301
N5480 G3 X30.8806 Y4.473 I-0.0365 J-0.2112
N5485 G2 X31.066 Y4.5301 I0.1489 J-0.1542
N5490 G1 X30.9404 Y4.7178
N5495 G1 X30.8806
N5500 G1 X30.6665 Y4.9318 Z-0.0012
N5505 G0 Z5
N5510 G0 X31.0665 Y4.5297
N5515 G1 Z-0.7992 F952.5
N5520 G1 X31.1101 Y4.4973 Z-0.731 F1000
N5525 G1 X31.1481 Y4.4605 Z-0.6895
N5530 G1 X31.18 Y4.4195 Z-0.6757
N5535 G1 X32.4079 Y2.5831 Z-0.6774
N5540 G1 X32.4396 Y2.5424 Z-0.691
N5545 G1 X32.4773 Y2.5057 Z-0.7319
N5550 G1 X32.5211 Y2.4731 Z-0.8
N5555 G3 X32.7077 Y2.5299 I0.0377 J0.211
N5560 G1 Y2.2832
N5565 G1 X32.648
N5570 G1 X32.5211 Y2.4731
N5575 G1 X32.648 Y2.2832
N5580 G1 X32.7077
N5585 G1 X32.9218 Y2.0691 Z-0.0012
N5590 G0 Z5
N5595 G0 X32.5591 Y4.9318
N5600 G1 Z-0.0012 F952.5
N5605 G1 X32.7405 Y4.7505 Z-0.6779 F1000
N5610 G1 X32.9218 Y4.9318 Z-0.0012
N5615 G1 X32.7405 Y4.7505 Z-0.6779
N5620 G1 Y2.6841
N5625 G1 X32.7368 Y2.6327 Z-0.6915
N5630 G1 X32.7259 Y2.5813 Z-0.7322
N5635 G1 X32.7081 Y2.5309 Z-0.7986
N5640 G0 Z5
N5645 G0 X33.5786 Y2.0691
N5650 G1 Z-0.0012 F952.5
N5655 G1 X33.7677 Y2.2583 Z-0.707 F1000
N5660 G1 X33.9569 Y2.0691 Z-0.0012
N5665 G1 X33.7677 Y2.2583 Z-0.707
N5670 G1 Y3.3696
N5675 G1 X33.7705 Y3.4154 Z-0.7174
N5680 G1 X33.7788 Y3.4612 Z-0.7484
N5685 G1 X33.7927 Y3.507 Z-0.8
N5690 G1 Y3.5701
N5695 G3 X33.8253 Y3.5386 I0.1645 J0.1374
N5700 G3 X33.7927 Y3.507 I0.1319 J-0.1689
N5705 G2 X33.8253 Y3.5386 I0.1645 J-0.1374
N5710 G1 X33.8517 Z-0.7434
N5715 G1 X33.8737 Z-0.7033
N5720 G1 X33.8923 Z-0.6754
N5725 G1 X33.9221 Z-0.6439
N5730 G1 X33.9461 Z-0.6319
N5735 G1 X33.9572 Z-0.6305
N5740 G1 X35.1321
N5745 G1 X35.3007 Y3.7072 Z-0.0012
N5750 G1 X35.1321 Y3.5386 Z-0.6305
N5755 G1 X35.3007 Y3.3699 Z-0.0012
N5760 G1 X35.1321 Y3.5386 Z-0.6305
N5765 G1 X33.9572
N5770 G1 X33.9461 Z-0.6319
N5775 G1 X33.9221 Z-0.6439
N5780 G1 X33.8923 Z-0.6754
N5785 G1 X33.8737 Z-0.7033
N5790 G1 X33.8517 Z-0.7434
N5795 G1 X33.8253 Z-0.8
N5800 G2 X33.7927 Y3.5701 I0.1319 J0.1689
N5805 G1 X33.7788 Y3.6159 Z-0.7484
N5810 G1 X33.7705 Y3.6617 Z-0.7174
N5815 G1 X33.7677 Y3.7075 Z-0.707
N5820 G1 Y4.5942
N5825 G1 X33.7701 Y4.6366 Z-0.7159
N5830 G1 X33.7772 Y4.679 Z-0.7424
N5835 G1 X33.7891 Y4.7213 Z-0.7866
N5840 G1 X33.5786 Y4.9318 Z-0.0012
N5845 G1 X33.7891 Y4.7213 Z-0.7866
N5850 G1 X33.8311 Y4.7396 Z-0.7183
N5855 G1 X33.8731 Y4.7527 Z-0.6695
N5860 G1 X33.9152 Y4.7606 Z-0.6403
N5865 G1 X33.9572 Y4.7632 Z-0.6305
N5870 G1 X35.3411
N5875 G1 X35.5097 Y4.5945 Z-0.0012
N5880 G1 X35.3411 Y4.7632 Z-0.6305
N5885 G1 X35.5097 Y4.9318 Z-0.0012
N5890 G0 Z5
N5895 G0 X39.9327 Y2.0691
N5900 G1 Z-0.0012 F952.5
N5905 G1 X40.115 Y2.2514 Z-0.6815 F1000
N5910 G1 X40.2973 Y2.0691 Z-0.0012
N5915 G1 X40.115 Y2.2514 Z-0.6815
N5920 G1 Y4.5063
N5925 G1 X40.1185 Y4.5571 Z-0.6946
N5930 G1 X40.1291 Y4.6079 Z-0.7342
N5935 G1 X40.1465 Y4.6579 Z-0.799
N5940 G0 Z5
N5945 G0 X39.9327 Y4.9318
N5950 G1 Z-0.0012 F952.5
N5955 G1 X40.1468 Y4.7178 Z-0.8 F1000
N5960 G1 X40.2622
N5965 G3 X40.1468 Y4.6586 I0.0354 J-0.2114
N5970 G1 Y4.7178
N5975 G1 Y4.6586
N5980 G2 X40.2622 Y4.7178 I0.1508 J-0.1523
N5985 G1 X40.2976 Y4.7192 Z-0.7945
N5990 G1 X40.333 Y4.7178 Z-0.8
N5995 G2 X40.3495 Y4.7143 I-0.0354 J-0.2114
N6000 G1 X40.3483 Y4.7178
N6005 G1 X40.333
N6010 G1 X40.3483
N6015 G1 X40.5025 Y4.9318 Z-0.0012
N6020 G1 X40.3483 Y4.7178 Z-0.8
N6025 G1 X40.3495 Y4.7143
N6030 G1 X40.3843 Y4.6785 Z-0.7193
N6035 G1 X40.4132 Y4.6407 Z-0.6616
N6040 G1 X40.4363 Y4.601 Z-0.6268
N6045 G1 X40.4536 Y4.5593 Z-0.6149
N6050 G1 X41.1042 Y2.6267 Z-0.5937
N6055 G1 X41.1685 Y2.4305 Z-0.5855
N6060 G1 X41.186 Y2.389 Z-0.5975
N6065 G1 X41.2096 Y2.3496 Z-0.6334
N6070 G1 X41.2392 Y2.3123 Z-0.6933
N6075 G1 X41.2749 Y2.277 Z-0.7771
N6080 G1 X41.1259 Y2.0691 Z-0.0012
N6085 G1 X41.2749 Y2.277 Z-0.7771
N6090 G1 X41.3171 Y2.2749 Z-0.769
N6095 G1 X41.3209 Z-0.7691
N6100 G1 X41.4673 Y2.0691 Z-0.0012
N6105 G1 X41.3209 Y2.2749 Z-0.7691
N6110 G1 X41.3565 Y2.3035 Z-0.6785
N6115 G1 X41.3871 Y2.3338 Z-0.608
N6120 G1 X41.4125 Y2.3659 Z-0.5576
N6125 G1 X41.4328 Y2.3998 Z-0.5274
N6130 G1 X41.4481 Y2.4355 Z-0.5174
N6135 G1 X41.5194 Y2.6477 Z-0.5257
N6140 G1 X42.1633 Y4.5126 Z-0.5386
N6145 G1 X42.179 Y4.5497 Z-0.5492
N6150 G1 X42.2001 Y4.5849 Z-0.5806
N6155 G1 X42.2264 Y4.6183 Z-0.6329
N6160 G1 X42.2579 Y4.6499 Z-0.7061
N6165 G1 X42.2948 Y4.6796 Z-0.8
N6170 G2 X42.4504 Y4.6176 I0.0048 J-0.2143
N6175 G1 Y4.7178
N6180 G1 X42.6645 Y4.9318 Z-0.0012
N6185 G1 X42.4504 Y4.7178 Z-0.8
N6190 G1 X42.3079
N6195 G1 X42.2948 Y4.6796
N6200 G1 X42.3079 Y4.7178
N6205 G1 X42.1552 Y4.9318 Z-0.0012
N6210 G0 Z5
N6215 G0 X42.2999 Y2.0691
N6220 G1 Z-0.0012 F952.5
N6225 G1 X42.4822 Y2.2514 Z-0.6815 F1000
N6230 G1 X42.6645 Y2.0691 Z-0.0012
N6235 G1 X42.4822 Y2.2514 Z-0.6815
N6240 G1 Y4.4653
N6245 G1 X42.4787 Y4.5161 Z-0.6946
N6250 G1 X42.4681 Y4.5668 Z-0.7342
N6255 G1 X42.4507 Y4.6169 Z-0.799
N6260 G0 Z5
N6265 G0 X44.2999 Y3.614
N6270 G1 Z-0.6629 F952.5
N6275 G1 X44.3102 Y3.6285 Z-0.6243 F1000
N6280 G1 X44.3262 Y3.6495 Z-0.5735
N6285 G1 X44.3422 Y3.6685 Z-0.5337
N6290 G1 X44.3575 Y3.6847 Z-0.5056
N6295 G1 X44.3729 Y3.6994 Z-0.4861
N6300 G1 X44.3877 Y3.7119 Z-0.4749
N6305 G1 X44.403 Y3.7234 Z-0.4703
N6310 G1 X44.4183 Y3.7334 Z-0.4718
N6315 G1 X44.4782 Y3.7685 Z-0.5015
N6320 G1 X44.5073 Y3.7871 Z-0.5185
N6325 G1 X44.5486 Y3.8207 Z-0.5555
N6330 G1 X44.5733 Y3.8436 Z-0.5746
N6335 G1 X44.6013 Y3.874 Z-0.5924
N6340 G1 X44.6381 Y3.9216 Z-0.6167
N6345 G1 X44.6564 Y3.9487 Z-0.6331
N6350 G1 X44.6748 Y3.987 Z-0.6439
N6355 G1 X44.695 Y4.0395 Z-0.6629
N6360 G1 X44.7043 Y4.0738 Z-0.6717
N6365 G1 X44.7113 Y4.1165 Z-0.6744
N6370 G1 X44.7175 Y4.1819 Z-0.6733
N6375 G1 X44.7177 Y4.2031 Z-0.6715
N6380 G1 X44.7118 Y4.2635 Z-0.6692
N6385 G1 X44.7012 Y4.3344 Z-0.6674
N6390 G1 X44.6887 Y4.386 Z-0.6649
N6395 G1 X44.6731 Y4.4291 Z-0.6592
N6400 G1 X44.6481 Y4.4778 Z-0.6476
N6405 G1 X44.6174 Y4.5247 Z-0.6369
N6410 G1 X44.586 Y4.566 Z-0.6297
N6415 G1 X44.5528 Y4.6054 Z-0.6239
N6420 G1 X44.5294 Y4.6276 Z-0.6093
N6425 G1 X44.5046 Y4.6485 Z-0.6003
N6430 G1 X44.434 Y4.6992 Z-0.5889
N6435 G1 X44.3939 Y4.724 Z-0.5817
N6440 G1 X44.3444 Y4.7487 Z-0.5711
N6445 G1 X44.3219 Y4.7577 Z-0.5661
N6450 G1 X44.2818 Y4.7704 Z-0.5571
N6455 G1 X44.2264 Y4.7827 Z-0.5475
N6460 G1 X44.1687 Y4.791 Z-0.5417
N6465 G1 X44.0858 Y4.7982 Z-0.5381
N6470 G1 X44.0599 Y4.7987 Z-0.5389
N6475 G1 X43.959 Y4.79 Z-0.5439
N6480 G1 X43.9018 Y4.7813 Z-0.5511
N6485 G1 X43.8547 Y4.7705 Z-0.5602
N6490 G1 X43.8122 Y4.7568 Z-0.5702
N6495 G1 X43.762 Y4.7345 Z-0.5822
N6500 G1 X43.7215 Y4.7114 Z-0.5898
N6505 G1 X43.6631 Y4.6719 Z-0.5997
N6510 G1 X43.6299 Y4.6474 Z-0.6048
N6515 G1 X43.602 Y4.6229 Z-0.6181
N6520 G1 X43.5805 Y4.6019 Z-0.6286
N6525 G1 X43.5465 Y4.5606 Z-0.632
N6530 G1 X43.512 Y4.5136 Z-0.6401
N6535 G1 X43.4861 Y4.4716 Z-0.6494
N6540 G1 X43.4689 Y4.4369 Z-0.6571
N6545 G1 X43.4535 Y4.3942 Z-0.6623
N6550 G1 X43.4399 Y4.3361 Z-0.6642
N6555 G1 X43.43 Y4.2659 Z-0.6652
N6560 G1 X43.4254 Y4.2136 Z-0.6679
N6565 G1 X43.4253 Y4.2004 Z-0.671
N6570 G1 X43.434 Y4.1081 Z-0.6718
N6575 G1 X43.4413 Y4.0691 Z-0.6679
N6580 G1 X43.4522 Y4.0326 Z-0.6577
N6585 G1 X43.4737 Y3.9797 Z-0.6397
N6590 G1 X43.4884 Y3.9497 Z-0.6322
N6595 G1 X43.515 Y3.9115 Z-0.6097
N6600 G1 X43.5505 Y3.8673 Z-0.5864
N6605 G1 X43.5755 Y3.8409 Z-0.5692
N6610 G1 X43.6009 Y3.8177 Z-0.5482
N6615 G1 X43.6405 Y3.7859 Z-0.512
N6620 G1 X43.6804 Y3.7615 Z-0.49
N6625 G1 X43.7275 Y3.7346 Z-0.466
N6630 G1 X43.7429 Y3.7251 Z-0.4631
N6635 G1 X43.759 Y3.7137 Z-0.4663
N6640 G1 X43.7742 Y3.7014 Z-0.4764
N6645 G1 X43.79 Y3.6869 Z-0.4949
N6650 G1 X43.8056 Y3.6709 Z-0.5224
N6655 G1 X43.8216 Y3.6524 Z-0.5607
N6660 G1 X43.8384 Y3.631 Z-0.6122
N6665 G1 X43.8496 Y3.6155 Z-0.6534
N6670 G1 X43.8352 Y3.5984 Z-0.6056
N6675 G1 X43.8155 Y3.5771 Z-0.5514
N6680 G1 X43.7954 Y3.558 Z-0.5095
N6685 G1 X43.7751 Y3.5411 Z-0.4805
N6690 G1 X43.7547 Y3.5265 Z-0.4639
N6695 G1 X43.7343 Y3.5141 Z-0.4587
N6700 G1 X43.7132 Y3.5034 Z-0.464
N6705 G1 X43.6891 Y3.492 Z-0.4764
N6710 G1 X43.6132 Y3.452 Z-0.5228
N6715 G1 X43.5774 Y3.4308 Z-0.5442
N6720 G1 X43.5427 Y3.4072 Z-0.5638
N6725 G1 X43.5118 Y3.3793 Z-0.5872
N6730 G1 X43.4802 Y3.3468 Z-0.6053
N6735 G1 X43.4349 Y3.2937 Z-0.6274
N6740 G1 X43.4112 Y3.2628 Z-0.6416
N6745 G1 X43.3931 Y3.2319 Z-0.6446
N6750 G1 X43.3721 Y3.1912 Z-0.6517
N6755 G1 X43.3485 Y3.1353 Z-0.6649
N6760 G1 X43.3349 Y3.0919 Z-0.6733
N6765 G1 X43.3271 Y3.0566 Z-0.676
N6770 G1 X43.3207 Y3.0162 Z-0.6767
N6775 G1 X43.311 Y2.9076 Z-0.6735
N6780 G1 X43.317 Y2.8177 Z-0.6683
N6785 G1 X43.325 Y2.7549 Z-0.6676
N6790 G1 X43.3359 Y2.6994 Z-0.669
N6795 G1 X43.349 Y2.6534 Z-0.6704
N6800 G1 X43.3653 Y2.6098 Z-0.6682
N6805 G1 X43.3776 Y2.5828 Z-0.6634
N6810 G1 X43.4037 Y2.5329 Z-0.6486
N6815 G1 X43.4458 Y2.4692 Z-0.6339
N6820 G1 X43.4754 Y2.4292 Z-0.6256
N6825 G1 X43.5049 Y2.3926 Z-0.6221
N6830 G1 X43.5184 Y2.3799 Z-0.6147
N6835 G1 X43.551 Y2.3513 Z-0.602
N6840 G1 X43.5828 Y2.3259 Z-0.595
N6845 G1 X43.6418 Y2.2844 Z-0.5888
N6850 G1 X43.69 Y2.2546 Z-0.583
N6855 G1 X43.7154 Y2.2415 Z-0.582
N6860 G1 X43.7452 Y2.2283 Z-0.58
N6865 G1 X43.801 Y2.2073 Z-0.5697
N6870 G1 X43.8647 Y2.1895 Z-0.5544
N6875 G1 X43.9162 Y2.1796 Z-0.5452
N6880 G1 X43.9682 Y2.1727 Z-0.5402
N6885 G1 X44.0682 Y2.165 Z-0.5387
N6890 G1 X44.0951 Y2.1659 Z-0.538
N6895 G1 X44.1855 Y2.1735 Z-0.5407
N6900 G1 X44.2382 Y2.1802 Z-0.5442
N6905 G1 X44.3036 Y2.1928 Z-0.5517
N6910 G1 X44.3591 Y2.2087 Z-0.561
N6915 G1 X44.4005 Y2.2247 Z-0.5686
N6920 G1 X44.4505 Y2.2495 Z-0.5769
N6925 G1 X44.5063 Y2.284 Z-0.5848
N6930 G1 X44.5764 Y2.3343 Z-0.5938
N6935 G1 X44.6103 Y2.3612 Z-0.6003
N6940 G1 X44.6421 Y2.3915 Z-0.6195
N6945 G1 X44.684 Y2.4433 Z-0.6244
N6950 G1 X44.7167 Y2.487 Z-0.6308
N6955 G1 X44.7541 Y2.5448 Z-0.642
N6960 G1 X44.7669 Y2.5679 Z-0.6468
N6965 G1 X44.789 Y2.6166 Z-0.6555
N6970 G1 X44.7982 Y2.6426 Z-0.6584
N6975 G1 X44.8114 Y2.6915 Z-0.6613
N6980 G1 X44.8241 Y2.763 Z-0.6637
N6985 G1 X44.8352 Y2.8694 Z-0.6671
N6990 G1 X44.8364 Y2.8898 Z-0.6699
N6995 G1 X44.8361 Y2.8947 Z-0.6698
N7000 G1 X44.828 Y2.9882 Z-0.6721
N7005 G1 X44.8187 Y3.0493 Z-0.6703
N7010 G1 X44.8093 Y3.0886 Z-0.6653
N7015 G1 X44.7902 Y3.1437 Z-0.6519
N7020 G1 X44.7666 Y3.1957 Z-0.6395
N7025 G1 X44.7423 Y3.2409 Z-0.6341
N7030 G1 X44.726 Y3.2639 Z-0.6251
N7035 G1 X44.7028 Y3.294 Z-0.6137
N7040 G1 X44.6576 Y3.3467 Z-0.594
N7045 G1 X44.6254 Y3.3794 Z-0.5765
N7050 G1 X44.5917 Y3.409 Z-0.5528
N7055 G1 X44.5501 Y3.4366 Z-0.5337
N7060 G1 X44.4702 Y3.4825 Z-0.493
N7065 G1 X44.4312 Y3.5026 Z-0.4764
N7070 G1 X44.4136 Y3.5119 Z-0.4732
N7075 G1 X44.3888 Y3.5278 Z-0.4812
N7080 G1 X44.3685 Y3.5433 Z-0.5003
N7085 G1 X44.3634 Y3.5475 Z-0.507
N7090 G1 X44.343 Y3.566 Z-0.5423
N7095 G1 X44.3228 Y3.587 Z-0.5909
N7100 G1 X44.2999 Y3.614 Z-0.6629
N7105 G1 X44.2754 Y3.6134 Z-0.638
N7110 G1 X44.232 Y3.6126 Z-0.6024
N7115 G1 X44.1913 Y3.6123 Z-0.5776
N7120 G1 X44.1535 Y3.6122 Z-0.5605
N7125 G1 X44.0856 Y3.6124 Z-0.5387
N7130 G1 X44.0701 Y3.6128 Z-0.5361
N7135 G1 X44.0342 Y3.613 Z-0.5443
N7140 G1 X43.9801 Y3.6131 Z-0.5629
N7145 G1 X43.9481 Y3.6134 Z-0.5779
N7150 G1 X43.9055 Y3.614 Z-0.6043
N7155 G1 X43.8759 Y3.6147 Z-0.628
N7160 G1 X43.8496 Y3.6155 Z-0.6534
N7165 G0 Z5
N7170 G0 X10.3314 Y4.2039
N7175 G1 Z-0.001 F952.5
N7180 G1 X10.4085 Y4.3117 Z-0.3796 F1000
N7185 G1 X10.4618 Y4.3908 Z-0.6586
N7190 G1 X10.5261 Y4.3466 Z-0.4754
N7195 G1 X10.6272 Y4.2718 Z-0.1676
N7200 G1 X10.6807 Y4.2311 Z-0.0006
N7205 G1 X10.6272 Y4.2718 Z-0.1676
N7210 G1 X10.5261 Y4.3466 Z-0.4754
N7215 G1 X10.4618 Y4.3908 Z-0.6586
N7220 G1 X10.4486 Y4.425 Z-0.6585
N7225 G1 X10.4268 Y4.47 Z-0.6543
N7230 G1 X10.3974 Y4.5175 Z-0.6453
N7235 G1 X10.3528 Y4.5785 Z-0.6305
N7240 G1 X10.3222 Y4.6161 Z-0.6225
N7245 G1 X10.3064 Y4.6316 Z-0.6227
N7250 G1 X10.2198 Y4.6957 Z-0.6011
N7255 G1 X10.1793 Y4.7213 Z-0.5928
N7260 G1 X10.1302 Y4.7467 Z-0.5828
N7265 G1 X10.0956 Y4.7605 Z-0.5746
N7270 G1 X10.0421 Y4.7758 Z-0.5627
N7275 G1 X10.0007 Y4.784 Z-0.555
N7280 G1 X9.9493 Y4.7911 Z-0.5479
N7285 G1 X9.8603 Y4.7983 Z-0.5382
N7290 G1 X9.8371 Y4.7974 Z-0.5337
N7295 G1 X9.747 Y4.7887 Z-0.5312
N7300 G1 X9.6987 Y4.7813 Z-0.5333
N7305 G1 X9.6453 Y4.7695 Z-0.5409
N7310 G1 X9.5937 Y4.7531 Z-0.5531
N7315 G1 X9.5477 Y4.734 Z-0.5649
N7320 G1 X9.507 Y4.7131 Z-0.572
N7325 G1 X9.465 Y4.6877 Z-0.5734
N7330 G1 X9.4204 Y4.6528 Z-0.5819
N7335 G1 X9.3547 Y4.5944 Z-0.5899
N7340 G1 X9.31 Y4.55 Z-0.5972
N7345 G1 X9.2782 Y4.5158 Z-0.6068
N7350 G1 X9.2624 Y4.4913 Z-0.5997
N7355 G1 X9.2317 Y4.4404 Z-0.5908
N7360 G1 X9.2 Y4.3827 Z-0.5882
N7365 G1 X9.1641 Y4.3114 Z-0.5905
N7370 G1 X9.1431 Y4.2669 Z-0.592
N7375 G1 X9.1278 Y4.2268 Z-0.6014
N7380 G1 X9.0953 Y4.1328 Z-0.6201
N7385 G1 X9.0731 Y4.0567 Z-0.6283
N7390 G1 X9.0529 Y3.969 Z-0.633
N7395 G1 X9.0377 Y3.8756 Z-0.6365
N7400 G1 X9.028 Y3.7838 Z-0.6401
N7405 G1 X9.0208 Y3.667 Z-0.6447
N7410 G1 X9.0172 Y3.5488 Z-0.6474
N7415 G1 X9.0183 Y3.5121 Z-0.655
N7420 G1 X9.0269 Y3.4591 Z-0.6907
N7425 G1 X9.0426 Y3.4085 Z-0.7524
N7430 G1 X9.0558 Y3.3787 Z-0.8
N7435 G1 X9.056 Y3.3644
N7440 G1 X9.0568 Y3.3179
N7445 G1 X9.0578 Y3.2721
N7450 G1 X9.0591 Y3.2336
N7455 G1 X9.0632 Y3.2504
N7460 G1 X9.0653 Y3.2587
N7465 G1 X9.0708 Y3.2779
N7470 G1 X9.0737 Y3.287
N7475 G1 X9.08 Y3.3059
N7480 G2 X9.0835 Y3.3156 I0.2033 J-0.0681
N7485 G1 X9.0907 Y3.3342
N7490 G2 X9.0947 Y3.3437 I0.1997 J-0.0778
N7495 G1 X9.0984 Y3.3519
N7500 G2 X9.0558 Y3.3787 I0.0922 J0.1935
N7505 G3 X9.0984 Y3.3519 I0.1348 J0.1667
N7510 G1 X9.1479 Y3.3722 Z-0.6658
N7515 G1 X9.1776 Y3.3867 Z-0.5942
N7520 G1 X9.2034 Y3.4014 Z-0.5394
N7525 G1 X9.2256 Y3.4163 Z-0.499
N7530 G1 X9.2452 Y3.4319 Z-0.4702
N7535 G1 X9.2626 Y3.448 Z-0.4518
N7540 G1 X9.2778 Y3.4649 Z-0.4428
N7545 G1 X9.3072 Y3.5039 Z-0.4425
N7550 G1 X9.3283 Y3.5306 Z-0.4456
N7555 G1 X9.3508 Y3.5543 Z-0.4575
N7560 G1 X9.3914 Y3.594 Z-0.475
N7565 G1 X9.422 Y3.6205 Z-0.484
N7570 G1 X9.4722 Y3.6572 Z-0.4925
N7575 G1 X9.5175 Y3.6848 Z-0.5007
N7580 G1 X9.5578 Y3.7059 Z-0.5132
N7585 G1 X9.5852 Y3.7174 Z-0.5196
N7590 G1 X9.6173 Y3.7289 Z-0.5277
N7595 G1 X9.676 Y3.7463 Z-0.5461
N7600 G1 X9.7196 Y3.7561 Z-0.5585
N7605 G1 X9.7608 Y3.7627 Z-0.5656
N7610 G1 X9.8164 Y3.7684 Z-0.5697
N7615 G1 X9.8789 Y3.768 Z-0.588
N7620 G1 X9.8885 Y3.7673 Z-0.5893
N7625 G1 X9.9562 Y3.7592 Z-0.593
N7630 G1 X10.021 Y3.7478 Z-0.6017
N7635 G1 X10.0695 Y3.7355 Z-0.6115
N7640 G1 X10.0946 Y3.7275 Z-0.6173
N7645 G1 X10.1459 Y3.7062 Z-0.6289
N7650 G1 X10.1935 Y3.6794 Z-0.6356
N7655 G1 X10.25 Y3.6395 Z-0.6404
N7660 G1 X10.3281 Y3.5746 Z-0.6446
N7665 G1 X10.349 Y3.5548 Z-0.6496
N7670 G1 X10.3559 Y3.5474 Z-0.6533
N7675 G1 X10.3808 Y3.5131 Z-0.6558
N7680 G1 X10.425 Y3.4496 Z-0.6609
N7685 G1 X10.4625 Y3.3883 Z-0.6668
N7690 G1 X10.4871 Y3.3401 Z-0.6712
N7695 G1 X10.4985 Y3.3136 Z-0.6727
N7700 G1 X10.5175 Y3.2567 Z-0.6731
N7705 G1 X10.5306 Y3.1987 Z-0.6713
N7710 G1 X10.5415 Y3.1234 Z-0.6696
N7715 G1 X10.5502 Y3.017 Z-0.6708
N7720 G1 X10.5509 Y2.9682 Z-0.6674
N7725 G1 X10.5439 Y2.8668 Z-0.664
N7730 G1 X10.5349 Y2.797 Z-0.6581
N7735 G1 X10.5206 Y2.7312 Z-0.6479
N7740 G1 X10.5017 Y2.6695 Z-0.6374
N7745 G1 X10.484 Y2.6225 Z-0.6335
N7750 G1 X10.4678 Y2.5843 Z-0.6341
N7755 G1 X10.4308 Y2.5163 Z-0.6301
N7760 G1 X10.3931 Y2.4568 Z-0.6274
N7765 G1 X10.3663 Y2.4192 Z-0.6219
N7770 G1 X10.339 Y2.3854 Z-0.6108
N7775 G1 X10.317 Y2.3639 Z-0.6075
N7780 G1 X10.2652 Y2.3192 Z-0.5986
N7785 G1 X10.2197 Y2.2834 Z-0.5915
N7790 G1 X10.1902 Y2.2643 Z-0.5819
N7795 G1 X10.1474 Y2.2401 Z-0.5702
N7800 G1 X10.1017 Y2.2179 Z-0.5634
N7805 G1 X10.0546 Y2.1999 Z-0.56
N7810 G1 X10.0144 Y2.1886 Z-0.5569
N7815 G1 X9.958 Y2.1777 Z-0.5512
N7820 G1 X9.847 Y2.1655 Z-0.5397
N7825 G1 X9.8182 Y2.1659 Z-0.536
N7830 G1 X9.7642 Y2.1709 Z-0.5345
N7835 G1 X9.7168 Y2.1765 Z-0.5352
N7840 G1 X9.6675 Y2.1848 Z-0.5394
N7845 G1 X9.6161 Y2.197 Z-0.5487
N7850 G1 X9.5568 Y2.2166 Z-0.5637
N7855 G1 X9.5026 Y2.24 Z-0.5753
N7860 G1 X9.4759 Y2.2538 Z-0.5772
N7865 G1 X9.4452 Y2.272 Z-0.5786
N7870 G1 X9.3969 Y2.307 Z-0.5843
N7875 G1 X9.3454 Y2.3493 Z-0.5876
N7880 G1 X9.3051 Y2.3869 Z-0.5939
N7885 G1 X9.2743 Y2.4189 Z-0.6043
N7890 G1 X9.2495 Y2.4469 Z-0.6171
N7895 G1 X9.224 Y2.4887 Z-0.6123
N7900 G1 X9.1778 Y2.5716 Z-0.6122
N7905 G1 X9.144 Y2.6444 Z-0.6256
N7910 G1 X9.1116 Y2.7244 Z-0.6421
N7915 G1 X9.0924 Y2.7827 Z-0.6565
N7920 G1 X9.0752 Y2.8524 Z-0.676
N7925 G1 X9.062 Y2.9315 Z-0.6972
N7930 G1 X9.0557 Y2.9862 Z-0.7089
N7935 G1 X9.0534 Y3.0301 Z-0.723
N7940 G1 X9.0527 Y3.1207 Z-0.7539
N7945 G1 X9.056 Y3.1963 Z-0.7827
N7950 G1 X9.0591 Y3.2336 Z-0.8
N7955 G0 Z15
N7965 M5
N7970 G53 G0 Z0

(Uncomment to skip until specified label)
(Skip label must exist, than jump label is accepted)
(SKIP L0000)

(L0011:)

(Contour)
M98 P1234 (call subroutine 1234)
N7975 M9
N7980 T21 M6
M98 P1234 (call subroutine 1234)
(3.0mm ALU 2-Flute)
N7985 S30000 M3
N7990 G54
N7995 M9
N8005 G0 X-0.3 Y27.4
N8010 G0 G43 Z15 H21
N8015 G0 Z5
N8020 G1 Z-0.2 F480
N8025 G19 G2 Y27.1 Z-0.5 J-0.3 K0
N8030 G1 Y26.8 F1440
N8035 G17 G3 X0 Y26.5 I0.3 J0
N8040 G1 X50
N8045 G2 X51.5 Y25 I0 J-1.5
N8050 G1 Y0
N8055 G2 X50 Y-1.5 I-1.5 J0
N8060 G1 X0
N8065 G2 X-1.5 Y0 I0 J1.5
N8070 G1 Y25
N8075 G2 X0 Y26.5 I1.5 J0
N8080 G1 X5
N8085 G3 X5.3 Y26.8 I0 J0.3
N8090 G1 Y27.1
N8095 G19 G3 Y27.4 Z-0.2 J0 K0.3
N8100 G0 Z5
N8105 G0 X-0.3
N8110 G1 Z-0.7 F480
N8115 G2 Y27.1 Z-1 J-0.3 K0
N8120 G1 Y26.8 F1440
N8125 G17 G3 X0 Y26.5 I0.3 J0
N8130 G1 X50
N8135 G2 X51.5 Y25 I0 J-1.5
N8140 G1 Y0
N8145 G2 X50 Y-1.5 I-1.5 J0
N8150 G1 X0
N8155 G2 X-1.5 Y0 I0 J1.5
N8160 G1 Y25
N8165 G2 X0 Y26.5 I1.5 J0
N8170 G1 X5
N8175 G3 X5.3 Y26.8 I0 J0.3
N8180 G1 Y27.1
N8185 G19 G3 Y27.4 Z-0.7 J0 K0.3
N8190 G0 Z5
N8195 G0 X-0.3
N8200 G1 Z-1.2 F480
N8205 G2 Y27.1 Z-1.5 J-0.3 K0
N8210 G1 Y26.8 F1440
N8215 G17 G3 X0 Y26.5 I0.3 J0
N8220 G1 X50
N8225 G2 X51.5 Y25 I0 J-1.5
N8230 G1 Y0
N8235 G2 X50 Y-1.5 I-1.5 J0
N8240 G1 X0
N8245 G2 X-1.5 Y0 I0 J1.5
N8250 G1 Y25
N8255 G2 X0 Y26.5 I1.5 J0
N8260 G1 X5
N8265 G3 X5.3 Y26.8 I0 J0.3
N8270 G1 Y27.1
N8275 G19 G3 Y27.4 Z-1.2 J0 K0.3
N8280 G0 Z5
N8285 G0 X-0.3
N8290 G1 Z-1.7 F480
N8295 G2 Y27.1 Z-2 J-0.3 K0
N8300 G1 Y26.8 F1440
N8305 G17 G3 X0 Y26.5 I0.3 J0
N8310 G1 X50
N8315 G2 X51.5 Y25 I0 J-1.5
N8320 G1 Y0
N8325 G2 X50 Y-1.5 I-1.5 J0
N8330 G1 X0
N8335 G2 X-1.5 Y0 I0 J1.5
N8340 G1 Y25
N8345 G2 X0 Y26.5 I1.5 J0
N8350 G1 X5
N8355 G3 X5.3 Y26.8 I0 J0.3
N8360 G1 Y27.1
N8365 G19 G3 Y27.4 Z-1.7 J0 K0.3
N8370 G0 Z5
N8375 G0 X-0.3
N8380 G1 Z-2.2 F480
N8385 G2 Y27.1 Z-2.5 J-0.3 K0
N8390 G1 Y26.8 F1440
N8395 G17 G3 X0 Y26.5 I0.3 J0
N8400 G1 X50
N8405 G2 X51.5 Y25 I0 J-1.5
N8410 G1 Y0
N8415 G2 X50 Y-1.5 I-1.5 J0
N8420 G1 X0
N8425 G2 X-1.5 Y0 I0 J1.5
N8430 G1 Y25
N8435 G2 X0 Y26.5 I1.5 J0
N8440 G1 X5
N8445 G3 X5.3 Y26.8 I0 J0.3
N8450 G1 Y27.1
N8455 G19 G3 Y27.4 Z-2.2 J0 K0.3
N8460 G0 Z5
N8465 G0 X-0.3
N8470 G1 Z-2.7 F480
N8475 G2 Y27.1 Z-3 J-0.3 K0
N8480 G1 Y26.8 F1440
N8485 G17 G3 X0 Y26.5 I0.3 J0
N8490 G1 X50
N8495 G2 X51.5 Y25 I0 J-1.5
N8500 G1 Y0
N8505 G2 X50 Y-1.5 I-1.5 J0
N8510 G1 X0
N8515 G2 X-1.5 Y0 I0 J1.5
N8520 G1 Y25
N8525 G2 X0 Y26.5 I1.5 J0
N8530 G1 X5
N8535 G3 X5.3 Y26.8 I0 J0.3
N8540 G1 Y27.1
N8545 G19 G3 Y27.4 Z-2.7 J0 K0.3
N8550 G0 Z5
N8555 G0 X-0.3
N8560 G1 Z-3.2 F480
N8565 G2 Y27.1 Z-3.5 J-0.3 K0
N8570 G1 Y26.8 F1440
N8575 G17 G3 X0 Y26.5 I0.3 J0
N8580 G1 X50
N8585 G2 X51.5 Y25 I0 J-1.5
N8590 G1 Y0
N8595 G2 X50 Y-1.5 I-1.5 J0
N8600 G1 X0
N8605 G2 X-1.5 Y0 I0 J1.5
N8610 G1 Y25
N8615 G2 X0 Y26.5 I1.5 J0
N8620 G1 X5
N8625 G3 X5.3 Y26.8 I0 J0.3
N8630 G1 Y27.1
N8635 G19 G3 Y27.4 Z-3.2 J0 K0.3
N8640 G0 Z5
N8645 G0 X-0.3
N8650 G1 Z-3.7 F480
N8655 G2 Y27.1 Z-4 J-0.3 K0
N8660 G1 Y26.8 F1440
N8665 G17 G3 X0 Y26.5 I0.3 J0
N8670 G1 X50
N8675 G2 X51.5 Y25 I0 J-1.5
N8680 G1 Y0
N8685 G2 X50 Y-1.5 I-1.5 J0
N8690 G1 X0
N8695 G2 X-1.5 Y0 I0 J1.5
N8700 G1 Y25
N8705 G2 X0 Y26.5 I1.5 J0
N8710 G1 X5
N8715 G3 X5.3 Y26.8 I0 J0.3
N8720 G1 Y27.1
N8725 G19 G3 Y27.4 Z-3.7 J0 K0.3
N8730 G0 Z5
N8735 G0 X-0.3
N8740 G1 Z-4.2 F480
N8745 G2 Y27.1 Z-4.5 J-0.3 K0
N8750 G1 Y26.8 F1440
N8755 G17 G3 X0 Y26.5 I0.3 J0
N8760 G1 X50
N8765 G2 X51.5 Y25 I0 J-1.5
N8770 G1 Y0
N8775 G2 X50 Y-1.5 I-1.5 J0
N8780 G1 X0
N8785 G2 X-1.5 Y0 I0 J1.5
N8790 G1 Y25
N8795 G2 X0 Y26.5 I1.5 J0
N8800 G1 X5
N8805 G3 X5.3 Y26.8 I0 J0.3
N8810 G1 Y27.1
N8815 G19 G3 Y27.4 Z-4.2 J0 K0.3
N8820 G0 Z5
N8825 G0 X-0.3
N8830 G1 Z-4.7 F480
N8835 G2 Y27.1 Z-5 J-0.3 K0
N8840 G1 Y26.8 F1440
N8845 G17 G3 X0 Y26.5 I0.3 J0
N8850 G1 X50
N8855 G2 X51.5 Y25 I0 J-1.5
N8860 G1 Y0
N8865 G2 X50 Y-1.5 I-1.5 J0
N8870 G1 X0
N8875 G2 X-1.5 Y0 I0 J1.5
N8880 G1 Y25
N8885 G2 X0 Y26.5 I1.5 J0
N8890 G1 X5
N8895 G3 X5.3 Y26.8 I0 J0.3
N8900 G1 Y27.1
N8905 G19 G3 Y27.4 Z-4.7 J0 K0.3
N8910 G0 Z5
N8915 G0 X-0.3
N8920 G1 Z-5.2 F480
N8925 G2 Y27.1 Z-5.5 J-0.3 K0
N8930 G1 Y26.8 F1440
N8935 G17 G3 X0 Y26.5 I0.3 J0
N8940 G1 X50
N8945 G2 X51.5 Y25 I0 J-1.5
N8950 G1 Y0
N8955 G2 X50 Y-1.5 I-1.5 J0
N8960 G1 X0
N8965 G2 X-1.5 Y0 I0 J1.5
N8970 G1 Y25
N8975 G2 X0 Y26.5 I1.5 J0
N8980 G1 X5
N8985 G3 X5.3 Y26.8 I0 J0.3
N8990 G1 Y27.1
N8995 G19 G3 Y27.4 Z-5.2 J0 K0.3
N9000 G0 Z5
N9005 G0 X-0.3
N9010 G1 Z-5.7 F480
N9015 G2 Y27.1 Z-6 J-0.3 K0
N9020 G1 Y26.8 F1440
N9025 G17 G3 X0 Y26.5 I0.3 J0
N9030 G1 X50
N9035 G2 X51.5 Y25 I0 J-1.5
N9040 G1 Y0
N9045 G2 X50 Y-1.5 I-1.5 J0
N9050 G1 X0
N9055 G2 X-1.5 Y0 I0 J1.5
N9060 G1 Y25
N9065 G2 X0 Y26.5 I1.5 J0
N9070 G1 X5
N9075 G3 X5.3 Y26.8 I0 J0.3
N9080 G1 Y27.1
N9085 G19 G3 Y27.4 Z-5.7 J0 K0.3
N9090 G0 Z5
N9095 G0 X-0.3
N9100 G1 Z-6.2 F480
N9105 G2 Y27.1 Z-6.5 J-0.3 K0
N9110 G1 Y26.8 F1440
N9115 G17 G3 X0 Y26.5 I0.3 J0
N9120 G1 X50
N9125 G2 X51.5 Y25 I0 J-1.5
N9130 G1 Y0
N9135 G2 X50 Y-1.5 I-1.5 J0
N9140 G1 X0
N9145 G2 X-1.5 Y0 I0 J1.5
N9150 G1 Y25
N9155 G2 X0 Y26.5 I1.5 J0
N9160 G1 X5
N9165 G3 X5.3 Y26.8 I0 J0.3
N9170 G1 Y27.1
N9175 G19 G3 Y27.4 Z-6.2 J0 K0.3
N9180 G0 Z5
N9185 G0 X-0.3
N9190 G1 Z-6.7 F480
N9195 G2 Y27.1 Z-7 J-0.3 K0
N9200 G1 Y26.8 F1440
N9205 G17 G3 X0 Y26.5 I0.3 J0
N9210 G1 X50
N9215 G2 X51.5 Y25 I0 J-1.5
N9220 G1 Y0
N9225 G2 X50 Y-1.5 I-1.5 J0
N9230 G1 X0
N9235 G2 X-1.5 Y0 I0 J1.5
N9240 G1 Y25
N9245 G2 X0 Y26.5 I1.5 J0
N9250 G1 X5
N9255 G3 X5.3 Y26.8 I0 J0.3
N9260 G1 Y27.1
N9265 G19 G3 Y27.4 Z-6.7 J0 K0.3
N9270 G0 Z5
N9275 G0 X-0.3
N9280 G1 Z-7.2 F480
N9285 G2 Y27.1 Z-7.5 J-0.3 K0
N9290 G1 Y26.8 F1440
N9295 G17 G3 X0 Y26.5 I0.3 J0
N9300 G1 X50
N9305 G2 X51.5 Y25 I0 J-1.5
N9310 G1 Y0
N9315 G2 X50 Y-1.5 I-1.5 J0
N9320 G1 X0
N9325 G2 X-1.5 Y0 I0 J1.5
N9330 G1 Y25
N9335 G2 X0 Y26.5 I1.5 J0
N9340 G1 X5
N9345 G3 X5.3 Y26.8 I0 J0.3
N9350 G1 Y27.1
N9355 G19 G3 Y27.4 Z-7.2 J0 K0.3
N9360 G0 Z5
N9365 G0 X-0.3
N9370 G1 Z-7.7 F480
N9375 G2 Y27.1 Z-8 J-0.3 K0
N9380 G1 Y26.8 F1440
N9385 G17 G3 X0 Y26.5 I0.3 J0
N9390 G1 X50
N9395 G2 X51.5 Y25 I0 J-1.5
N9400 G1 Y0
N9405 G2 X50 Y-1.5 I-1.5 J0
N9410 G1 X0
N9415 G2 X-1.5 Y0 I0 J1.5
N9420 G1 Y25
N9425 G2 X0 Y26.5 I1.5 J0
N9430 G1 X5
N9435 G3 X5.3 Y26.8 I0 J0.3
N9440 G1 Y27.1
N9445 G19 G3 Y27.4 Z-7.7 J0 K0.3
N9450 G0 Z5
N9455 G0 X-0.3
N9460 G1 Z-8.2 F480
N9465 G2 Y27.1 Z-8.5 J-0.3 K0
N9470 G1 Y26.8 F1440
N9475 G17 G3 X0 Y26.5 I0.3 J0
N9480 G1 X50
N9485 G2 X51.5 Y25 I0 J-1.5
N9490 G1 Y0
N9495 G2 X50 Y-1.5 I-1.5 J0
N9500 G1 X0
N9505 G2 X-1.5 Y0 I0 J1.5
N9510 G1 Y25
N9515 G2 X0 Y26.5 I1.5 J0
N9520 G1 X5
N9525 G3 X5.3 Y26.8 I0 J0.3
N9530 G1 Y27.1
N9535 G19 G3 Y27.4 Z-8.2 J0 K0.3
N9540 G0 Z5
N9545 G0 X-0.3
N9550 G1 Z-8.7 F480
N9555 G2 Y27.1 Z-9 J-0.3 K0
N9560 G1 Y26.8 F1440
N9565 G17 G3 X0 Y26.5 I0.3 J0
N9570 G1 X50
N9575 G2 X51.5 Y25 I0 J-1.5
N9580 G1 Y0
N9585 G2 X50 Y-1.5 I-1.5 J0
N9590 G1 X0
N9595 G2 X-1.5 Y0 I0 J1.5
N9600 G1 Y25
N9605 G2 X0 Y26.5 I1.5 J0
N9610 G1 X5
N9615 G3 X5.3 Y26.8 I0 J0.3
N9620 G1 Y27.1
N9625 G19 G3 Y27.4 Z-8.7 J0 K0.3
N9630 G0 Z5
N9635 G0 X-0.3
N9640 G1 Z-9.2 F480
N9645 G2 Y27.1 Z-9.5 J-0.3 K0
N9650 G1 Y26.8 F1440
N9655 G17 G3 X0 Y26.5 I0.3 J0
N9660 G1 X50
N9665 G2 X51.5 Y25 I0 J-1.5
N9670 G1 Y0
N9675 G2 X50 Y-1.5 I-1.5 J0
N9680 G1 X0
N9685 G2 X-1.5 Y0 I0 J1.5
N9690 G1 Y25
N9695 G2 X0 Y26.5 I1.5 J0
N9700 G1 X5
N9705 G3 X5.3 Y26.8 I0 J0.3
N9710 G1 Y27.1
N9715 G19 G3 Y27.4 Z-9.2 J0 K0.3
N9720 G0 Z5
N9725 G0 X-0.3
N9730 G1 Z-9.7 F480
N9735 G2 Y27.1 Z-10 J-0.3 K0
N9740 G1 Y26.8 F1440
N9745 G17 G3 X0 Y26.5 I0.3 J0
N9750 G1 X9.5
N9755 G1 Z-9.5
N9760 G1 X15.5
N9765 G1 Z-10 F480
N9770 G1 X34.5 F1440
N9775 G1 Z-9.5
N9780 G1 X40.5
N9785 G1 Z-10 F480
N9790 G1 X50 F1440
N9795 G2 X51.5 Y25 I0 J-1.5
N9800 G1 Y15.5
N9805 G1 Z-9.5
N9810 G1 Y9.5
N9815 G1 Z-10 F480
N9820 G1 Y0 F1440
N9825 G2 X50 Y-1.5 I-1.5 J0
N9830 G1 X40.5
N9835 G1 Z-9.5
N9840 G1 X34.5
N9845 G1 Z-10 F480
N9850 G1 X15.5 F1440
N9855 G1 Z-9.5
N9860 G1 X9.5
N9865 G1 Z-10 F480
N9870 G1 X0 F1440
N9875 G2 X-1.5 Y0 I0 J1.5
N9880 G1 Y9.5
N9885 G1 Z-9.5
N9890 G1 Y15.5
N9895 G1 Z-10 F480
N9900 G1 Y25 F1440
N9905 G2 X0 Y26.5 I1.5 J0
N9910 G1 X5
N9915 G3 X5.3 Y26.8 I0 J0.3
N9920 G1 Y27.1
N9925 G19 G3 Y27.4 Z-9.7 J0 K0.3
N9930 G0 Z15
N9935 G17
N9940 M9
N9945 G53 G0 Z0

M98 P1234 (call subroutine 1234)

N9950 G28
N9955 M30


(Subroutine 1234)
O1234:
G53 (machine coordinates)
G0 (go fast)
Z=#102 (safety height)
Y=#101
X=#100
G54 (workpiece coordinates)
M99 (End Subroutine 1234)

